(.../pcb-gcode-3_6_0_4/pcb-gcode.ulp)
(Copyright 2005 - 2012 by John Johnson)
(See readme.txt for licensing terms.)
(This file generated from the board:)
(.../gabrielvalky/Documents/eagle/555pokus5.brd)
(Current profile is .../pcb-gcode-3_6_0_4/profiles/mach.pp  )
(This file generated 8/20/19 3:24 PM)
(Settings from pcb-machine.h)
(  Tool Size)
(0.2500  )
(Z Axis Settings)
(  High     Up        Down     Drill)
(10.0000 	1.0000  	0.0000  	-1.0000 )
(spindle on time = 3.0000)
(milling depth = -0.2500)
(text depth = -0.1200)
(tool change at 12.7000 15.2400 25.4000 )
(feed rate xy = F300   )
(feed rate z  = F70    )
(Settings from pcb-defaults.h)
(isolate min = 0.0200)
(isolate max = 0.5000)
(isolate step = 0.2000)
(Generated bottom outlines, bottom drill, )
(Unit of measure: mm)
(Metric Mode)
G21
(Absolute Coordinates)
G90
G00 X0.0000  Y0.0000  
M03
G04 P3.000000
G00 Z1.0000  
G00 X-58.4639 Y48.0995 
G01 Z0.0000  F70    
G01 X-58.5215 Y48.0995 F300   
G01 X-58.5390 Y48.0987 
G01 X-58.5735 Y48.0922 
G01 X-58.6062 Y48.0795 
G01 X-58.6361 Y48.0611 
G01 X-58.6620 Y48.0374 
G01 X-58.6831 Y48.0094 
G01 X-58.6988 Y47.9780 
G01 X-58.7084 Y47.9443 
G01 X-58.7116 Y47.9093 
G01 X-58.7084 Y47.8744 
G01 X-58.6988 Y47.8407 
G01 X-58.6831 Y47.8092 
G01 X-58.6620 Y47.7812 
G01 X-58.6361 Y47.7576 
G01 X-58.6062 Y47.7391 
G01 X-58.5735 Y47.7265 
G01 X-58.5390 Y47.7200 
G01 X-58.5215 Y47.7192 
G01 X-58.1521 Y47.7192 
G01 X-58.1521 Y48.0995 
G01 X-58.4639 Y48.0995 
G00 Z1.0000  
G00 X-60.7132 Y36.5533 
G01 Z0.0000  F70    
G01 X-60.9015 Y36.6248 F300   
G01 X-61.0955 Y36.6789 
G01 X-61.2937 Y36.7153 
G01 X-61.4625 Y36.7306 
G01 X-60.6112 Y36.0496 
G01 X-60.5974 Y36.0543 
G01 X-60.5699 Y36.0677 
G01 X-60.5517 Y36.0713 
G01 X-60.5183 Y36.0898 
G01 X-60.4873 Y36.1151 
G01 X-60.4613 Y36.1455 
G01 X-60.4410 Y36.1800 
G01 X-60.4271 Y36.2175 
G01 X-60.4201 Y36.2569 
G01 X-60.4192 Y36.2768 
G01 X-60.4201 Y36.2968 
G01 X-60.4271 Y36.3362 
G01 X-60.4410 Y36.3737 
G01 X-60.4613 Y36.4082 
G01 X-60.4873 Y36.4386 
G01 X-60.5183 Y36.4639 
G01 X-60.5517 Y36.4824 
G01 X-60.5699 Y36.4860 
G01 X-60.5974 Y36.4994 
G01 X-60.6263 Y36.5093 
G01 X-60.6454 Y36.5221 
G01 X-60.7132 Y36.5533 
G00 Z1.0000  
G00 X-62.5926 Y36.4994 
G01 Z0.0000  F70    
G01 X-62.6201 Y36.4860 F300   
G01 X-62.6383 Y36.4824 
G01 X-62.6717 Y36.4639 
G01 X-62.7027 Y36.4386 
G01 X-62.7287 Y36.4082 
G01 X-62.7490 Y36.3737 
G01 X-62.7629 Y36.3362 
G01 X-62.7699 Y36.2968 
G01 X-62.7708 Y36.2768 
G01 X-62.7699 Y36.2569 
G01 X-62.7629 Y36.2175 
G01 X-62.7490 Y36.1800 
G01 X-62.7287 Y36.1455 
G01 X-62.7027 Y36.1151 
G01 X-62.6717 Y36.0898 
G01 X-62.6383 Y36.0713 
G01 X-62.6201 Y36.0677 
G01 X-62.5926 Y36.0543 
G01 X-62.5637 Y36.0444 
G01 X-62.5446 Y36.0316 
G01 X-62.4768 Y36.0004 
G01 X-62.2885 Y35.9289 
G01 X-62.0945 Y35.8748 
G01 X-61.8963 Y35.8384 
G01 X-61.7275 Y35.8231 
G01 X-62.5788 Y36.5041 
G01 X-62.5926 Y36.4994 
G00 Z1.0000  
G00 X-61.8529 Y41.8126 
G01 Z0.0000  F70    
G01 X-61.8529 Y42.4508 F300   
G01 X-62.2543 Y42.4508 
G01 X-62.3118 Y42.4508 
G01 X-62.3497 Y42.4492 
G01 X-62.4245 Y42.4368 
G01 X-62.4962 Y42.4121 
G01 X-62.5629 Y42.3761 
G01 X-62.6227 Y42.3295 
G01 X-62.6740 Y42.2737 
G01 X-62.7155 Y42.2103 
G01 X-62.7459 Y42.1409 
G01 X-62.7645 Y42.0674 
G01 X-62.7708 Y41.9918 
G01 X-62.7645 Y41.9163 
G01 X-62.7459 Y41.8428 
G01 X-62.7155 Y41.7734 
G01 X-62.6740 Y41.7099 
G01 X-62.6227 Y41.6542 
G01 X-62.5629 Y41.6076 
G01 X-62.4962 Y41.5715 
G01 X-62.4245 Y41.5469 
G01 X-62.3497 Y41.5345 
G01 X-62.3118 Y41.5329 
G01 X-62.1326 Y41.5329 
G01 X-62.1082 Y41.5340 
G01 X-62.0602 Y41.5424 
G01 X-62.0144 Y41.5591 
G01 X-61.9722 Y41.5835 
G01 X-61.9348 Y41.6148 
G01 X-61.9035 Y41.6522 
G01 X-61.8791 Y41.6944 
G01 X-61.8624 Y41.7402 
G01 X-61.8540 Y41.7883 
G01 X-61.8529 Y41.8126 
G00 Z1.0000  
G00 X-66.5808 Y48.6371 
G01 Z0.0000  F70    
G01 X-66.5808 Y47.7192 F300   
G01 X-66.1218 Y47.7192 
G01 X-66.0839 Y47.7208 
G01 X-66.0092 Y47.7332 
G01 X-65.9375 Y47.7579 
G01 X-65.8708 Y47.7939 
G01 X-65.8110 Y47.8405 
G01 X-65.7597 Y47.8963 
G01 X-65.7182 Y47.9597 
G01 X-65.6878 Y48.0291 
G01 X-65.6691 Y48.1026 
G01 X-65.6629 Y48.1782 
G01 X-65.6691 Y48.2537 
G01 X-65.6878 Y48.3272 
G01 X-65.7182 Y48.3966 
G01 X-65.7597 Y48.4601 
G01 X-65.8110 Y48.5158 
G01 X-65.8708 Y48.5624 
G01 X-65.9375 Y48.5985 
G01 X-66.0092 Y48.6231 
G01 X-66.0839 Y48.6355 
G01 X-66.1218 Y48.6371 
G01 X-66.1794 Y48.6371 
G01 X-66.5808 Y48.6371 
G00 Z1.0000  
G00 X-65.8516 Y49.7187 
G01 Z0.0000  F70    
G01 X-65.8432 Y49.7667 F300   
G01 X-65.8432 Y49.8154 
G01 X-65.8516 Y49.8635 
G01 X-65.8683 Y49.9093 
G01 X-65.8927 Y49.9515 
G01 X-65.9240 Y49.9889 
G01 X-65.9614 Y50.0202 
G01 X-66.0036 Y50.0446 
G01 X-66.0494 Y50.0613 
G01 X-66.0975 Y50.0697 
G01 X-66.1218 Y50.0708 
G01 X-66.5808 Y50.0708 
G01 X-66.5808 Y49.5113 
G01 X-66.1218 Y49.5113 
G01 X-66.0975 Y49.5124 
G01 X-66.0494 Y49.5208 
G01 X-66.0036 Y49.5375 
G01 X-65.9614 Y49.5619 
G01 X-65.9240 Y49.5932 
G01 X-65.8927 Y49.6306 
G01 X-65.8683 Y49.6728 
G01 X-65.8516 Y49.7187 
G00 Z1.0000  
G00 X-69.2986 Y22.1414 
G01 Z0.0000  F70    
G01 X-27.2214 Y22.1414 F300   
G01 X-27.2214 Y51.5186 
G01 X-69.2986 Y51.5186 
G01 X-69.2986 Y22.1414 
G00 Z1.0000  
G00 X-63.2384 Y50.4504 
G01 Z0.0000  F70    
G01 X-63.2384 Y50.5654 F300   
G01 X-63.2086 Y50.6766 
G01 X-63.1510 Y50.7763 
G01 X-63.0697 Y50.8577 
G01 X-62.9700 Y50.9152 
G01 X-62.8588 Y50.9450 
G01 X-62.5645 Y50.9450 
G01 X-62.4533 Y50.9152 
G01 X-62.3537 Y50.8577 
G01 X-62.2723 Y50.7763 
G01 X-62.2148 Y50.6766 
G01 X-62.1850 Y50.5654 
G01 X-62.1850 Y50.2711 
G01 X-62.2148 Y50.1600 
G01 X-62.2723 Y50.0603 
G01 X-62.3537 Y49.9789 
G01 X-62.4533 Y49.9214 
G01 X-62.5645 Y49.8916 
G01 X-62.8588 Y49.8916 
G01 X-62.9700 Y49.9214 
G01 X-63.0697 Y49.9789 
G01 X-63.1510 Y50.0603 
G01 X-63.2086 Y50.1600 
G01 X-63.2384 Y50.2711 
G01 X-63.2384 Y50.3862 
G01 X-63.2384 Y50.4504 
G00 Z1.0000  
G00 X-62.2746 Y49.4902 
G01 Z0.0000  F70    
G01 X-62.2746 Y47.2246 F300   
G01 X-62.3044 Y47.1134 
G01 X-62.3619 Y47.0137 
G01 X-62.4433 Y46.9323 
G01 X-62.5430 Y46.8748 
G01 X-62.6541 Y46.8450 
G01 X-62.7692 Y46.8450 
G01 X-62.8804 Y46.8748 
G01 X-62.9801 Y46.9323 
G01 X-63.0614 Y47.0137 
G01 X-63.1190 Y47.1134 
G01 X-63.1488 Y47.2246 
G01 X-63.1488 Y49.4902 
G01 X-63.1190 Y49.6013 
G01 X-63.0614 Y49.7010 
G01 X-62.9801 Y49.7824 
G01 X-62.8804 Y49.8399 
G01 X-62.7692 Y49.8697 
G01 X-62.6541 Y49.8697 
G01 X-62.5430 Y49.8399 
G01 X-62.4433 Y49.7824 
G01 X-62.3619 Y49.7010 
G01 X-62.3044 Y49.6013 
G01 X-62.2746 Y49.4902 
G00 Z1.0000  
G00 X-64.6502 Y47.7622 
G01 Z0.0000  F70    
G01 X-64.6502 Y50.5654 F300   
G01 X-64.6204 Y50.6766 
G01 X-64.5628 Y50.7763 
G01 X-64.4815 Y50.8577 
G01 X-64.3818 Y50.9152 
G01 X-64.2706 Y50.9450 
G01 X-64.1555 Y50.9450 
G01 X-64.0444 Y50.9152 
G01 X-63.9447 Y50.8577 
G01 X-63.8633 Y50.7763 
G01 X-63.8058 Y50.6766 
G01 X-63.7760 Y50.5654 
G01 X-63.7760 Y47.8197 
G01 X-63.7756 Y47.8110 
G01 X-63.7726 Y47.7937 
G01 X-63.7666 Y47.7772 
G01 X-63.7578 Y47.7621 
G01 X-63.7465 Y47.7486 
G01 X-63.7331 Y47.7374 
G01 X-63.7179 Y47.7286 
G01 X-63.7015 Y47.7226 
G01 X-63.6842 Y47.7196 
G01 X-63.6755 Y47.7192 
G01 X-63.6179 Y47.7192 
G01 X-63.5067 Y47.6894 
G01 X-63.4071 Y47.6319 
G01 X-63.3257 Y47.5505 
G01 X-63.2681 Y47.4508 
G01 X-63.2384 Y47.3396 
G01 X-63.2384 Y47.2246 
G01 X-63.2681 Y47.1134 
G01 X-63.3257 Y47.0137 
G01 X-63.4071 Y46.9323 
G01 X-63.5067 Y46.8748 
G01 X-63.6179 Y46.8450 
G01 X-63.7607 Y46.8450 
G01 X-63.9287 Y46.8746 
G01 X-64.0890 Y46.9330 
G01 X-64.2367 Y47.0182 
G01 X-64.3673 Y47.1279 
G01 X-64.4770 Y47.2585 
G01 X-64.5622 Y47.4062 
G01 X-64.6206 Y47.5665 
G01 X-64.6502 Y47.7345 
G01 X-64.6502 Y47.7622 
G00 Z1.0000  
G00 X-67.4550 Y49.0167 
G01 Z0.0000  F70    
G01 X-67.4550 Y50.5654 F300   
G01 X-67.4252 Y50.6766 
G01 X-67.3677 Y50.7763 
G01 X-67.2863 Y50.8577 
G01 X-67.1866 Y50.9152 
G01 X-67.0754 Y50.9450 
G01 X-66.0209 Y50.9450 
G01 X-65.8220 Y50.9099 
G01 X-65.6323 Y50.8409 
G01 X-65.4574 Y50.7399 
G01 X-65.3028 Y50.6101 
G01 X-65.1730 Y50.4555 
G01 X-65.0720 Y50.2806 
G01 X-65.0030 Y50.0909 
G01 X-64.9679 Y49.8920 
G01 X-64.9679 Y49.6901 
G01 X-65.0030 Y49.4913 
G01 X-65.0720 Y49.3015 
G01 X-65.1730 Y49.1267 
G01 X-65.1777 Y49.1210 
G01 X-65.0662 Y48.9998 
G01 X-64.9454 Y48.8148 
G01 X-64.8566 Y48.6125 
G01 X-64.8024 Y48.3983 
G01 X-64.7841 Y48.1782 
G01 X-64.8024 Y47.9580 
G01 X-64.8566 Y47.7438 
G01 X-64.9454 Y47.5415 
G01 X-65.0662 Y47.3565 
G01 X-65.2158 Y47.1940 
G01 X-65.3902 Y47.0583 
G01 X-65.5845 Y46.9531 
G01 X-65.7935 Y46.8814 
G01 X-66.0114 Y46.8450 
G01 X-66.1794 Y46.8450 
G01 X-67.0754 Y46.8450 
G01 X-67.1866 Y46.8748 
G01 X-67.2863 Y46.9323 
G01 X-67.3677 Y47.0137 
G01 X-67.4252 Y47.1134 
G01 X-67.4550 Y47.2246 
G01 X-67.4550 Y49.0167 
G00 Z1.0000  
G00 X-60.9787 Y41.8702 
G01 Z0.0000  F70    
G01 X-60.9787 Y41.7117 F300   
G01 X-61.0138 Y41.5128 
G01 X-61.0828 Y41.3231 
G01 X-61.1838 Y41.1482 
G01 X-61.3136 Y40.9936 
G01 X-61.4682 Y40.8638 
G01 X-61.6431 Y40.7628 
G01 X-61.8328 Y40.6938 
G01 X-62.0317 Y40.6587 
G01 X-62.4223 Y40.6587 
G01 X-62.6402 Y40.6951 
G01 X-62.8492 Y40.7668 
G01 X-63.0435 Y40.8719 
G01 X-63.2179 Y41.0077 
G01 X-63.3675 Y41.1702 
G01 X-63.4883 Y41.3552 
G01 X-63.5771 Y41.5575 
G01 X-63.6313 Y41.7717 
G01 X-63.6496 Y41.9918 
G01 X-63.6313 Y42.2120 
G01 X-63.5771 Y42.4262 
G01 X-63.4883 Y42.6285 
G01 X-63.3675 Y42.8135 
G01 X-63.2179 Y42.9760 
G01 X-63.0435 Y43.1117 
G01 X-62.8492 Y43.2169 
G01 X-62.6402 Y43.2886 
G01 X-62.4223 Y43.3250 
G01 X-62.3694 Y43.3250 
G01 X-61.2820 Y43.3250 
G01 X-61.0171 Y43.2869 
G01 X-60.7603 Y43.2115 
G01 X-60.5169 Y43.1004 
G01 X-60.2918 Y42.9557 
G01 X-60.0896 Y42.7804 
G01 X-59.9143 Y42.5782 
G01 X-59.7696 Y42.3531 
G01 X-59.6585 Y42.1097 
G01 X-59.5831 Y41.8529 
G01 X-59.5450 Y41.5880 
G01 X-59.5450 Y41.3967 
G01 X-59.5748 Y41.2855 
G01 X-59.6323 Y41.1858 
G01 X-59.7137 Y41.1044 
G01 X-59.8134 Y41.0469 
G01 X-59.9246 Y41.0171 
G01 X-60.0396 Y41.0171 
G01 X-60.1508 Y41.0469 
G01 X-60.2505 Y41.1044 
G01 X-60.3319 Y41.1858 
G01 X-60.3894 Y41.2855 
G01 X-60.4192 Y41.3967 
G01 X-60.4192 Y41.4542 
G01 X-60.4217 Y41.5253 
G01 X-60.4420 Y41.6661 
G01 X-60.4820 Y41.8025 
G01 X-60.5411 Y41.9318 
G01 X-60.6180 Y42.0514 
G01 X-60.7111 Y42.1589 
G01 X-60.8186 Y42.2520 
G01 X-60.9382 Y42.3289 
G01 X-60.9787 Y42.3474 
G01 X-60.9787 Y41.8702 
G00 Z1.0000  
G00 X-62.1138 Y38.4664 
G01 Z0.0000  F70    
G01 X-62.0676 Y38.3610 F300   
G01 X-62.0503 Y38.2472 
G01 X-62.0630 Y38.1328 
G01 X-62.1049 Y38.0256 
G01 X-62.1731 Y37.9329 
G01 X-62.2629 Y37.8610 
G01 X-62.3683 Y37.8148 
G01 X-62.4821 Y37.7975 
G01 X-62.5965 Y37.8102 
G01 X-62.7037 Y37.8521 
G01 X-62.7964 Y37.9203 
G01 X-63.5341 Y38.8424 
G01 X-63.5577 Y38.8660 
G01 X-63.5699 Y38.8871 
G01 X-63.5852 Y38.9062 
G01 X-63.5985 Y38.9368 
G01 X-63.6152 Y38.9656 
G01 X-63.6215 Y38.9892 
G01 X-63.6314 Y39.0116 
G01 X-63.6364 Y39.0446 
G01 X-63.6450 Y39.0768 
G01 X-63.6450 Y39.1013 
G01 X-63.6487 Y39.1254 
G01 X-63.6450 Y39.1586 
G01 X-63.6450 Y39.1919 
G01 X-63.6387 Y39.2155 
G01 X-63.6360 Y39.2398 
G01 X-63.6238 Y39.2709 
G01 X-63.6152 Y39.3031 
G01 X-63.6030 Y39.3242 
G01 X-63.5941 Y39.3470 
G01 X-63.5743 Y39.3739 
G01 X-63.5577 Y39.4027 
G01 X-63.5404 Y39.4200 
G01 X-63.5259 Y39.4397 
G01 X-63.4999 Y39.4605 
G01 X-63.4763 Y39.4841 
G01 X-63.4551 Y39.4963 
G01 X-63.4360 Y39.5116 
G01 X-63.4055 Y39.5250 
G01 X-63.3766 Y39.5417 
G01 X-63.3530 Y39.5480 
G01 X-63.3306 Y39.5578 
G01 X-63.2976 Y39.5628 
G01 X-63.2654 Y39.5714 
G01 X-63.2410 Y39.5714 
G01 X-63.2168 Y39.5751 
G01 X-63.1837 Y39.5714 
G01 X-60.4192 Y39.5714 
G01 X-60.4192 Y40.0879 
G01 X-60.3894 Y40.1991 
G01 X-60.3319 Y40.2988 
G01 X-60.2505 Y40.3802 
G01 X-60.1508 Y40.4377 
G01 X-60.0396 Y40.4675 
G01 X-59.9246 Y40.4675 
G01 X-59.8134 Y40.4377 
G01 X-59.7137 Y40.3802 
G01 X-59.6323 Y40.2988 
G01 X-59.5748 Y40.1991 
G01 X-59.5450 Y40.0879 
G01 X-59.5450 Y38.1807 
G01 X-59.5748 Y38.0696 
G01 X-59.6323 Y37.9699 
G01 X-59.7137 Y37.8885 
G01 X-59.8134 Y37.8310 
G01 X-59.9246 Y37.8012 
G01 X-60.0396 Y37.8012 
G01 X-60.1508 Y37.8310 
G01 X-60.2505 Y37.8885 
G01 X-60.3319 Y37.9699 
G01 X-60.3894 Y38.0696 
G01 X-60.4192 Y38.1807 
G01 X-60.4192 Y38.6972 
G01 X-62.2985 Y38.6972 
G01 X-62.1138 Y38.4664 
G00 Z1.0000  
G00 X-61.5375 Y34.9437 
G01 Z0.0000  F70    
G01 X-61.7355 Y34.9437 F300   
G01 X-62.0154 Y34.9692 
G01 X-62.2917 Y35.0199 
G01 X-62.5624 Y35.0954 
G01 X-62.8251 Y35.1951 
G01 X-62.9272 Y35.2449 
G01 X-62.9941 Y35.2678 
G01 X-63.1649 Y35.3628 
G01 X-63.3163 Y35.4865 
G01 X-63.4436 Y35.6349 
G01 X-63.5427 Y35.8034 
G01 X-63.6105 Y35.9867 
G01 X-63.6450 Y36.1791 
G01 X-63.6450 Y36.3746 
G01 X-63.6105 Y36.5670 
G01 X-63.5427 Y36.7503 
G01 X-63.4436 Y36.9188 
G01 X-63.3163 Y37.0672 
G01 X-63.1649 Y37.1909 
G01 X-62.9941 Y37.2859 
G01 X-62.9272 Y37.3088 
G01 X-62.8251 Y37.3586 
G01 X-62.5624 Y37.4583 
G01 X-62.2917 Y37.5338 
G01 X-62.0154 Y37.5845 
G01 X-61.7355 Y37.6100 
G01 X-61.4545 Y37.6100 
G01 X-61.1746 Y37.5845 
G01 X-60.8983 Y37.5338 
G01 X-60.6276 Y37.4583 
G01 X-60.3649 Y37.3586 
G01 X-60.2628 Y37.3088 
G01 X-60.1959 Y37.2859 
G01 X-60.0251 Y37.1909 
G01 X-59.8737 Y37.0672 
G01 X-59.7464 Y36.9188 
G01 X-59.6473 Y36.7503 
G01 X-59.5795 Y36.5670 
G01 X-59.5450 Y36.3746 
G01 X-59.5450 Y36.1791 
G01 X-59.5795 Y35.9867 
G01 X-59.6473 Y35.8034 
G01 X-59.7464 Y35.6349 
G01 X-59.8737 Y35.4865 
G01 X-60.0251 Y35.3628 
G01 X-60.1959 Y35.2678 
G01 X-60.2628 Y35.2449 
G01 X-60.3649 Y35.1951 
G01 X-60.6276 Y35.0954 
G01 X-60.8983 Y35.0199 
G01 X-61.1746 Y34.9692 
G01 X-61.4545 Y34.9437 
G01 X-61.5374 Y34.9437 
G00 Z1.0000  
G00 X-63.6450 Y33.6068 
G01 Z0.0000  F70    
G01 X-63.6144 Y33.8002 F300   
G01 X-63.5539 Y33.9863 
G01 X-63.4650 Y34.1607 
G01 X-63.3500 Y34.3191 
G01 X-63.2116 Y34.4575 
G01 X-63.0532 Y34.5725 
G01 X-62.8788 Y34.6614 
G01 X-62.6926 Y34.7219 
G01 X-62.4993 Y34.7525 
G01 X-62.2957 Y34.7525 
G01 X-62.0869 Y34.7184 
G01 X-61.8864 Y34.6511 
G01 X-61.6993 Y34.5523 
G01 X-61.5306 Y34.4246 
G01 X-61.4736 Y34.3647 
G01 X-60.4192 Y33.4685 
G01 X-60.4192 Y34.3730 
G01 X-60.3894 Y34.4841 
G01 X-60.3319 Y34.5838 
G01 X-60.2505 Y34.6652 
G01 X-60.1508 Y34.7227 
G01 X-60.0396 Y34.7525 
G01 X-59.9246 Y34.7525 
G01 X-59.8134 Y34.7227 
G01 X-59.7137 Y34.6652 
G01 X-59.6323 Y34.5838 
G01 X-59.5748 Y34.4841 
G01 X-59.5450 Y34.3730 
G01 X-59.5450 Y32.5410 
G01 X-59.5418 Y32.5013 
G01 X-59.5450 Y32.4837 
G01 X-59.5450 Y32.4658 
G01 X-59.5553 Y32.4273 
G01 X-59.5625 Y32.3881 
G01 X-59.5702 Y32.3719 
G01 X-59.5748 Y32.3546 
G01 X-59.5947 Y32.3201 
G01 X-59.6118 Y32.2841 
G01 X-59.6234 Y32.2704 
G01 X-59.6323 Y32.2549 
G01 X-59.6605 Y32.2267 
G01 X-59.6863 Y32.1964 
G01 X-59.7011 Y32.1862 
G01 X-59.7137 Y32.1735 
G01 X-59.7482 Y32.1536 
G01 X-59.7810 Y32.1310 
G01 X-59.7979 Y32.1249 
G01 X-59.8134 Y32.1160 
G01 X-59.8519 Y32.1057 
G01 X-59.8894 Y32.0923 
G01 X-59.9073 Y32.0908 
G01 X-59.9246 Y32.0862 
G01 X-59.9644 Y32.0862 
G01 X-60.0041 Y32.0830 
G01 X-60.0217 Y32.0862 
G01 X-60.0396 Y32.0862 
G01 X-60.0781 Y32.0965 
G01 X-60.1173 Y32.1037 
G01 X-60.1335 Y32.1114 
G01 X-60.1508 Y32.1160 
G01 X-60.1853 Y32.1359 
G01 X-60.2213 Y32.1530 
G01 X-60.2350 Y32.1646 
G01 X-60.2505 Y32.1735 
G01 X-60.2787 Y32.2017 
G01 X-62.0312 Y33.6913 
G01 X-62.0510 Y33.7035 
G01 X-62.0748 Y33.7285 
G01 X-62.1011 Y33.7508 
G01 X-62.1103 Y33.7641 
G01 X-62.1157 Y33.7693 
G01 X-62.1710 Y33.8112 
G01 X-62.2324 Y33.8436 
G01 X-62.2982 Y33.8657 
G01 X-62.3667 Y33.8769 
G01 X-62.4015 Y33.8783 
G01 X-62.4304 Y33.8772 
G01 X-62.4877 Y33.8681 
G01 X-62.5428 Y33.8502 
G01 X-62.5944 Y33.8239 
G01 X-62.6413 Y33.7898 
G01 X-62.6823 Y33.7488 
G01 X-62.7164 Y33.7019 
G01 X-62.7427 Y33.6503 
G01 X-62.7606 Y33.5952 
G01 X-62.7697 Y33.5379 
G01 X-62.7708 Y33.5090 
G01 X-62.7690 Y33.4619 
G01 X-62.7542 Y33.3690 
G01 X-62.7251 Y33.2796 
G01 X-62.6824 Y33.1958 
G01 X-62.6271 Y33.1197 
G01 X-62.5605 Y33.0532 
G01 X-62.4844 Y32.9980 
G01 X-62.4006 Y32.9554 
G01 X-62.3564 Y32.9391 
G01 X-62.3016 Y32.9214 
G01 X-62.2050 Y32.8588 
G01 X-62.1280 Y32.7734 
G01 X-62.0756 Y32.6709 
G01 X-62.0516 Y32.5583 
G01 X-62.0575 Y32.4434 
G01 X-62.0929 Y32.3339 
G01 X-62.1555 Y32.2373 
G01 X-62.2410 Y32.1602 
G01 X-62.3435 Y32.1079 
G01 X-62.4560 Y32.0838 
G01 X-62.5710 Y32.0897 
G01 X-62.6257 Y32.1075 
G01 X-62.7361 Y32.1432 
G01 X-62.9430 Y32.2484 
G01 X-63.1308 Y32.3847 
G01 X-63.2950 Y32.5486 
G01 X-63.4315 Y32.7363 
G01 X-63.5369 Y32.9430 
G01 X-63.6087 Y33.1637 
G01 X-63.6450 Y33.3929 
G01 X-63.6450 Y33.5665 
G01 X-63.6450 Y33.6068 
G00 Z1.0000  
G00 X-61.0714 Y50.5654 
G01 Z0.0000  F70    
G01 X-61.0714 Y49.2316 F300   
G01 X-60.2910 Y49.8168 
G01 X-60.1842 Y49.8597 
G01 X-60.0699 Y49.8735 
G01 X-59.9560 Y49.8572 
G01 X-59.8502 Y49.8120 
G01 X-59.7596 Y49.7409 
G01 X-59.6906 Y49.6489 
G01 X-59.6477 Y49.5420 
G01 X-59.6339 Y49.4278 
G01 X-59.6502 Y49.3138 
G01 X-59.6954 Y49.2080 
G01 X-59.7665 Y49.1175 
G01 X-60.3287 Y48.6958 
G01 X-59.6615 Y47.4358 
G01 X-59.6359 Y47.3236 
G01 X-59.6401 Y47.2086 
G01 X-59.6739 Y47.0986 
G01 X-59.7351 Y47.0011 
G01 X-59.8194 Y46.9227 
G01 X-59.9211 Y46.8689 
G01 X-60.0333 Y46.8432 
G01 X-60.1483 Y46.8474 
G01 X-60.2583 Y46.8813 
G01 X-60.3558 Y46.9424 
G01 X-60.4342 Y47.0267 
G01 X-61.0367 Y48.1648 
G01 X-61.0714 Y48.1388 
G01 X-61.0714 Y47.2246 
G01 X-61.1012 Y47.1134 
G01 X-61.1587 Y47.0137 
G01 X-61.2401 Y46.9323 
G01 X-61.3397 Y46.8748 
G01 X-61.4509 Y46.8450 
G01 X-61.5660 Y46.8450 
G01 X-61.6772 Y46.8748 
G01 X-61.7768 Y46.9323 
G01 X-61.8582 Y47.0137 
G01 X-61.9158 Y47.1134 
G01 X-61.9456 Y47.2246 
G01 X-61.9456 Y48.3311 
G01 X-61.9493 Y48.3622 
G01 X-61.9456 Y48.3884 
G01 X-61.9456 Y50.5654 
G01 X-61.9158 Y50.6766 
G01 X-61.8582 Y50.7763 
G01 X-61.7768 Y50.8577 
G01 X-61.6772 Y50.9152 
G01 X-61.5660 Y50.9450 
G01 X-61.4509 Y50.9450 
G01 X-61.3397 Y50.9152 
G01 X-61.2401 Y50.8577 
G01 X-61.1587 Y50.7763 
G01 X-61.1012 Y50.6766 
G01 X-61.0714 Y50.5654 
G00 Z1.0000  
G00 X-58.5790 Y46.8450 
G01 Z0.0000  F70    
G01 X-58.6201 Y46.8450 F300   
G01 X-58.8140 Y46.8812 
G01 X-58.9979 Y46.9525 
G01 X-59.1656 Y47.0563 
G01 X-59.3114 Y47.1892 
G01 X-59.4303 Y47.3466 
G01 X-59.5182 Y47.5232 
G01 X-59.5722 Y47.7129 
G01 X-59.5904 Y47.9093 
G01 X-59.5722 Y48.1057 
G01 X-59.5182 Y48.2955 
G01 X-59.4303 Y48.4720 
G01 X-59.3114 Y48.6294 
G01 X-59.1656 Y48.7623 
G01 X-58.9979 Y48.8662 
G01 X-58.8140 Y48.9374 
G01 X-58.6201 Y48.9737 
G01 X-58.1906 Y48.9737 
G01 X-58.1950 Y48.9774 
G01 X-58.2102 Y48.9861 
G01 X-58.2266 Y48.9921 
G01 X-58.2439 Y48.9952 
G01 X-58.2527 Y48.9955 
G01 X-59.0271 Y48.9955 
G01 X-59.1382 Y49.0253 
G01 X-59.2379 Y49.0829 
G01 X-59.3193 Y49.1642 
G01 X-59.3768 Y49.2639 
G01 X-59.4066 Y49.3751 
G01 X-59.4066 Y49.4902 
G01 X-59.3768 Y49.6013 
G01 X-59.3193 Y49.7010 
G01 X-59.2379 Y49.7824 
G01 X-59.1382 Y49.8399 
G01 X-59.0271 Y49.8697 
G01 X-58.1674 Y49.8697 
G01 X-57.9994 Y49.8401 
G01 X-57.8392 Y49.7818 
G01 X-57.6915 Y49.6965 
G01 X-57.5608 Y49.5869 
G01 X-57.4512 Y49.4562 
G01 X-57.3659 Y49.3085 
G01 X-57.3075 Y49.1482 
G01 X-57.2779 Y48.9803 
G01 X-57.2779 Y47.2246 
G01 X-57.3077 Y47.1134 
G01 X-57.3653 Y47.0137 
G01 X-57.4466 Y46.9323 
G01 X-57.5463 Y46.8748 
G01 X-57.6575 Y46.8450 
G01 X-57.7726 Y46.8450 
G01 X-58.5790 Y46.8450 
G00 Z1.0000  
G00 X-56.0566 Y47.7226 
G01 Z0.0000  F70    
G01 X-56.0394 Y47.7196 F300   
G01 X-56.0306 Y47.7192 
G01 X-55.2562 Y47.7192 
G01 X-55.1451 Y47.6894 
G01 X-55.0454 Y47.6319 
G01 X-54.9640 Y47.5505 
G01 X-54.9065 Y47.4508 
G01 X-54.8767 Y47.3396 
G01 X-54.8767 Y47.2246 
G01 X-54.9065 Y47.1134 
G01 X-54.9640 Y47.0137 
G01 X-55.0454 Y46.9323 
G01 X-55.1451 Y46.8748 
G01 X-55.2562 Y46.8450 
G01 X-56.1159 Y46.8450 
G01 X-56.2839 Y46.8746 
G01 X-56.4441 Y46.9330 
G01 X-56.5918 Y47.0182 
G01 X-56.7225 Y47.1279 
G01 X-56.8321 Y47.2585 
G01 X-56.9174 Y47.4062 
G01 X-56.9757 Y47.5665 
G01 X-57.0054 Y47.7345 
G01 X-57.0054 Y48.9803 
G01 X-56.9757 Y49.1482 
G01 X-56.9174 Y49.3085 
G01 X-56.8321 Y49.4562 
G01 X-56.7225 Y49.5869 
G01 X-56.5918 Y49.6965 
G01 X-56.4441 Y49.7818 
G01 X-56.2839 Y49.8401 
G01 X-56.1159 Y49.8697 
G01 X-55.2562 Y49.8697 
G01 X-55.1451 Y49.8399 
G01 X-55.0454 Y49.7824 
G01 X-54.9640 Y49.7010 
G01 X-54.9065 Y49.6013 
G01 X-54.8767 Y49.4902 
G01 X-54.8767 Y49.3751 
G01 X-54.9065 Y49.2639 
G01 X-54.9640 Y49.1642 
G01 X-55.0454 Y49.0829 
G01 X-55.1451 Y49.0253 
G01 X-55.2562 Y48.9955 
G01 X-56.0306 Y48.9955 
G01 X-56.0394 Y48.9952 
G01 X-56.0566 Y48.9921 
G01 X-56.0731 Y48.9861 
G01 X-56.0883 Y48.9774 
G01 X-56.1017 Y48.9661 
G01 X-56.1130 Y48.9527 
G01 X-56.1217 Y48.9375 
G01 X-56.1277 Y48.9210 
G01 X-56.1308 Y48.9038 
G01 X-56.1312 Y48.8950 
G01 X-56.1312 Y47.8197 
G01 X-56.1308 Y47.8110 
G01 X-56.1277 Y47.7937 
G01 X-56.1217 Y47.7772 
G01 X-56.1130 Y47.7621 
G01 X-56.1017 Y47.7486 
G01 X-56.0883 Y47.7374 
G01 X-56.0731 Y47.7286 
G01 X-56.0566 Y47.7226 
G00 Z1.0000  
G00 X-51.7451 Y36.2289 
G01 Z0.0000  F70    
G01 X-51.7451 Y36.4151 F300   
G01 X-51.7088 Y36.5977 
G01 X-51.6375 Y36.7697 
G01 X-51.5341 Y36.9245 
G01 X-51.4025 Y37.0561 
G01 X-51.2477 Y37.1595 
G01 X-51.0757 Y37.2308 
G01 X-50.8931 Y37.2671 
G01 X-50.7069 Y37.2671 
G01 X-50.5243 Y37.2308 
G01 X-50.3523 Y37.1595 
G01 X-50.1975 Y37.0561 
G01 X-50.0659 Y36.9245 
G01 X-49.9625 Y36.7697 
G01 X-49.8912 Y36.5977 
G01 X-49.8549 Y36.4151 
G01 X-49.8549 Y36.2289 
G01 X-49.8912 Y36.0463 
G01 X-49.9625 Y35.8743 
G01 X-50.0659 Y35.7195 
G01 X-50.1975 Y35.5879 
G01 X-50.2486 Y35.5538 
G01 X-50.2486 Y29.2712 
G01 X-49.8686 Y29.6512 
G01 X-49.7428 Y29.7238 
G01 X-49.6026 Y29.7614 
G01 X-47.7735 Y29.7614 
G01 X-47.7340 Y29.8206 
G01 X-47.6006 Y29.9540 
G01 X-47.4437 Y30.0588 
G01 X-47.2694 Y30.1310 
G01 X-47.0843 Y30.1678 
G01 X-46.8957 Y30.1678 
G01 X-46.7106 Y30.1310 
G01 X-46.5363 Y30.0588 
G01 X-46.3794 Y29.9540 
G01 X-46.2460 Y29.8206 
G01 X-46.1412 Y29.6637 
G01 X-46.0690 Y29.4894 
G01 X-46.0322 Y29.3043 
G01 X-46.0322 Y29.1157 
G01 X-46.0690 Y28.9306 
G01 X-46.1412 Y28.7563 
G01 X-46.2460 Y28.5994 
G01 X-46.3794 Y28.4660 
G01 X-46.5363 Y28.3612 
G01 X-46.7106 Y28.2890 
G01 X-46.8957 Y28.2522 
G01 X-47.0843 Y28.2522 
G01 X-47.2694 Y28.2890 
G01 X-47.4437 Y28.3612 
G01 X-47.6006 Y28.4660 
G01 X-47.7340 Y28.5994 
G01 X-47.7735 Y28.6586 
G01 X-49.3016 Y28.6586 
G01 X-50.3588 Y27.6014 
G01 X-50.4614 Y27.4988 
G01 X-51.7314 Y26.2288 
G01 X-51.8572 Y26.1562 
G01 X-51.9974 Y26.1186 
G01 X-53.8265 Y26.1186 
G01 X-53.8660 Y26.0594 
G01 X-53.9994 Y25.9260 
G01 X-54.1563 Y25.8212 
G01 X-54.3306 Y25.7490 
G01 X-54.5157 Y25.7122 
G01 X-54.7043 Y25.7122 
G01 X-54.8894 Y25.7490 
G01 X-55.0637 Y25.8212 
G01 X-55.2206 Y25.9260 
G01 X-55.3540 Y26.0594 
G01 X-55.3935 Y26.1186 
G01 X-64.7626 Y26.1186 
G01 X-64.9028 Y26.1562 
G01 X-65.0286 Y26.2288 
G01 X-65.7397 Y26.9399 
G01 X-65.7777 Y26.9276 
G01 X-65.9519 Y26.9000 
G01 X-66.1281 Y26.9000 
G01 X-66.3023 Y26.9276 
G01 X-66.4699 Y26.9821 
G01 X-66.6270 Y27.0621 
G01 X-66.7696 Y27.1657 
G01 X-66.8943 Y27.2904 
G01 X-66.9979 Y27.4330 
G01 X-67.0779 Y27.5901 
G01 X-67.1324 Y27.7577 
G01 X-67.1600 Y27.9319 
G01 X-67.1600 Y28.1081 
G01 X-67.1324 Y28.2823 
G01 X-67.0779 Y28.4499 
G01 X-66.9979 Y28.6070 
G01 X-66.8943 Y28.7496 
G01 X-66.7696 Y28.8743 
G01 X-66.6270 Y28.9779 
G01 X-66.4699 Y29.0579 
G01 X-66.3023 Y29.1124 
G01 X-66.1281 Y29.1400 
G01 X-65.9519 Y29.1400 
G01 X-65.7777 Y29.1124 
G01 X-65.6101 Y29.0579 
G01 X-65.4530 Y28.9779 
G01 X-65.3104 Y28.8743 
G01 X-65.1857 Y28.7496 
G01 X-65.0821 Y28.6070 
G01 X-65.0021 Y28.4499 
G01 X-64.9476 Y28.2823 
G01 X-64.9200 Y28.1081 
G01 X-64.9200 Y27.9319 
G01 X-64.9476 Y27.7577 
G01 X-64.9599 Y27.7197 
G01 X-64.4616 Y27.2214 
G01 X-55.3935 Y27.2214 
G01 X-55.3540 Y27.2806 
G01 X-55.2206 Y27.4140 
G01 X-55.0637 Y27.5188 
G01 X-54.8894 Y27.5910 
G01 X-54.7043 Y27.6278 
G01 X-54.5157 Y27.6278 
G01 X-54.3306 Y27.5910 
G01 X-54.1563 Y27.5188 
G01 X-53.9994 Y27.4140 
G01 X-53.8660 Y27.2806 
G01 X-53.8265 Y27.2214 
G01 X-52.2984 Y27.2214 
G01 X-51.3514 Y28.1684 
G01 X-51.3514 Y35.5538 
G01 X-51.4025 Y35.5879 
G01 X-51.5341 Y35.7195 
G01 X-51.6375 Y35.8743 
G01 X-51.7088 Y36.0463 
G01 X-51.7451 Y36.2289 
G00 Z1.0000  
G00 X-47.9478 Y31.6557 
G01 Z0.0000  F70    
G01 X-47.9478 Y31.8443 F300   
G01 X-47.9110 Y32.0294 
G01 X-47.8388 Y32.2037 
G01 X-47.7340 Y32.3606 
G01 X-47.6006 Y32.4940 
G01 X-47.5414 Y32.5335 
G01 X-47.5414 Y35.6326 
G01 X-47.5038 Y35.7728 
G01 X-47.4312 Y35.8986 
G01 X-41.1914 Y42.1384 
G01 X-41.1914 Y43.2020 
G01 X-41.2656 Y43.2762 
G01 X-41.3537 Y43.4081 
G01 X-41.4144 Y43.5547 
G01 X-41.4454 Y43.7103 
G01 X-41.4454 Y45.1897 
G01 X-41.4144 Y45.3453 
G01 X-41.3537 Y45.4919 
G01 X-41.2656 Y45.6238 
G01 X-41.1914 Y45.6980 
G01 X-41.1914 Y46.4386 
G01 X-48.0316 Y46.4386 
G01 X-50.2486 Y44.2216 
G01 X-50.2486 Y40.6632 
G01 X-49.8549 Y40.2695 
G01 X-49.8549 Y39.4865 
G01 X-50.4085 Y38.9329 
G01 X-51.1915 Y38.9329 
G01 X-51.7451 Y39.4865 
G01 X-51.7451 Y40.2695 
G01 X-51.3514 Y40.6632 
G01 X-51.3514 Y44.5226 
G01 X-51.3138 Y44.6628 
G01 X-51.2412 Y44.7886 
G01 X-48.5986 Y47.4312 
G01 X-48.4728 Y47.5038 
G01 X-48.3326 Y47.5414 
G01 X-32.9474 Y47.5414 
G01 X-32.8072 Y47.5038 
G01 X-32.6814 Y47.4312 
G01 X-32.5788 Y47.3286 
G01 X-31.4114 Y46.1612 
G01 X-31.3088 Y46.0586 
G01 X-31.2362 Y45.9328 
G01 X-31.1986 Y45.7926 
G01 X-31.1986 Y36.7574 
G01 X-31.2362 Y36.6172 
G01 X-31.3088 Y36.4914 
G01 X-31.4114 Y36.3888 
G01 X-33.4846 Y34.3156 
G01 X-33.4846 Y33.9564 
G01 X-33.9564 Y33.4846 
G01 X-34.6236 Y33.4846 
G01 X-35.0954 Y33.9564 
G01 X-35.0954 Y34.6236 
G01 X-34.6236 Y35.0954 
G01 X-34.2644 Y35.0954 
G01 X-32.3014 Y37.0584 
G01 X-32.3014 Y45.4916 
G01 X-33.2484 Y46.4386 
G01 X-40.0886 Y46.4386 
G01 X-40.0886 Y45.6980 
G01 X-40.0144 Y45.6238 
G01 X-39.9263 Y45.4919 
G01 X-39.8655 Y45.3453 
G01 X-39.8346 Y45.1897 
G01 X-39.8346 Y43.7103 
G01 X-39.8655 Y43.5547 
G01 X-39.9263 Y43.4081 
G01 X-40.0144 Y43.2762 
G01 X-40.0886 Y43.2020 
G01 X-40.0886 Y41.8374 
G01 X-40.1262 Y41.6972 
G01 X-40.1988 Y41.5714 
G01 X-46.4386 Y35.3316 
G01 X-46.4386 Y32.5335 
G01 X-46.3794 Y32.4940 
G01 X-46.2460 Y32.3606 
G01 X-46.2065 Y32.3014 
G01 X-44.3774 Y32.3014 
G01 X-44.2372 Y32.2638 
G01 X-44.1114 Y32.1912 
G01 X-44.0088 Y32.0886 
G01 X-43.3072 Y31.3870 
G01 X-42.3287 Y31.3870 
G01 X-42.1534 Y31.3521 
G01 X-41.9884 Y31.2838 
G01 X-41.8398 Y31.1845 
G01 X-41.7135 Y31.0582 
G01 X-41.6142 Y30.9096 
G01 X-41.5459 Y30.7446 
G01 X-41.5110 Y30.5693 
G01 X-41.5110 Y30.3907 
G01 X-41.5459 Y30.2154 
G01 X-41.6142 Y30.0504 
G01 X-41.7135 Y29.9018 
G01 X-41.8398 Y29.7755 
G01 X-41.9884 Y29.6762 
G01 X-42.1534 Y29.6079 
G01 X-42.3287 Y29.5730 
G01 X-44.0313 Y29.5730 
G01 X-44.2066 Y29.6079 
G01 X-44.3716 Y29.6762 
G01 X-44.5202 Y29.7755 
G01 X-44.6465 Y29.9018 
G01 X-44.7458 Y30.0504 
G01 X-44.8141 Y30.2154 
G01 X-44.8490 Y30.3907 
G01 X-44.8490 Y30.5693 
G01 X-44.8141 Y30.7446 
G01 X-44.7458 Y30.9096 
G01 X-44.6465 Y31.0582 
G01 X-44.5922 Y31.1124 
G01 X-44.6784 Y31.1986 
G01 X-46.2065 Y31.1986 
G01 X-46.2460 Y31.1394 
G01 X-46.3794 Y31.0060 
G01 X-46.5363 Y30.9012 
G01 X-46.7106 Y30.8290 
G01 X-46.8957 Y30.7922 
G01 X-47.0843 Y30.7922 
G01 X-47.2694 Y30.8290 
G01 X-47.4437 Y30.9012 
G01 X-47.6006 Y31.0060 
G01 X-47.7340 Y31.1394 
G01 X-47.8388 Y31.2963 
G01 X-47.9110 Y31.4706 
G01 X-47.9478 Y31.6557 
G00 Z1.0000  
G00 X-55.3540 Y29.8206 
G01 Z0.0000  F70    
G01 X-55.2206 Y29.9540 F300   
G01 X-55.0637 Y30.0588 
G01 X-54.8894 Y30.1310 
G01 X-54.7043 Y30.1678 
G01 X-54.5157 Y30.1678 
G01 X-54.3306 Y30.1310 
G01 X-54.1563 Y30.0588 
G01 X-53.9994 Y29.9540 
G01 X-53.8660 Y29.8206 
G01 X-53.7612 Y29.6637 
G01 X-53.6890 Y29.4894 
G01 X-53.6522 Y29.3043 
G01 X-53.6522 Y29.1157 
G01 X-53.6890 Y28.9306 
G01 X-53.7612 Y28.7563 
G01 X-53.8660 Y28.5994 
G01 X-53.9994 Y28.4660 
G01 X-54.1563 Y28.3612 
G01 X-54.3306 Y28.2890 
G01 X-54.5157 Y28.2522 
G01 X-54.7043 Y28.2522 
G01 X-54.8894 Y28.2890 
G01 X-55.0637 Y28.3612 
G01 X-55.2206 Y28.4660 
G01 X-55.3540 Y28.5994 
G01 X-55.3935 Y28.6586 
G01 X-62.3026 Y28.6586 
G01 X-62.4428 Y28.6962 
G01 X-62.5686 Y28.7688 
G01 X-65.7397 Y31.9399 
G01 X-65.7777 Y31.9276 
G01 X-65.9519 Y31.9000 
G01 X-66.1281 Y31.9000 
G01 X-66.3023 Y31.9276 
G01 X-66.4699 Y31.9821 
G01 X-66.6270 Y32.0621 
G01 X-66.7696 Y32.1657 
G01 X-66.8943 Y32.2904 
G01 X-66.9979 Y32.4330 
G01 X-67.0779 Y32.5901 
G01 X-67.1324 Y32.7577 
G01 X-67.1600 Y32.9319 
G01 X-67.1600 Y33.1081 
G01 X-67.1324 Y33.2823 
G01 X-67.0779 Y33.4499 
G01 X-66.9979 Y33.6070 
G01 X-66.8943 Y33.7496 
G01 X-66.7696 Y33.8743 
G01 X-66.6270 Y33.9779 
G01 X-66.5914 Y33.9961 
G01 X-66.5914 Y37.0439 
G01 X-66.6270 Y37.0621 
G01 X-66.7696 Y37.1657 
G01 X-66.8943 Y37.2904 
G01 X-66.9979 Y37.4330 
G01 X-67.0779 Y37.5901 
G01 X-67.1324 Y37.7577 
G01 X-67.1600 Y37.9319 
G01 X-67.1600 Y38.1081 
G01 X-67.1324 Y38.2823 
G01 X-67.0779 Y38.4499 
G01 X-66.9979 Y38.6070 
G01 X-66.8943 Y38.7496 
G01 X-66.7696 Y38.8743 
G01 X-66.6270 Y38.9779 
G01 X-66.5914 Y38.9961 
G01 X-66.5914 Y43.2526 
G01 X-66.5538 Y43.3928 
G01 X-66.4812 Y43.5186 
G01 X-66.3786 Y43.6212 
G01 X-65.1086 Y44.8912 
G01 X-64.9828 Y44.9638 
G01 X-64.8426 Y45.0014 
G01 X-57.7376 Y45.0014 
G01 X-57.4836 Y45.2554 
G01 X-56.8164 Y45.2554 
G01 X-56.3446 Y44.7836 
G01 X-56.3446 Y44.1164 
G01 X-56.8164 Y43.6446 
G01 X-57.4836 Y43.6446 
G01 X-57.7376 Y43.8986 
G01 X-64.5416 Y43.8986 
G01 X-65.4886 Y42.9516 
G01 X-65.4886 Y38.9961 
G01 X-65.4530 Y38.9779 
G01 X-65.3104 Y38.8743 
G01 X-65.1857 Y38.7496 
G01 X-65.0821 Y38.6070 
G01 X-65.0021 Y38.4499 
G01 X-64.9476 Y38.2823 
G01 X-64.9200 Y38.1081 
G01 X-64.9200 Y37.9319 
G01 X-64.9476 Y37.7577 
G01 X-65.0021 Y37.5901 
G01 X-65.0821 Y37.4330 
G01 X-65.1857 Y37.2904 
G01 X-65.3104 Y37.1657 
G01 X-65.4530 Y37.0621 
G01 X-65.4886 Y37.0439 
G01 X-65.4886 Y33.9961 
G01 X-65.4530 Y33.9779 
G01 X-65.3104 Y33.8743 
G01 X-65.1857 Y33.7496 
G01 X-65.0821 Y33.6070 
G01 X-65.0021 Y33.4499 
G01 X-64.9476 Y33.2823 
G01 X-64.9200 Y33.1081 
G01 X-64.9200 Y32.9319 
G01 X-64.9476 Y32.7577 
G01 X-64.9599 Y32.7197 
G01 X-62.0016 Y29.7614 
G01 X-55.3935 Y29.7614 
G01 X-55.3540 Y29.8206 
G00 Z1.0000  
G00 X-47.9478 Y26.5757 
G01 Z0.0000  F70    
G01 X-47.9478 Y26.7643 F300   
G01 X-47.9110 Y26.9494 
G01 X-47.8388 Y27.1237 
G01 X-47.7340 Y27.2806 
G01 X-47.6006 Y27.4140 
G01 X-47.4437 Y27.5188 
G01 X-47.2694 Y27.5910 
G01 X-47.0843 Y27.6278 
G01 X-46.8957 Y27.6278 
G01 X-46.7106 Y27.5910 
G01 X-46.5363 Y27.5188 
G01 X-46.3794 Y27.4140 
G01 X-46.2460 Y27.2806 
G01 X-46.2065 Y27.2214 
G01 X-45.9484 Y27.2214 
G01 X-44.8912 Y28.2786 
G01 X-44.7886 Y28.3812 
G01 X-44.7063 Y28.4287 
G01 X-44.6465 Y28.5182 
G01 X-44.5202 Y28.6445 
G01 X-44.3716 Y28.7438 
G01 X-44.2066 Y28.8121 
G01 X-44.0313 Y28.8470 
G01 X-42.3287 Y28.8470 
G01 X-42.1534 Y28.8121 
G01 X-41.9884 Y28.7438 
G01 X-41.8398 Y28.6445 
G01 X-41.7135 Y28.5182 
G01 X-41.6956 Y28.4914 
G01 X-40.8684 Y28.4914 
G01 X-40.5564 Y28.8034 
G01 X-40.5564 Y30.2516 
G01 X-43.6212 Y33.3164 
G01 X-43.6938 Y33.4422 
G01 X-43.7314 Y33.5824 
G01 X-43.7314 Y33.7024 
G01 X-43.9854 Y33.9564 
G01 X-43.9854 Y34.6236 
G01 X-43.7314 Y34.8776 
G01 X-43.7314 Y35.6326 
G01 X-43.6938 Y35.7728 
G01 X-43.6212 Y35.8986 
G01 X-38.6514 Y40.8684 
G01 X-38.6514 Y41.3224 
G01 X-38.9054 Y41.5764 
G01 X-38.9054 Y42.2436 
G01 X-38.4336 Y42.7154 
G01 X-37.7664 Y42.7154 
G01 X-37.2946 Y42.2436 
G01 X-37.2946 Y41.5764 
G01 X-37.5486 Y41.3224 
G01 X-37.5486 Y40.5674 
G01 X-37.5862 Y40.4272 
G01 X-37.6588 Y40.3014 
G01 X-37.7614 Y40.1988 
G01 X-42.6286 Y35.3316 
G01 X-42.6286 Y34.8776 
G01 X-42.3746 Y34.6236 
G01 X-42.3746 Y33.9564 
G01 X-42.5381 Y33.7929 
G01 X-39.5638 Y30.8186 
G01 X-39.4912 Y30.6928 
G01 X-39.4536 Y30.5526 
G01 X-39.4536 Y28.5024 
G01 X-39.4912 Y28.3622 
G01 X-39.5638 Y28.2364 
G01 X-40.1988 Y27.6014 
G01 X-40.3014 Y27.4988 
G01 X-40.4272 Y27.4262 
G01 X-40.5674 Y27.3886 
G01 X-41.6956 Y27.3886 
G01 X-41.7135 Y27.3618 
G01 X-41.8398 Y27.2355 
G01 X-41.9884 Y27.1362 
G01 X-42.1534 Y27.0679 
G01 X-42.3287 Y27.0330 
G01 X-44.0313 Y27.0330 
G01 X-44.2066 Y27.0679 
G01 X-44.3716 Y27.1362 
G01 X-44.4330 Y27.1772 
G01 X-45.2788 Y26.3314 
G01 X-45.3814 Y26.2288 
G01 X-45.5072 Y26.1562 
G01 X-45.6474 Y26.1186 
G01 X-46.2065 Y26.1186 
G01 X-46.2460 Y26.0594 
G01 X-46.3794 Y25.9260 
G01 X-46.5363 Y25.8212 
G01 X-46.7106 Y25.7490 
G01 X-46.8957 Y25.7122 
G01 X-47.0843 Y25.7122 
G01 X-47.2694 Y25.7490 
G01 X-47.4437 Y25.8212 
G01 X-47.6006 Y25.9260 
G01 X-47.7340 Y26.0594 
G01 X-47.8388 Y26.2163 
G01 X-47.9110 Y26.3906 
G01 X-47.9478 Y26.5757 
G00 Z1.0000  
G00 X-47.9478 Y24.0357 
G01 Z0.0000  F70    
G01 X-47.9478 Y24.2243 F300   
G01 X-47.9110 Y24.4094 
G01 X-47.8388 Y24.5837 
G01 X-47.7340 Y24.7406 
G01 X-47.6006 Y24.8740 
G01 X-47.4437 Y24.9788 
G01 X-47.2694 Y25.0510 
G01 X-47.0843 Y25.0878 
G01 X-46.8957 Y25.0878 
G01 X-46.7106 Y25.0510 
G01 X-46.5363 Y24.9788 
G01 X-46.3794 Y24.8740 
G01 X-46.2460 Y24.7406 
G01 X-46.2065 Y24.6814 
G01 X-45.9484 Y24.6814 
G01 X-44.7886 Y25.8412 
G01 X-44.7063 Y25.8887 
G01 X-44.6465 Y25.9782 
G01 X-44.5202 Y26.1045 
G01 X-44.3716 Y26.2038 
G01 X-44.2066 Y26.2721 
G01 X-44.0313 Y26.3070 
G01 X-42.3287 Y26.3070 
G01 X-42.1534 Y26.2721 
G01 X-41.9884 Y26.2038 
G01 X-41.8398 Y26.1045 
G01 X-41.7135 Y25.9782 
G01 X-41.6956 Y25.9514 
G01 X-36.0098 Y25.9514 
G01 X-36.0098 Y26.1124 
G01 X-35.0024 Y27.1198 
G01 X-33.5776 Y27.1198 
G01 X-32.5702 Y26.1124 
G01 X-32.5702 Y25.9514 
G01 X-31.9784 Y25.9514 
G01 X-29.7614 Y28.1684 
G01 X-29.7614 Y46.7616 
G01 X-31.9784 Y48.9786 
G01 X-50.5716 Y48.9786 
G01 X-54.0586 Y45.4916 
G01 X-54.0586 Y38.6514 
G01 X-48.4884 Y38.6514 
G01 X-47.5414 Y39.5984 
G01 X-47.5414 Y41.3224 
G01 X-47.7954 Y41.5764 
G01 X-47.7954 Y42.2436 
G01 X-47.3236 Y42.7154 
G01 X-46.6564 Y42.7154 
G01 X-46.1846 Y42.2436 
G01 X-46.1846 Y41.5764 
G01 X-46.4386 Y41.3224 
G01 X-46.4386 Y39.2974 
G01 X-46.4762 Y39.1572 
G01 X-46.5488 Y39.0314 
G01 X-46.6514 Y38.9288 
G01 X-47.8188 Y37.7614 
G01 X-47.9214 Y37.6588 
G01 X-48.0472 Y37.5862 
G01 X-48.1874 Y37.5486 
G01 X-54.0586 Y37.5486 
G01 X-54.0586 Y32.5335 
G01 X-53.9994 Y32.4940 
G01 X-53.8660 Y32.3606 
G01 X-53.7612 Y32.2037 
G01 X-53.6890 Y32.0294 
G01 X-53.6522 Y31.8443 
G01 X-53.6522 Y31.6557 
G01 X-53.6890 Y31.4706 
G01 X-53.7612 Y31.2963 
G01 X-53.8660 Y31.1394 
G01 X-53.9994 Y31.0060 
G01 X-54.1563 Y30.9012 
G01 X-54.3306 Y30.8290 
G01 X-54.5157 Y30.7922 
G01 X-54.7043 Y30.7922 
G01 X-54.8894 Y30.8290 
G01 X-55.0637 Y30.9012 
G01 X-55.2206 Y31.0060 
G01 X-55.3540 Y31.1394 
G01 X-55.4588 Y31.2963 
G01 X-55.5310 Y31.4706 
G01 X-55.5678 Y31.6557 
G01 X-55.5678 Y31.8443 
G01 X-55.5310 Y32.0294 
G01 X-55.4588 Y32.2037 
G01 X-55.3540 Y32.3606 
G01 X-55.2206 Y32.4940 
G01 X-55.1614 Y32.5335 
G01 X-55.1614 Y33.7386 
G01 X-56.5624 Y33.7386 
G01 X-56.8164 Y33.4846 
G01 X-57.4836 Y33.4846 
G01 X-57.9554 Y33.9564 
G01 X-57.9554 Y34.6236 
G01 X-57.4836 Y35.0954 
G01 X-56.8164 Y35.0954 
G01 X-56.5624 Y34.8414 
G01 X-55.1614 Y34.8414 
G01 X-55.1614 Y45.7926 
G01 X-55.1238 Y45.9328 
G01 X-55.0512 Y46.0586 
G01 X-51.1386 Y49.9712 
G01 X-51.0128 Y50.0438 
G01 X-50.8726 Y50.0814 
G01 X-31.6774 Y50.0814 
G01 X-31.5372 Y50.0438 
G01 X-31.4114 Y49.9712 
G01 X-31.3088 Y49.8686 
G01 X-28.7688 Y47.3286 
G01 X-28.6962 Y47.2028 
G01 X-28.6586 Y47.0626 
G01 X-28.6586 Y27.8674 
G01 X-28.6962 Y27.7272 
G01 X-28.7688 Y27.6014 
G01 X-31.3088 Y25.0614 
G01 X-31.4114 Y24.9588 
G01 X-31.5372 Y24.8862 
G01 X-31.6774 Y24.8486 
G01 X-32.5702 Y24.8486 
G01 X-32.5702 Y24.6876 
G01 X-33.5776 Y23.6802 
G01 X-35.0024 Y23.6802 
G01 X-36.0098 Y24.6876 
G01 X-36.0098 Y24.8486 
G01 X-41.6956 Y24.8486 
G01 X-41.7135 Y24.8218 
G01 X-41.8398 Y24.6955 
G01 X-41.9884 Y24.5962 
G01 X-42.1534 Y24.5279 
G01 X-42.3287 Y24.4930 
G01 X-44.0313 Y24.4930 
G01 X-44.2066 Y24.5279 
G01 X-44.3716 Y24.5962 
G01 X-44.4330 Y24.6372 
G01 X-45.2788 Y23.7914 
G01 X-45.3814 Y23.6888 
G01 X-45.5072 Y23.6162 
G01 X-45.6474 Y23.5786 
G01 X-46.2065 Y23.5786 
G01 X-46.2460 Y23.5194 
G01 X-46.3794 Y23.3860 
G01 X-46.5363 Y23.2812 
G01 X-46.7106 Y23.2090 
G01 X-46.8957 Y23.1722 
G01 X-47.0843 Y23.1722 
G01 X-47.2694 Y23.2090 
G01 X-47.4437 Y23.2812 
G01 X-47.6006 Y23.3860 
G01 X-47.7340 Y23.5194 
G01 X-47.8388 Y23.6763 
G01 X-47.9110 Y23.8506 
G01 X-47.9478 Y24.0357 
G00 Z1.0000  
G00 X-55.5678 Y24.0357 
G01 Z0.0000  F70    
G01 X-55.5678 Y24.2243 F300   
G01 X-55.5310 Y24.4094 
G01 X-55.4588 Y24.5837 
G01 X-55.3540 Y24.7406 
G01 X-55.2206 Y24.8740 
G01 X-55.0637 Y24.9788 
G01 X-54.8894 Y25.0510 
G01 X-54.7043 Y25.0878 
G01 X-54.5157 Y25.0878 
G01 X-54.3306 Y25.0510 
G01 X-54.1563 Y24.9788 
G01 X-53.9994 Y24.8740 
G01 X-53.8660 Y24.7406 
G01 X-53.7612 Y24.5837 
G01 X-53.6890 Y24.4094 
G01 X-53.6522 Y24.2243 
G01 X-53.6522 Y24.0357 
G01 X-53.6890 Y23.8506 
G01 X-53.7612 Y23.6763 
G01 X-53.8660 Y23.5194 
G01 X-53.9994 Y23.3860 
G01 X-54.1563 Y23.2812 
G01 X-54.3306 Y23.2090 
G01 X-54.5157 Y23.1722 
G01 X-54.7043 Y23.1722 
G01 X-54.8894 Y23.2090 
G01 X-55.0637 Y23.2812 
G01 X-55.2206 Y23.3860 
G01 X-55.3540 Y23.5194 
G01 X-55.4588 Y23.6763 
G01 X-55.5310 Y23.8506 
G01 X-55.5678 Y24.0357 
G00 Z1.0000  
G00 X-47.7954 Y44.1164 
G01 Z0.0000  F70    
G01 X-47.7954 Y44.7836 F300   
G01 X-47.3236 Y45.2554 
G01 X-46.6564 Y45.2554 
G01 X-46.4024 Y45.0014 
G01 X-43.7676 Y45.0014 
G01 X-43.5136 Y45.2554 
G01 X-42.8464 Y45.2554 
G01 X-42.3746 Y44.7836 
G01 X-42.3746 Y44.1164 
G01 X-42.8464 Y43.6446 
G01 X-43.5136 Y43.6446 
G01 X-43.7676 Y43.8986 
G01 X-46.4024 Y43.8986 
G01 X-46.6564 Y43.6446 
G01 X-47.3236 Y43.6446 
G01 X-47.7954 Y44.1164 
G00 Z1.0000  
G00 X-38.9054 Y44.1164 
G01 Z0.0000  F70    
G01 X-38.9054 Y44.7836 F300   
G01 X-38.4336 Y45.2554 
G01 X-37.7664 Y45.2554 
G01 X-37.5124 Y45.0014 
G01 X-34.8776 Y45.0014 
G01 X-34.6236 Y45.2554 
G01 X-33.9564 Y45.2554 
G01 X-33.4846 Y44.7836 
G01 X-33.4846 Y44.1164 
G01 X-33.9564 Y43.6446 
G01 X-34.6236 Y43.6446 
G01 X-34.8776 Y43.8986 
G01 X-37.5124 Y43.8986 
G01 X-37.7664 Y43.6446 
G01 X-38.4336 Y43.6446 
G01 X-38.9054 Y44.1164 
G00 Z1.0000  
G00 X-36.0098 Y29.7676 
G01 Z0.0000  F70    
G01 X-36.0098 Y30.1500 F300   
G01 X-39.5984 Y33.7386 
G01 X-39.8346 Y33.7386 
G01 X-39.8346 Y33.5503 
G01 X-39.8655 Y33.3947 
G01 X-39.9263 Y33.2481 
G01 X-40.0144 Y33.1162 
G01 X-40.1266 Y33.0040 
G01 X-40.2585 Y32.9159 
G01 X-40.4051 Y32.8552 
G01 X-40.5607 Y32.8242 
G01 X-40.7193 Y32.8242 
G01 X-40.8749 Y32.8552 
G01 X-41.0215 Y32.9159 
G01 X-41.1534 Y33.0040 
G01 X-41.2656 Y33.1162 
G01 X-41.3537 Y33.2481 
G01 X-41.4144 Y33.3947 
G01 X-41.4454 Y33.5503 
G01 X-41.4454 Y35.0297 
G01 X-41.4144 Y35.1853 
G01 X-41.3537 Y35.3319 
G01 X-41.2656 Y35.4638 
G01 X-41.1534 Y35.5760 
G01 X-41.0215 Y35.6641 
G01 X-40.8749 Y35.7248 
G01 X-40.7193 Y35.7558 
G01 X-40.5607 Y35.7558 
G01 X-40.4051 Y35.7248 
G01 X-40.2585 Y35.6641 
G01 X-40.1266 Y35.5760 
G01 X-40.0144 Y35.4638 
G01 X-39.9263 Y35.3319 
G01 X-39.8655 Y35.1853 
G01 X-39.8346 Y35.0297 
G01 X-39.8346 Y34.8414 
G01 X-39.2974 Y34.8414 
G01 X-39.1572 Y34.8038 
G01 X-39.0314 Y34.7312 
G01 X-35.7512 Y31.4510 
G01 X-35.0024 Y32.1998 
G01 X-33.5776 Y32.1998 
G01 X-32.5702 Y31.1924 
G01 X-32.5702 Y29.7676 
G01 X-33.5776 Y28.7602 
G01 X-35.0024 Y28.7602 
G01 X-36.0098 Y29.7676 
G00 Z1.0000  
G00 X-26.1186 Y21.6626 
G01 Z0.0000  F70    
G01 X-26.1186 Y21.5174 F300   
G01 X-26.1562 Y21.3772 
G01 X-26.2288 Y21.2514 
G01 X-26.3314 Y21.1488 
G01 X-26.4572 Y21.0762 
G01 X-26.5974 Y21.0386 
G01 X-69.9226 Y21.0386 
G01 X-70.0628 Y21.0762 
G01 X-70.1886 Y21.1488 
G01 X-70.2912 Y21.2514 
G01 X-70.3638 Y21.3772 
G01 X-70.4014 Y21.5174 
G01 X-70.4014 Y52.1426 
G01 X-70.3638 Y52.2828 
G01 X-70.2912 Y52.4086 
G01 X-70.1886 Y52.5112 
G01 X-70.0628 Y52.5838 
G01 X-69.9226 Y52.6214 
G01 X-26.5974 Y52.6214 
G01 X-26.4572 Y52.5838 
G01 X-26.3314 Y52.5112 
G01 X-26.2288 Y52.4086 
G01 X-26.1562 Y52.2828 
G01 X-26.1186 Y52.1426 
G01 X-26.1186 Y51.9974 
G01 X-26.1186 Y21.6626 
G00 Z1.0000  
G00 X-59.5585 Y49.0540 
G01 Z0.0000  F70    
G01 X-59.6423 Y48.9606 F300   
G01 X-60.0719 Y48.6384 
G01 X-59.7761 Y48.0795 
G01 X-59.7728 Y48.1182 
G01 X-59.7214 Y48.3213 
G01 X-59.6372 Y48.5132 
G01 X-59.5226 Y48.6886 
G01 X-59.3807 Y48.8427 
G01 X-59.3127 Y48.8957 
G01 X-59.3756 Y48.9378 
G01 X-59.4644 Y49.0265 
G01 X-59.5229 Y49.1142 
G01 X-59.5585 Y49.0540 
G00 Z1.0000  
G00 X-62.0590 Y41.7821 
G01 Z0.0000  F70    
G01 X-62.0551 Y41.7940 F300   
G01 X-62.0531 Y41.8064 
G01 X-62.0529 Y41.8126 
G01 X-62.0529 Y42.2508 
G01 X-62.2491 Y42.2508 
G01 X-62.3118 Y42.2508 
G01 X-62.3322 Y42.2500 
G01 X-62.3723 Y42.2436 
G01 X-62.4109 Y42.2311 
G01 X-62.4471 Y42.2126 
G01 X-62.4800 Y42.1888 
G01 X-62.5088 Y42.1600 
G01 X-62.5326 Y42.1271 
G01 X-62.5511 Y42.0909 
G01 X-62.5636 Y42.0523 
G01 X-62.5700 Y42.0122 
G01 X-62.5700 Y41.9715 
G01 X-62.5636 Y41.9314 
G01 X-62.5511 Y41.8927 
G01 X-62.5326 Y41.8565 
G01 X-62.5088 Y41.8237 
G01 X-62.4800 Y41.7949 
G01 X-62.4471 Y41.7710 
G01 X-62.4109 Y41.7526 
G01 X-62.3723 Y41.7400 
G01 X-62.3322 Y41.7337 
G01 X-62.3118 Y41.7329 
G01 X-62.1326 Y41.7329 
G01 X-62.1264 Y41.7331 
G01 X-62.1140 Y41.7351 
G01 X-62.1021 Y41.7390 
G01 X-62.0910 Y41.7446 
G01 X-62.0808 Y41.7520 
G01 X-62.0720 Y41.7608 
G01 X-62.0646 Y41.7710 
G01 X-62.0590 Y41.7821 
G00 Z1.0000  
G00 X-66.0421 Y49.7911 
G01 Z0.0000  F70    
G01 X-66.0432 Y49.8042 F300   
G01 X-66.0464 Y49.8169 
G01 X-66.0517 Y49.8290 
G01 X-66.0589 Y49.8400 
G01 X-66.0678 Y49.8497 
G01 X-66.0782 Y49.8578 
G01 X-66.0898 Y49.8641 
G01 X-66.1023 Y49.8684 
G01 X-66.1153 Y49.8705 
G01 X-66.1218 Y49.8708 
G01 X-66.3808 Y49.8708 
G01 X-66.3808 Y49.7113 
G01 X-66.1218 Y49.7113 
G01 X-66.1153 Y49.7116 
G01 X-66.1023 Y49.7137 
G01 X-66.0898 Y49.7180 
G01 X-66.0782 Y49.7243 
G01 X-66.0678 Y49.7324 
G01 X-66.0589 Y49.7421 
G01 X-66.0517 Y49.7531 
G01 X-66.0464 Y49.7652 
G01 X-66.0432 Y49.7779 
G01 X-66.0421 Y49.7911 
G00 Z1.0000  
G00 X-64.9270 Y49.1444 
G01 Z0.0000  F70    
G01 X-64.9270 Y49.1444 F300   
G01 X-64.8502 Y49.0362 
G01 X-64.8502 Y49.3196 
G01 X-64.9270 Y49.1444 
G00 Z1.0000  
G00 X-62.2145 Y49.8353 
G01 Z0.0000  F70    
G01 X-62.1471 Y49.7344 F300   
G01 X-62.1456 Y49.7307 
G01 X-62.1456 Y49.9042 
G01 X-62.2145 Y49.8353 
G00 Z1.0000  
G00 X-66.1015 Y48.4363 
G01 Z0.0000  F70    
G01 X-66.1218 Y48.4371 F300   
G01 X-66.1846 Y48.4371 
G01 X-66.3808 Y48.4371 
G01 X-66.3808 Y47.9192 
G01 X-66.1218 Y47.9192 
G01 X-66.1015 Y47.9200 
G01 X-66.0614 Y47.9263 
G01 X-66.0227 Y47.9389 
G01 X-65.9865 Y47.9574 
G01 X-65.9537 Y47.9812 
G01 X-65.9249 Y48.0100 
G01 X-65.9010 Y48.0428 
G01 X-65.8826 Y48.0791 
G01 X-65.8700 Y48.1177 
G01 X-65.8637 Y48.1578 
G01 X-65.8637 Y48.1985 
G01 X-65.8700 Y48.2386 
G01 X-65.8826 Y48.2773 
G01 X-65.9010 Y48.3135 
G01 X-65.9249 Y48.3463 
G01 X-65.9537 Y48.3751 
G01 X-65.9865 Y48.3989 
G01 X-66.0227 Y48.4174 
G01 X-66.0614 Y48.4300 
G01 X-66.1015 Y48.4363 
G00 Z1.0000  
G00 X-69.0986 Y22.3414 
G01 Z0.0000  F70    
G01 X-27.4214 Y22.3414 F300   
G01 X-27.4214 Y51.3186 
G01 X-69.0986 Y51.3186 
G01 X-69.0986 Y22.3414 
G00 Z1.0000  
G00 X-60.2854 Y35.0114 
G01 Z0.0000  F70    
G01 X-60.5651 Y34.9052 F300   
G01 X-60.8532 Y34.8248 
G01 X-61.1475 Y34.7708 
G01 X-61.4454 Y34.7437 
G01 X-61.6371 Y34.7437 
G01 X-61.5416 Y34.6865 
G01 X-61.3829 Y34.5595 
G01 X-61.3360 Y34.5103 
G01 X-60.6192 Y33.9010 
G01 X-60.6192 Y34.3782 
G01 X-60.5947 Y34.5012 
G01 X-60.5467 Y34.6172 
G01 X-60.4770 Y34.7215 
G01 X-60.3882 Y34.8103 
G01 X-60.2839 Y34.8800 
G01 X-60.1679 Y34.9280 
G01 X-60.0449 Y34.9525 
G01 X-59.9193 Y34.9525 
G01 X-59.7963 Y34.9280 
G01 X-59.6803 Y34.8800 
G01 X-59.5760 Y34.8103 
G01 X-59.4872 Y34.7215 
G01 X-59.4175 Y34.6172 
G01 X-59.3695 Y34.5012 
G01 X-59.3450 Y34.3782 
G01 X-59.3450 Y32.5491 
G01 X-59.3420 Y32.5122 
G01 X-59.3450 Y32.4865 
G01 X-59.3450 Y32.4605 
G01 X-59.3522 Y32.4243 
G01 X-59.3565 Y32.3876 
G01 X-59.3644 Y32.3629 
G01 X-59.3695 Y32.3375 
G01 X-59.3836 Y32.3033 
G01 X-59.3950 Y32.2681 
G01 X-59.4076 Y32.2455 
G01 X-59.4175 Y32.2215 
G01 X-59.4380 Y32.1908 
G01 X-59.4560 Y32.1585 
G01 X-59.4728 Y32.1387 
G01 X-59.4872 Y32.1172 
G01 X-59.5134 Y32.0910 
G01 X-59.5373 Y32.0629 
G01 X-59.5576 Y32.0468 
G01 X-59.5760 Y32.0284 
G01 X-59.6067 Y32.0079 
G01 X-59.6357 Y31.9849 
G01 X-59.6588 Y31.9731 
G01 X-59.6803 Y31.9587 
G01 X-59.7145 Y31.9446 
G01 X-59.7474 Y31.9277 
G01 X-59.7723 Y31.9206 
G01 X-59.7963 Y31.9107 
G01 X-59.8325 Y31.9035 
G01 X-59.8681 Y31.8934 
G01 X-59.8939 Y31.8913 
G01 X-59.9193 Y31.8862 
G01 X-59.9563 Y31.8862 
G01 X-59.9932 Y31.8832 
G01 X-60.0189 Y31.8862 
G01 X-60.0449 Y31.8862 
G01 X-60.0811 Y31.8934 
G01 X-60.1178 Y31.8977 
G01 X-60.1425 Y31.9056 
G01 X-60.1679 Y31.9107 
G01 X-60.2021 Y31.9248 
G01 X-60.2373 Y31.9362 
G01 X-60.2599 Y31.9488 
G01 X-60.2839 Y31.9587 
G01 X-60.3146 Y31.9792 
G01 X-60.3469 Y31.9972 
G01 X-60.3667 Y32.0140 
G01 X-60.3882 Y32.0284 
G01 X-60.4144 Y32.0546 
G01 X-62.1647 Y33.5424 
G01 X-62.1923 Y33.5618 
G01 X-62.2124 Y33.5829 
G01 X-62.2346 Y33.6018 
G01 X-62.2491 Y33.6200 
G01 X-62.2707 Y33.6373 
G01 X-62.2972 Y33.6532 
G01 X-62.3256 Y33.6654 
G01 X-62.3554 Y33.6736 
G01 X-62.3860 Y33.6778 
G01 X-62.4015 Y33.6783 
G01 X-62.4147 Y33.6778 
G01 X-62.4410 Y33.6736 
G01 X-62.4663 Y33.6654 
G01 X-62.4899 Y33.6534 
G01 X-62.5114 Y33.6377 
G01 X-62.5302 Y33.6189 
G01 X-62.5458 Y33.5974 
G01 X-62.5579 Y33.5738 
G01 X-62.5661 Y33.5485 
G01 X-62.5703 Y33.5222 
G01 X-62.5708 Y33.5090 
G01 X-62.5698 Y33.4811 
G01 X-62.5621 Y33.4259 
G01 X-62.5467 Y33.3724 
G01 X-62.5240 Y33.3215 
G01 X-62.4945 Y33.2743 
G01 X-62.4587 Y33.2316 
G01 X-62.4172 Y33.1944 
G01 X-62.3710 Y33.1633 
G01 X-62.3210 Y33.1389 
G01 X-62.2948 Y33.1294 
G01 X-62.2351 Y33.1101 
G01 X-62.1255 Y33.0489 
G01 X-62.0300 Y32.9674 
G01 X-61.9522 Y32.8690 
G01 X-61.8951 Y32.7572 
G01 X-61.8609 Y32.6364 
G01 X-61.8510 Y32.5113 
G01 X-61.8656 Y32.3867 
G01 X-61.9043 Y32.2673 
G01 X-61.9655 Y32.1578 
G01 X-62.0469 Y32.0622 
G01 X-62.1454 Y31.9845 
G01 X-62.2572 Y31.9274 
G01 X-62.3779 Y31.8932 
G01 X-62.5030 Y31.8832 
G01 X-62.6277 Y31.8979 
G01 X-62.6873 Y31.9172 
G01 X-62.7987 Y31.9533 
G01 X-63.0093 Y32.0557 
G01 X-63.2035 Y32.1866 
G01 X-63.3777 Y32.3431 
G01 X-63.5283 Y32.5224 
G01 X-63.6525 Y32.7210 
G01 X-63.7478 Y32.9349 
G01 X-63.8124 Y33.1600 
G01 X-63.8450 Y33.3919 
G01 X-63.8450 Y33.6226 
G01 X-63.8095 Y33.8470 
G01 X-63.7392 Y34.0631 
G01 X-63.6361 Y34.2655 
G01 X-63.5025 Y34.4494 
G01 X-63.3419 Y34.6100 
G01 X-63.1580 Y34.7436 
G01 X-62.9556 Y34.8467 
G01 X-62.7395 Y34.9170 
G01 X-62.6805 Y34.9263 
G01 X-62.9046 Y35.0114 
G01 X-63.0037 Y35.0597 
G01 X-63.0620 Y35.0797 
G01 X-63.2407 Y35.1740 
G01 X-63.4027 Y35.2947 
G01 X-63.5441 Y35.4389 
G01 X-63.6615 Y35.6033 
G01 X-63.7521 Y35.7839 
G01 X-63.8138 Y35.9763 
G01 X-63.8450 Y36.1758 
G01 X-63.8450 Y36.3779 
G01 X-63.8138 Y36.5774 
G01 X-63.7521 Y36.7698 
G01 X-63.6615 Y36.9504 
G01 X-63.5441 Y37.1148 
G01 X-63.4027 Y37.2590 
G01 X-63.2407 Y37.3797 
G01 X-63.0620 Y37.4740 
G01 X-63.0037 Y37.4940 
G01 X-62.9046 Y37.5423 
G01 X-62.6768 Y37.6288 
G01 X-62.7434 Y37.6499 
G01 X-62.8533 Y37.7105 
G01 X-62.9493 Y37.7913 
G01 X-63.6833 Y38.7088 
G01 X-63.7028 Y38.7282 
G01 X-63.7224 Y38.7577 
G01 X-63.7446 Y38.7854 
G01 X-63.7572 Y38.8097 
G01 X-63.7725 Y38.8326 
G01 X-63.7860 Y38.8653 
G01 X-63.8024 Y38.8968 
G01 X-63.8100 Y38.9231 
G01 X-63.8205 Y38.9485 
G01 X-63.8274 Y38.9833 
G01 X-63.8373 Y39.0173 
G01 X-63.8396 Y39.0447 
G01 X-63.8450 Y39.0716 
G01 X-63.8450 Y39.1070 
G01 X-63.8480 Y39.1423 
G01 X-63.8450 Y39.1696 
G01 X-63.8450 Y39.1971 
G01 X-63.8381 Y39.2318 
G01 X-63.8342 Y39.2671 
G01 X-63.8259 Y39.2933 
G01 X-63.8205 Y39.3202 
G01 X-63.8070 Y39.3529 
G01 X-63.7962 Y39.3867 
G01 X-63.7830 Y39.4108 
G01 X-63.7725 Y39.4361 
G01 X-63.7528 Y39.4656 
G01 X-63.7357 Y39.4966 
G01 X-63.7180 Y39.5176 
G01 X-63.7028 Y39.5405 
G01 X-63.6777 Y39.5655 
G01 X-63.6549 Y39.5926 
G01 X-63.6335 Y39.6098 
G01 X-63.6140 Y39.6292 
G01 X-63.5846 Y39.6489 
G01 X-63.5569 Y39.6710 
G01 X-63.5325 Y39.6837 
G01 X-63.5097 Y39.6989 
G01 X-63.4770 Y39.7125 
G01 X-63.4455 Y39.7288 
G01 X-63.4191 Y39.7365 
G01 X-63.3937 Y39.7470 
G01 X-63.3590 Y39.7539 
G01 X-63.3249 Y39.7637 
G01 X-63.2976 Y39.7661 
G01 X-63.2707 Y39.7714 
G01 X-63.2352 Y39.7714 
G01 X-63.1999 Y39.7745 
G01 X-63.1726 Y39.7714 
G01 X-60.6192 Y39.7714 
G01 X-60.6192 Y40.0932 
G01 X-60.5947 Y40.2162 
G01 X-60.5467 Y40.3322 
G01 X-60.4770 Y40.4365 
G01 X-60.3882 Y40.5253 
G01 X-60.2839 Y40.5950 
G01 X-60.1679 Y40.6430 
G01 X-60.0449 Y40.6675 
G01 X-59.9193 Y40.6675 
G01 X-59.7963 Y40.6430 
G01 X-59.6803 Y40.5950 
G01 X-59.5760 Y40.5253 
G01 X-59.4872 Y40.4365 
G01 X-59.4175 Y40.3322 
G01 X-59.3695 Y40.2162 
G01 X-59.3450 Y40.0932 
G01 X-59.3450 Y38.1755 
G01 X-59.3695 Y38.0525 
G01 X-59.4175 Y37.9365 
G01 X-59.4872 Y37.8322 
G01 X-59.5760 Y37.7434 
G01 X-59.6803 Y37.6737 
G01 X-59.7963 Y37.6257 
G01 X-59.9193 Y37.6012 
G01 X-60.0449 Y37.6012 
G01 X-60.1679 Y37.6257 
G01 X-60.2839 Y37.6737 
G01 X-60.3882 Y37.7434 
G01 X-60.4770 Y37.8322 
G01 X-60.5467 Y37.9365 
G01 X-60.5947 Y38.0525 
G01 X-60.6192 Y38.1755 
G01 X-60.6192 Y38.4972 
G01 X-61.9077 Y38.4972 
G01 X-61.8966 Y38.4759 
G01 X-61.8617 Y38.3553 
G01 X-61.8509 Y38.2303 
G01 X-61.8648 Y38.1056 
G01 X-61.9027 Y37.9859 
G01 X-61.9632 Y37.8760 
G01 X-62.0416 Y37.7830 
G01 X-61.7446 Y37.8100 
G01 X-61.4454 Y37.8100 
G01 X-61.1475 Y37.7829 
G01 X-60.8532 Y37.7289 
G01 X-60.5651 Y37.6485 
G01 X-60.2854 Y37.5423 
G01 X-60.1863 Y37.4940 
G01 X-60.1280 Y37.4740 
G01 X-59.9493 Y37.3797 
G01 X-59.7873 Y37.2590 
G01 X-59.6459 Y37.1148 
G01 X-59.5285 Y36.9504 
G01 X-59.4379 Y36.7698 
G01 X-59.3762 Y36.5774 
G01 X-59.3450 Y36.3779 
G01 X-59.3450 Y36.1758 
G01 X-59.3762 Y35.9763 
G01 X-59.4379 Y35.7839 
G01 X-59.5285 Y35.6033 
G01 X-59.6459 Y35.4389 
G01 X-59.7873 Y35.2947 
G01 X-59.9493 Y35.1740 
G01 X-60.1279 Y35.0797 
G01 X-60.1863 Y35.0597 
G01 X-60.2854 Y35.0114 
G00 Z1.0000  
G00 X-60.7787 Y41.8754 
G01 Z0.0000  F70    
G01 X-60.7787 Y41.7061 F300   
G01 X-60.8120 Y41.4956 
G01 X-60.8779 Y41.2929 
G01 X-60.9746 Y41.1030 
G01 X-61.0999 Y40.9306 
G01 X-61.2506 Y40.7799 
G01 X-61.4230 Y40.6546 
G01 X-61.6129 Y40.5579 
G01 X-61.8156 Y40.4920 
G01 X-62.0261 Y40.4587 
G01 X-62.4325 Y40.4587 
G01 X-62.6709 Y40.4964 
G01 X-62.9004 Y40.5710 
G01 X-63.1154 Y40.6806 
G01 X-63.3106 Y40.8224 
G01 X-63.4813 Y40.9931 
G01 X-63.6231 Y41.1883 
G01 X-63.7327 Y41.4033 
G01 X-63.8072 Y41.6328 
G01 X-63.8450 Y41.8712 
G01 X-63.8450 Y42.1125 
G01 X-63.8072 Y42.3509 
G01 X-63.7327 Y42.5804 
G01 X-63.6231 Y42.7954 
G01 X-63.4813 Y42.9906 
G01 X-63.3106 Y43.1613 
G01 X-63.1154 Y43.3031 
G01 X-62.9004 Y43.4127 
G01 X-62.6709 Y43.4872 
G01 X-62.4325 Y43.5250 
G01 X-62.3746 Y43.5250 
G01 X-61.2801 Y43.5250 
G01 X-61.0109 Y43.4896 
G01 X-60.7487 Y43.4193 
G01 X-60.4979 Y43.3154 
G01 X-60.2629 Y43.1797 
G01 X-60.0475 Y43.0145 
G01 X-59.8555 Y42.8225 
G01 X-59.6903 Y42.6071 
G01 X-59.5546 Y42.3721 
G01 X-59.4507 Y42.1213 
G01 X-59.3804 Y41.8591 
G01 X-59.3450 Y41.5899 
G01 X-59.3450 Y41.3915 
G01 X-59.3695 Y41.2684 
G01 X-59.4175 Y41.1524 
G01 X-59.4872 Y41.0481 
G01 X-59.5760 Y40.9593 
G01 X-59.6803 Y40.8896 
G01 X-59.7963 Y40.8416 
G01 X-59.9193 Y40.8171 
G01 X-60.0449 Y40.8171 
G01 X-60.1679 Y40.8416 
G01 X-60.2839 Y40.8896 
G01 X-60.3882 Y40.9593 
G01 X-60.4770 Y41.0481 
G01 X-60.5467 Y41.1524 
G01 X-60.5947 Y41.2684 
G01 X-60.6192 Y41.3915 
G01 X-60.6192 Y41.4542 
G01 X-60.6209 Y41.5063 
G01 X-60.6345 Y41.6096 
G01 X-60.6615 Y41.7103 
G01 X-60.7013 Y41.8065 
G01 X-60.7534 Y41.8968 
G01 X-60.7787 Y41.9297 
G01 X-60.7787 Y41.8754 
G00 Z1.0000  
G00 X-55.2510 Y47.9192 
G01 Z0.0000  F70    
G01 X-55.1280 Y47.8947 F300   
G01 X-55.0120 Y47.8467 
G01 X-54.9077 Y47.7770 
G01 X-54.8189 Y47.6882 
G01 X-54.7492 Y47.5839 
G01 X-54.7012 Y47.4679 
G01 X-54.6767 Y47.3449 
G01 X-54.6767 Y47.2193 
G01 X-54.7012 Y47.0963 
G01 X-54.7492 Y46.9803 
G01 X-54.8189 Y46.8760 
G01 X-54.9077 Y46.7872 
G01 X-55.0120 Y46.7175 
G01 X-55.1280 Y46.6695 
G01 X-55.2510 Y46.6450 
G01 X-56.1334 Y46.6450 
G01 X-56.3358 Y46.6807 
G01 X-56.5290 Y46.7510 
G01 X-56.7070 Y46.8538 
G01 X-56.8645 Y46.9859 
G01 X-56.9966 Y47.1434 
G01 X-57.0779 Y47.2843 
G01 X-57.0779 Y47.2193 
G01 X-57.1024 Y47.0963 
G01 X-57.1504 Y46.9803 
G01 X-57.2202 Y46.8760 
G01 X-57.3089 Y46.7872 
G01 X-57.4133 Y46.7175 
G01 X-57.5292 Y46.6695 
G01 X-57.6523 Y46.6450 
G01 X-58.6262 Y46.6450 
G01 X-58.8329 Y46.6795 
G01 X-59.0311 Y46.7475 
G01 X-59.2154 Y46.8473 
G01 X-59.3807 Y46.9759 
G01 X-59.4719 Y47.0750 
G01 X-59.4843 Y47.0348 
G01 X-59.5439 Y46.9243 
G01 X-59.6239 Y46.8276 
G01 X-59.7212 Y46.7484 
G01 X-59.8321 Y46.6897 
G01 X-59.9524 Y46.6537 
G01 X-60.0773 Y46.6419 
G01 X-60.2022 Y46.6547 
G01 X-60.3221 Y46.6916 
G01 X-60.4326 Y46.7512 
G01 X-60.5292 Y46.8312 
G01 X-60.6085 Y46.9286 
G01 X-60.8714 Y47.4251 
G01 X-60.8714 Y47.2193 
G01 X-60.8958 Y47.0963 
G01 X-60.9439 Y46.9803 
G01 X-61.0136 Y46.8760 
G01 X-61.1023 Y46.7872 
G01 X-61.2067 Y46.7175 
G01 X-61.3226 Y46.6695 
G01 X-61.4457 Y46.6450 
G01 X-61.5712 Y46.6450 
G01 X-61.6943 Y46.6695 
G01 X-61.8102 Y46.7175 
G01 X-61.9146 Y46.7872 
G01 X-62.0033 Y46.8760 
G01 X-62.0731 Y46.9803 
G01 X-62.1101 Y47.0697 
G01 X-62.1471 Y46.9803 
G01 X-62.2168 Y46.8760 
G01 X-62.3055 Y46.7872 
G01 X-62.4099 Y46.7175 
G01 X-62.5258 Y46.6695 
G01 X-62.6489 Y46.6450 
G01 X-62.7744 Y46.6450 
G01 X-62.8975 Y46.6695 
G01 X-63.0134 Y46.7175 
G01 X-63.1178 Y46.7872 
G01 X-63.1936 Y46.8630 
G01 X-63.2693 Y46.7872 
G01 X-63.3737 Y46.7175 
G01 X-63.4896 Y46.6695 
G01 X-63.6127 Y46.6450 
G01 X-63.7782 Y46.6450 
G01 X-63.9807 Y46.6807 
G01 X-64.1738 Y46.7510 
G01 X-64.3518 Y46.8538 
G01 X-64.5093 Y46.9859 
G01 X-64.6414 Y47.1434 
G01 X-64.7442 Y47.3214 
G01 X-64.7832 Y47.4284 
G01 X-64.8106 Y47.3746 
G01 X-64.9524 Y47.1794 
G01 X-65.1231 Y47.0087 
G01 X-65.3183 Y46.8669 
G01 X-65.5333 Y46.7573 
G01 X-65.7628 Y46.6827 
G01 X-66.0012 Y46.6450 
G01 X-66.1846 Y46.6450 
G01 X-67.0807 Y46.6450 
G01 X-67.2037 Y46.6695 
G01 X-67.3197 Y46.7175 
G01 X-67.4240 Y46.7872 
G01 X-67.5128 Y46.8760 
G01 X-67.5825 Y46.9803 
G01 X-67.6305 Y47.0963 
G01 X-67.6550 Y47.2193 
G01 X-67.6550 Y50.5707 
G01 X-67.6305 Y50.6937 
G01 X-67.5825 Y50.8097 
G01 X-67.5128 Y50.9140 
G01 X-67.4240 Y51.0028 
G01 X-67.3197 Y51.0725 
G01 X-67.2037 Y51.1205 
G01 X-67.0807 Y51.1450 
G01 X-66.0097 Y51.1450 
G01 X-65.7883 Y51.1081 
G01 X-65.5761 Y51.0352 
G01 X-65.3788 Y50.9284 
G01 X-65.2017 Y50.7906 
G01 X-65.0497 Y50.6255 
G01 X-64.9270 Y50.4377 
G01 X-64.8502 Y50.2625 
G01 X-64.8502 Y50.5707 
G01 X-64.8257 Y50.6937 
G01 X-64.7777 Y50.8097 
G01 X-64.7079 Y50.9140 
G01 X-64.6192 Y51.0028 
G01 X-64.5149 Y51.0725 
G01 X-64.3989 Y51.1205 
G01 X-64.2758 Y51.1450 
G01 X-64.1503 Y51.1450 
G01 X-64.0272 Y51.1205 
G01 X-63.9113 Y51.0725 
G01 X-63.8070 Y51.0028 
G01 X-63.7182 Y50.9140 
G01 X-63.6485 Y50.8097 
G01 X-63.6005 Y50.6937 
G01 X-63.5760 Y50.5707 
G01 X-63.5760 Y47.9119 
G01 X-63.4896 Y47.8947 
G01 X-63.3737 Y47.8467 
G01 X-63.3488 Y47.8300 
G01 X-63.3488 Y49.4954 
G01 X-63.3243 Y49.6185 
G01 X-63.2763 Y49.7344 
G01 X-63.2089 Y49.8353 
G01 X-63.2961 Y49.9226 
G01 X-63.3659 Y50.0269 
G01 X-63.4139 Y50.1429 
G01 X-63.4384 Y50.2659 
G01 X-63.4384 Y50.5707 
G01 X-63.4139 Y50.6937 
G01 X-63.3659 Y50.8097 
G01 X-63.2961 Y50.9140 
G01 X-63.2074 Y51.0028 
G01 X-63.1031 Y51.0725 
G01 X-62.9871 Y51.1205 
G01 X-62.8640 Y51.1450 
G01 X-62.5593 Y51.1450 
G01 X-62.4362 Y51.1205 
G01 X-62.3203 Y51.0725 
G01 X-62.2159 Y51.0028 
G01 X-62.1272 Y50.9140 
G01 X-62.0653 Y50.8213 
G01 X-62.0033 Y50.9140 
G01 X-61.9146 Y51.0028 
G01 X-61.8102 Y51.0725 
G01 X-61.6943 Y51.1205 
G01 X-61.5712 Y51.1450 
G01 X-61.4457 Y51.1450 
G01 X-61.3226 Y51.1205 
G01 X-61.2067 Y51.0725 
G01 X-61.1023 Y51.0028 
G01 X-61.0136 Y50.9140 
G01 X-60.9439 Y50.8097 
G01 X-60.8958 Y50.6937 
G01 X-60.8714 Y50.5707 
G01 X-60.8714 Y49.6316 
G01 X-60.4068 Y49.9800 
G01 X-60.2937 Y50.0342 
G01 X-60.1721 Y50.0654 
G01 X-60.0468 Y50.0722 
G01 X-59.9226 Y50.0545 
G01 X-59.8042 Y50.0128 
G01 X-59.6962 Y49.9489 
G01 X-59.6027 Y49.8651 
G01 X-59.5274 Y49.7647 
G01 X-59.5218 Y49.7529 
G01 X-59.4644 Y49.8388 
G01 X-59.3756 Y49.9275 
G01 X-59.2713 Y49.9972 
G01 X-59.1553 Y50.0452 
G01 X-59.0323 Y50.0697 
G01 X-58.1499 Y50.0697 
G01 X-57.9475 Y50.0340 
G01 X-57.7543 Y49.9637 
G01 X-57.5763 Y49.8610 
G01 X-57.4188 Y49.7288 
G01 X-57.2867 Y49.5714 
G01 X-57.1839 Y49.3934 
G01 X-57.1416 Y49.2772 
G01 X-57.0994 Y49.3934 
G01 X-56.9966 Y49.5714 
G01 X-56.8645 Y49.7288 
G01 X-56.7070 Y49.8610 
G01 X-56.5290 Y49.9637 
G01 X-56.3358 Y50.0340 
G01 X-56.1334 Y50.0697 
G01 X-55.2510 Y50.0697 
G01 X-55.1280 Y50.0452 
G01 X-55.0120 Y49.9972 
G01 X-54.9077 Y49.9275 
G01 X-54.8189 Y49.8388 
G01 X-54.7492 Y49.7344 
G01 X-54.7012 Y49.6185 
G01 X-54.6767 Y49.4954 
G01 X-54.6767 Y49.3699 
G01 X-54.7012 Y49.2468 
G01 X-54.7492 Y49.1309 
G01 X-54.8189 Y49.0265 
G01 X-54.9077 Y48.9378 
G01 X-55.0120 Y48.8680 
G01 X-55.1280 Y48.8200 
G01 X-55.2510 Y48.7955 
G01 X-55.9312 Y48.7955 
G01 X-55.9312 Y47.9192 
G01 X-55.2510 Y47.9192 
G00 Z1.0000  
G00 X-55.4931 Y29.9643 
G01 Z0.0000  F70    
G01 X-55.3643 Y30.0931 F300   
G01 X-55.2168 Y30.2002 
G01 X-55.0544 Y30.2830 
G01 X-54.8811 Y30.3393 
G01 X-54.7011 Y30.3678 
G01 X-54.5189 Y30.3678 
G01 X-54.3389 Y30.3393 
G01 X-54.1656 Y30.2830 
G01 X-54.0032 Y30.2002 
G01 X-53.8557 Y30.0931 
G01 X-53.7269 Y29.9643 
G01 X-53.6198 Y29.8168 
G01 X-53.5370 Y29.6544 
G01 X-53.4807 Y29.4811 
G01 X-53.4522 Y29.3011 
G01 X-53.4522 Y29.1189 
G01 X-53.4807 Y28.9389 
G01 X-53.5370 Y28.7656 
G01 X-53.6198 Y28.6032 
G01 X-53.7269 Y28.4557 
G01 X-53.8557 Y28.3269 
G01 X-54.0032 Y28.2198 
G01 X-54.1656 Y28.1370 
G01 X-54.3389 Y28.0807 
G01 X-54.5189 Y28.0522 
G01 X-54.7011 Y28.0522 
G01 X-54.8811 Y28.0807 
G01 X-55.0544 Y28.1370 
G01 X-55.2168 Y28.2198 
G01 X-55.3643 Y28.3269 
G01 X-55.4931 Y28.4557 
G01 X-55.4952 Y28.4586 
G01 X-62.3040 Y28.4586 
G01 X-62.4492 Y28.4875 
G01 X-62.5859 Y28.5441 
G01 X-62.7090 Y28.6264 
G01 X-65.8036 Y31.7210 
G01 X-65.9361 Y31.7000 
G01 X-66.1439 Y31.7000 
G01 X-66.3491 Y31.7325 
G01 X-66.5467 Y31.7967 
G01 X-66.7318 Y31.8910 
G01 X-66.8999 Y32.0132 
G01 X-67.0468 Y32.1601 
G01 X-67.1690 Y32.3282 
G01 X-67.2633 Y32.5133 
G01 X-67.3275 Y32.7109 
G01 X-67.3600 Y32.9161 
G01 X-67.3600 Y33.1239 
G01 X-67.3275 Y33.3291 
G01 X-67.2633 Y33.5267 
G01 X-67.1690 Y33.7118 
G01 X-67.0468 Y33.8799 
G01 X-66.8999 Y34.0268 
G01 X-66.7914 Y34.1057 
G01 X-66.7914 Y36.9343 
G01 X-66.8999 Y37.0132 
G01 X-67.0468 Y37.1601 
G01 X-67.1690 Y37.3282 
G01 X-67.2633 Y37.5133 
G01 X-67.3275 Y37.7109 
G01 X-67.3600 Y37.9161 
G01 X-67.3600 Y38.1239 
G01 X-67.3275 Y38.3291 
G01 X-67.2633 Y38.5267 
G01 X-67.1690 Y38.7118 
G01 X-67.0468 Y38.8799 
G01 X-66.8999 Y39.0268 
G01 X-66.7914 Y39.1057 
G01 X-66.7914 Y43.2540 
G01 X-66.7625 Y43.3992 
G01 X-66.7059 Y43.5359 
G01 X-66.6236 Y43.6590 
G01 X-66.5190 Y43.7636 
G01 X-65.2490 Y45.0336 
G01 X-65.1259 Y45.1159 
G01 X-64.9892 Y45.1725 
G01 X-64.8440 Y45.2014 
G01 X-57.8204 Y45.2014 
G01 X-57.5664 Y45.4554 
G01 X-56.7336 Y45.4554 
G01 X-56.1446 Y44.8664 
G01 X-56.1446 Y44.0336 
G01 X-56.7336 Y43.4446 
G01 X-57.5664 Y43.4446 
G01 X-57.8204 Y43.6986 
G01 X-64.4588 Y43.6986 
G01 X-65.2886 Y42.8688 
G01 X-65.2886 Y39.1057 
G01 X-65.1801 Y39.0268 
G01 X-65.0332 Y38.8799 
G01 X-64.9110 Y38.7118 
G01 X-64.8167 Y38.5267 
G01 X-64.7525 Y38.3291 
G01 X-64.7200 Y38.1239 
G01 X-64.7200 Y37.9161 
G01 X-64.7525 Y37.7109 
G01 X-64.8167 Y37.5133 
G01 X-64.9110 Y37.3282 
G01 X-65.0332 Y37.1601 
G01 X-65.1801 Y37.0132 
G01 X-65.2886 Y36.9343 
G01 X-65.2886 Y34.1057 
G01 X-65.1801 Y34.0268 
G01 X-65.0332 Y33.8799 
G01 X-64.9110 Y33.7118 
G01 X-64.8167 Y33.5267 
G01 X-64.7525 Y33.3291 
G01 X-64.7200 Y33.1239 
G01 X-64.7200 Y32.9161 
G01 X-64.7410 Y32.7836 
G01 X-61.9188 Y29.9614 
G01 X-55.4952 Y29.9614 
G01 X-55.4931 Y29.9643 
G00 Z1.0000  
G00 X-55.7678 Y24.0389 
G01 Z0.0000  F70    
G01 X-55.7678 Y24.2211 F300   
G01 X-55.7393 Y24.4011 
G01 X-55.6830 Y24.5744 
G01 X-55.6002 Y24.7368 
G01 X-55.4931 Y24.8843 
G01 X-55.3643 Y25.0131 
G01 X-55.2168 Y25.1202 
G01 X-55.0544 Y25.2030 
G01 X-54.8811 Y25.2593 
G01 X-54.7011 Y25.2878 
G01 X-54.5189 Y25.2878 
G01 X-54.3389 Y25.2593 
G01 X-54.1656 Y25.2030 
G01 X-54.0032 Y25.1202 
G01 X-53.8557 Y25.0131 
G01 X-53.7269 Y24.8843 
G01 X-53.6198 Y24.7368 
G01 X-53.5370 Y24.5744 
G01 X-53.4807 Y24.4011 
G01 X-53.4522 Y24.2211 
G01 X-53.4522 Y24.0389 
G01 X-53.4807 Y23.8589 
G01 X-53.5370 Y23.6856 
G01 X-53.6198 Y23.5232 
G01 X-53.7269 Y23.3757 
G01 X-53.8557 Y23.2469 
G01 X-54.0032 Y23.1398 
G01 X-54.1656 Y23.0570 
G01 X-54.3389 Y23.0007 
G01 X-54.5189 Y22.9722 
G01 X-54.7011 Y22.9722 
G01 X-54.8811 Y23.0007 
G01 X-55.0544 Y23.0570 
G01 X-55.2168 Y23.1398 
G01 X-55.3643 Y23.2469 
G01 X-55.4931 Y23.3757 
G01 X-55.6002 Y23.5232 
G01 X-55.6830 Y23.6856 
G01 X-55.7393 Y23.8589 
G01 X-55.7678 Y24.0389 
G00 Z1.0000  
G00 X-67.3600 Y27.9161 
G01 Z0.0000  F70    
G01 X-67.3600 Y28.1239 F300   
G01 X-67.3275 Y28.3291 
G01 X-67.2633 Y28.5267 
G01 X-67.1690 Y28.7118 
G01 X-67.0468 Y28.8799 
G01 X-66.8999 Y29.0268 
G01 X-66.7318 Y29.1490 
G01 X-66.5467 Y29.2433 
G01 X-66.3491 Y29.3075 
G01 X-66.1439 Y29.3400 
G01 X-65.9361 Y29.3400 
G01 X-65.7309 Y29.3075 
G01 X-65.5333 Y29.2433 
G01 X-65.3482 Y29.1490 
G01 X-65.1801 Y29.0268 
G01 X-65.0332 Y28.8799 
G01 X-64.9110 Y28.7118 
G01 X-64.8167 Y28.5267 
G01 X-64.7525 Y28.3291 
G01 X-64.7200 Y28.1239 
G01 X-64.7200 Y27.9161 
G01 X-64.7410 Y27.7836 
G01 X-64.3788 Y27.4214 
G01 X-55.4952 Y27.4214 
G01 X-55.4931 Y27.4243 
G01 X-55.3643 Y27.5531 
G01 X-55.2168 Y27.6602 
G01 X-55.0544 Y27.7430 
G01 X-54.8811 Y27.7993 
G01 X-54.7011 Y27.8278 
G01 X-54.5189 Y27.8278 
G01 X-54.3389 Y27.7993 
G01 X-54.1656 Y27.7430 
G01 X-54.0032 Y27.6602 
G01 X-53.8557 Y27.5531 
G01 X-53.7269 Y27.4243 
G01 X-53.7248 Y27.4214 
G01 X-52.3812 Y27.4214 
G01 X-51.5514 Y28.2512 
G01 X-51.5514 Y35.4540 
G01 X-51.6734 Y35.5760 
G01 X-51.7794 Y35.7218 
G01 X-51.8612 Y35.8824 
G01 X-51.9169 Y36.0539 
G01 X-51.9451 Y36.2319 
G01 X-51.9451 Y36.4121 
G01 X-51.9169 Y36.5901 
G01 X-51.8612 Y36.7616 
G01 X-51.7794 Y36.9222 
G01 X-51.6734 Y37.0680 
G01 X-51.5460 Y37.1954 
G01 X-51.4002 Y37.3014 
G01 X-51.3075 Y37.3486 
G01 X-53.8586 Y37.3486 
G01 X-53.8586 Y32.6352 
G01 X-53.8557 Y32.6331 
G01 X-53.7269 Y32.5043 
G01 X-53.6198 Y32.3568 
G01 X-53.5370 Y32.1944 
G01 X-53.4807 Y32.0211 
G01 X-53.4522 Y31.8411 
G01 X-53.4522 Y31.6589 
G01 X-53.4807 Y31.4789 
G01 X-53.5370 Y31.3056 
G01 X-53.6198 Y31.1432 
G01 X-53.7269 Y30.9957 
G01 X-53.8557 Y30.8669 
G01 X-54.0032 Y30.7598 
G01 X-54.1656 Y30.6770 
G01 X-54.3389 Y30.6207 
G01 X-54.5189 Y30.5922 
G01 X-54.7011 Y30.5922 
G01 X-54.8811 Y30.6207 
G01 X-55.0544 Y30.6770 
G01 X-55.2168 Y30.7598 
G01 X-55.3643 Y30.8669 
G01 X-55.4931 Y30.9957 
G01 X-55.6002 Y31.1432 
G01 X-55.6830 Y31.3056 
G01 X-55.7393 Y31.4789 
G01 X-55.7678 Y31.6589 
G01 X-55.7678 Y31.8411 
G01 X-55.7393 Y32.0211 
G01 X-55.6830 Y32.1944 
G01 X-55.6002 Y32.3568 
G01 X-55.4931 Y32.5043 
G01 X-55.3643 Y32.6331 
G01 X-55.3614 Y32.6352 
G01 X-55.3614 Y33.5386 
G01 X-56.4796 Y33.5386 
G01 X-56.7336 Y33.2846 
G01 X-57.5664 Y33.2846 
G01 X-58.1554 Y33.8736 
G01 X-58.1554 Y34.7064 
G01 X-57.5664 Y35.2954 
G01 X-56.7336 Y35.2954 
G01 X-56.4796 Y35.0414 
G01 X-55.3614 Y35.0414 
G01 X-55.3614 Y45.7940 
G01 X-55.3325 Y45.9392 
G01 X-55.2759 Y46.0759 
G01 X-55.1936 Y46.1990 
G01 X-55.0890 Y46.3036 
G01 X-51.2790 Y50.1136 
G01 X-51.1559 Y50.1959 
G01 X-51.0192 Y50.2525 
G01 X-50.8740 Y50.2814 
G01 X-31.6760 Y50.2814 
G01 X-31.5308 Y50.2525 
G01 X-31.3941 Y50.1959 
G01 X-31.2710 Y50.1136 
G01 X-31.1664 Y50.0090 
G01 X-28.7310 Y47.5736 
G01 X-28.6264 Y47.4690 
G01 X-28.5441 Y47.3459 
G01 X-28.4875 Y47.2092 
G01 X-28.4586 Y47.0640 
G01 X-28.4586 Y27.8660 
G01 X-28.4875 Y27.7208 
G01 X-28.5441 Y27.5841 
G01 X-28.6264 Y27.4610 
G01 X-31.1664 Y24.9210 
G01 X-31.2710 Y24.8163 
G01 X-31.3941 Y24.7341 
G01 X-31.5308 Y24.6775 
G01 X-31.6760 Y24.6486 
G01 X-32.3702 Y24.6486 
G01 X-32.3702 Y24.6048 
G01 X-33.4948 Y23.4802 
G01 X-35.0852 Y23.4802 
G01 X-36.2098 Y24.6048 
G01 X-36.2098 Y24.6486 
G01 X-41.6039 Y24.6486 
G01 X-41.6968 Y24.5556 
G01 X-41.8378 Y24.4532 
G01 X-41.9931 Y24.3741 
G01 X-42.1588 Y24.3203 
G01 X-42.3309 Y24.2930 
G01 X-44.0291 Y24.2930 
G01 X-44.2012 Y24.3203 
G01 X-44.3669 Y24.3741 
G01 X-44.3976 Y24.3897 
G01 X-45.1364 Y23.6510 
G01 X-45.2410 Y23.5464 
G01 X-45.3641 Y23.4641 
G01 X-45.5008 Y23.4075 
G01 X-45.6460 Y23.3786 
G01 X-46.1048 Y23.3786 
G01 X-46.1069 Y23.3757 
G01 X-46.2357 Y23.2469 
G01 X-46.3832 Y23.1398 
G01 X-46.5456 Y23.0570 
G01 X-46.7189 Y23.0007 
G01 X-46.8989 Y22.9722 
G01 X-47.0811 Y22.9722 
G01 X-47.2611 Y23.0007 
G01 X-47.4344 Y23.0570 
G01 X-47.5968 Y23.1398 
G01 X-47.7443 Y23.2469 
G01 X-47.8731 Y23.3757 
G01 X-47.9802 Y23.5232 
G01 X-48.0630 Y23.6856 
G01 X-48.1193 Y23.8589 
G01 X-48.1478 Y24.0389 
G01 X-48.1478 Y24.2211 
G01 X-48.1193 Y24.4011 
G01 X-48.0630 Y24.5744 
G01 X-47.9802 Y24.7368 
G01 X-47.8731 Y24.8843 
G01 X-47.7443 Y25.0131 
G01 X-47.5968 Y25.1202 
G01 X-47.4344 Y25.2030 
G01 X-47.2611 Y25.2593 
G01 X-47.0811 Y25.2878 
G01 X-46.8989 Y25.2878 
G01 X-46.7189 Y25.2593 
G01 X-46.5456 Y25.2030 
G01 X-46.3832 Y25.1202 
G01 X-46.2357 Y25.0131 
G01 X-46.1069 Y24.8843 
G01 X-46.1048 Y24.8814 
G01 X-46.0312 Y24.8814 
G01 X-44.9290 Y25.9836 
G01 X-44.8460 Y26.0391 
G01 X-44.7864 Y26.1212 
G01 X-44.6632 Y26.2444 
G01 X-44.5222 Y26.3468 
G01 X-44.3669 Y26.4259 
G01 X-44.2012 Y26.4797 
G01 X-44.0291 Y26.5070 
G01 X-42.3309 Y26.5070 
G01 X-42.1588 Y26.4797 
G01 X-41.9931 Y26.4259 
G01 X-41.8378 Y26.3468 
G01 X-41.6968 Y26.2444 
G01 X-41.6039 Y26.1514 
G01 X-36.2098 Y26.1514 
G01 X-36.2098 Y26.1952 
G01 X-35.0852 Y27.3198 
G01 X-33.4948 Y27.3198 
G01 X-32.3702 Y26.1952 
G01 X-32.3702 Y26.1514 
G01 X-32.0612 Y26.1514 
G01 X-29.9614 Y28.2512 
G01 X-29.9614 Y46.6788 
G01 X-32.0612 Y48.7786 
G01 X-50.4888 Y48.7786 
G01 X-53.8586 Y45.4088 
G01 X-53.8586 Y38.8514 
G01 X-51.3928 Y38.8514 
G01 X-51.9451 Y39.4037 
G01 X-51.9451 Y40.3523 
G01 X-51.5514 Y40.7460 
G01 X-51.5514 Y44.5240 
G01 X-51.5225 Y44.6692 
G01 X-51.4659 Y44.8059 
G01 X-51.3836 Y44.9290 
G01 X-48.7390 Y47.5736 
G01 X-48.6159 Y47.6559 
G01 X-48.4792 Y47.7125 
G01 X-48.3340 Y47.7414 
G01 X-32.9460 Y47.7414 
G01 X-32.8008 Y47.7125 
G01 X-32.6641 Y47.6559 
G01 X-32.5410 Y47.5736 
G01 X-32.4364 Y47.4690 
G01 X-31.2710 Y46.3036 
G01 X-31.1664 Y46.1990 
G01 X-31.0841 Y46.0759 
G01 X-31.0275 Y45.9392 
G01 X-30.9986 Y45.7940 
G01 X-30.9986 Y36.7560 
G01 X-31.0275 Y36.6108 
G01 X-31.0841 Y36.4741 
G01 X-31.1664 Y36.3510 
G01 X-31.2710 Y36.2463 
G01 X-33.2846 Y34.2328 
G01 X-33.2846 Y33.8736 
G01 X-33.8736 Y33.2846 
G01 X-34.7064 Y33.2846 
G01 X-35.2954 Y33.8736 
G01 X-35.2954 Y34.7064 
G01 X-34.7064 Y35.2954 
G01 X-34.3472 Y35.2954 
G01 X-32.5014 Y37.1412 
G01 X-32.5014 Y45.4088 
G01 X-33.3312 Y46.2386 
G01 X-39.8886 Y46.2386 
G01 X-39.8886 Y45.7808 
G01 X-39.8591 Y45.7513 
G01 X-39.7490 Y45.5866 
G01 X-39.6732 Y45.4037 
G01 X-39.6346 Y45.2094 
G01 X-39.6346 Y43.6906 
G01 X-39.6732 Y43.4963 
G01 X-39.7490 Y43.3134 
G01 X-39.8591 Y43.1487 
G01 X-39.8886 Y43.1192 
G01 X-39.8886 Y41.8360 
G01 X-39.9175 Y41.6908 
G01 X-39.9741 Y41.5541 
G01 X-40.0564 Y41.4310 
G01 X-40.1610 Y41.3264 
G01 X-46.2386 Y35.2488 
G01 X-46.2386 Y32.6352 
G01 X-46.2357 Y32.6331 
G01 X-46.1069 Y32.5043 
G01 X-46.1048 Y32.5014 
G01 X-44.3760 Y32.5014 
G01 X-44.2308 Y32.4725 
G01 X-44.0941 Y32.4159 
G01 X-43.9710 Y32.3336 
G01 X-43.8664 Y32.2290 
G01 X-43.2244 Y31.5870 
G01 X-42.3309 Y31.5870 
G01 X-42.1588 Y31.5597 
G01 X-42.1419 Y31.5542 
G01 X-43.7636 Y33.1760 
G01 X-43.8459 Y33.2991 
G01 X-43.9025 Y33.4358 
G01 X-43.9314 Y33.5810 
G01 X-43.9314 Y33.6196 
G01 X-44.1854 Y33.8736 
G01 X-44.1854 Y34.7064 
G01 X-43.9314 Y34.9604 
G01 X-43.9314 Y35.6340 
G01 X-43.9025 Y35.7792 
G01 X-43.8459 Y35.9159 
G01 X-43.7636 Y36.0390 
G01 X-38.8514 Y40.9512 
G01 X-38.8514 Y41.2396 
G01 X-39.1054 Y41.4935 
G01 X-39.1054 Y42.3264 
G01 X-38.5164 Y42.9154 
G01 X-37.6836 Y42.9154 
G01 X-37.0946 Y42.3264 
G01 X-37.0946 Y41.4935 
G01 X-37.3486 Y41.2396 
G01 X-37.3486 Y40.5660 
G01 X-37.3775 Y40.4208 
G01 X-37.4341 Y40.2841 
G01 X-37.5164 Y40.1610 
G01 X-37.6210 Y40.0564 
G01 X-42.4286 Y35.2488 
G01 X-42.4286 Y34.9604 
G01 X-42.1746 Y34.7064 
G01 X-42.1746 Y33.8736 
G01 X-42.2553 Y33.7929 
G01 X-39.5260 Y31.0636 
G01 X-39.4214 Y30.9590 
G01 X-39.3391 Y30.8359 
G01 X-39.2825 Y30.6992 
G01 X-39.2536 Y30.5540 
G01 X-39.2536 Y28.5010 
G01 X-39.2825 Y28.3558 
G01 X-39.3391 Y28.2191 
G01 X-39.4214 Y28.0960 
G01 X-40.0564 Y27.4610 
G01 X-40.1610 Y27.3564 
G01 X-40.2841 Y27.2741 
G01 X-40.4208 Y27.2175 
G01 X-40.5660 Y27.1886 
G01 X-41.6039 Y27.1886 
G01 X-41.6968 Y27.0956 
G01 X-41.8378 Y26.9932 
G01 X-41.9931 Y26.9141 
G01 X-42.1588 Y26.8603 
G01 X-42.3309 Y26.8330 
G01 X-44.0291 Y26.8330 
G01 X-44.2012 Y26.8603 
G01 X-44.3669 Y26.9141 
G01 X-44.3976 Y26.9297 
G01 X-45.1364 Y26.1910 
G01 X-45.2410 Y26.0863 
G01 X-45.3641 Y26.0041 
G01 X-45.5008 Y25.9475 
G01 X-45.6460 Y25.9186 
G01 X-46.1048 Y25.9186 
G01 X-46.1069 Y25.9157 
G01 X-46.2357 Y25.7869 
G01 X-46.3832 Y25.6798 
G01 X-46.5456 Y25.5970 
G01 X-46.7189 Y25.5407 
G01 X-46.8989 Y25.5122 
G01 X-47.0811 Y25.5122 
G01 X-47.2611 Y25.5407 
G01 X-47.4344 Y25.5970 
G01 X-47.5968 Y25.6798 
G01 X-47.7443 Y25.7869 
G01 X-47.8731 Y25.9157 
G01 X-47.9802 Y26.0632 
G01 X-48.0630 Y26.2256 
G01 X-48.1193 Y26.3989 
G01 X-48.1478 Y26.5789 
G01 X-48.1478 Y26.7611 
G01 X-48.1193 Y26.9411 
G01 X-48.0630 Y27.1144 
G01 X-47.9802 Y27.2768 
G01 X-47.8731 Y27.4243 
G01 X-47.7443 Y27.5531 
G01 X-47.5968 Y27.6602 
G01 X-47.4344 Y27.7430 
G01 X-47.2611 Y27.7993 
G01 X-47.0811 Y27.8278 
G01 X-46.8989 Y27.8278 
G01 X-46.7189 Y27.7993 
G01 X-46.5456 Y27.7430 
G01 X-46.3832 Y27.6602 
G01 X-46.2357 Y27.5531 
G01 X-46.1069 Y27.4243 
G01 X-46.1048 Y27.4214 
G01 X-46.0312 Y27.4214 
G01 X-45.0336 Y28.4190 
G01 X-44.9290 Y28.5236 
G01 X-44.8460 Y28.5791 
G01 X-44.7864 Y28.6612 
G01 X-44.6632 Y28.7844 
G01 X-44.5222 Y28.8868 
G01 X-44.3669 Y28.9659 
G01 X-44.2012 Y29.0197 
G01 X-44.0291 Y29.0470 
G01 X-42.3309 Y29.0470 
G01 X-42.1588 Y29.0197 
G01 X-41.9931 Y28.9659 
G01 X-41.8378 Y28.8868 
G01 X-41.6968 Y28.7844 
G01 X-41.6039 Y28.6914 
G01 X-40.9512 Y28.6914 
G01 X-40.7564 Y28.8862 
G01 X-40.7564 Y30.1688 
G01 X-41.3438 Y30.7561 
G01 X-41.3383 Y30.7392 
G01 X-41.3110 Y30.5671 
G01 X-41.3110 Y30.3929 
G01 X-41.3383 Y30.2208 
G01 X-41.3921 Y30.0551 
G01 X-41.4712 Y29.8998 
G01 X-41.5736 Y29.7588 
G01 X-41.6968 Y29.6356 
G01 X-41.8378 Y29.5332 
G01 X-41.9931 Y29.4541 
G01 X-42.1588 Y29.4003 
G01 X-42.3309 Y29.3730 
G01 X-44.0291 Y29.3730 
G01 X-44.2012 Y29.4003 
G01 X-44.3669 Y29.4541 
G01 X-44.5222 Y29.5332 
G01 X-44.6632 Y29.6356 
G01 X-44.7864 Y29.7588 
G01 X-44.8888 Y29.8998 
G01 X-44.9679 Y30.0551 
G01 X-45.0217 Y30.2208 
G01 X-45.0490 Y30.3929 
G01 X-45.0490 Y30.5671 
G01 X-45.0217 Y30.7392 
G01 X-44.9679 Y30.9049 
G01 X-44.9202 Y30.9986 
G01 X-46.1048 Y30.9986 
G01 X-46.1069 Y30.9957 
G01 X-46.2357 Y30.8669 
G01 X-46.3832 Y30.7598 
G01 X-46.5456 Y30.6770 
G01 X-46.7189 Y30.6207 
G01 X-46.8989 Y30.5922 
G01 X-47.0811 Y30.5922 
G01 X-47.2611 Y30.6207 
G01 X-47.4344 Y30.6770 
G01 X-47.5968 Y30.7598 
G01 X-47.7443 Y30.8669 
G01 X-47.8731 Y30.9957 
G01 X-47.9802 Y31.1432 
G01 X-48.0630 Y31.3056 
G01 X-48.1193 Y31.4789 
G01 X-48.1478 Y31.6589 
G01 X-48.1478 Y31.8411 
G01 X-48.1193 Y32.0211 
G01 X-48.0630 Y32.1944 
G01 X-47.9802 Y32.3568 
G01 X-47.8731 Y32.5043 
G01 X-47.7443 Y32.6331 
G01 X-47.7414 Y32.6352 
G01 X-47.7414 Y35.6340 
G01 X-47.7125 Y35.7792 
G01 X-47.6559 Y35.9159 
G01 X-47.5736 Y36.0390 
G01 X-41.3914 Y42.2212 
G01 X-41.3914 Y43.1192 
G01 X-41.4209 Y43.1487 
G01 X-41.5310 Y43.3134 
G01 X-41.6068 Y43.4963 
G01 X-41.6454 Y43.6906 
G01 X-41.6454 Y45.2094 
G01 X-41.6068 Y45.4037 
G01 X-41.5310 Y45.5866 
G01 X-41.4209 Y45.7513 
G01 X-41.3914 Y45.7808 
G01 X-41.3914 Y46.2386 
G01 X-47.9488 Y46.2386 
G01 X-50.0486 Y44.1388 
G01 X-50.0486 Y40.7460 
G01 X-49.6549 Y40.3523 
G01 X-49.6549 Y39.4037 
G01 X-50.2072 Y38.8514 
G01 X-48.5712 Y38.8514 
G01 X-47.7414 Y39.6812 
G01 X-47.7414 Y41.2396 
G01 X-47.9954 Y41.4935 
G01 X-47.9954 Y42.3264 
G01 X-47.4064 Y42.9154 
G01 X-46.5736 Y42.9154 
G01 X-45.9846 Y42.3264 
G01 X-45.9846 Y41.4935 
G01 X-46.2386 Y41.2396 
G01 X-46.2386 Y39.2960 
G01 X-46.2675 Y39.1508 
G01 X-46.3241 Y39.0141 
G01 X-46.4064 Y38.8910 
G01 X-46.5110 Y38.7863 
G01 X-47.6763 Y37.6210 
G01 X-47.7810 Y37.5164 
G01 X-47.9041 Y37.4341 
G01 X-48.0408 Y37.3775 
G01 X-48.1860 Y37.3486 
G01 X-50.2925 Y37.3486 
G01 X-50.1998 Y37.3014 
G01 X-50.0540 Y37.1954 
G01 X-49.9266 Y37.0680 
G01 X-49.8206 Y36.9222 
G01 X-49.7388 Y36.7616 
G01 X-49.6831 Y36.5901 
G01 X-49.6549 Y36.4121 
G01 X-49.6549 Y36.2319 
G01 X-49.6831 Y36.0539 
G01 X-49.7388 Y35.8824 
G01 X-49.8206 Y35.7218 
G01 X-49.9266 Y35.5760 
G01 X-50.0486 Y35.4540 
G01 X-50.0486 Y29.7540 
G01 X-50.0090 Y29.7936 
G01 X-49.8859 Y29.8759 
G01 X-49.7492 Y29.9325 
G01 X-49.6040 Y29.9614 
G01 X-47.8752 Y29.9614 
G01 X-47.8731 Y29.9643 
G01 X-47.7443 Y30.0931 
G01 X-47.5968 Y30.2002 
G01 X-47.4344 Y30.2830 
G01 X-47.2611 Y30.3393 
G01 X-47.0811 Y30.3678 
G01 X-46.8989 Y30.3678 
G01 X-46.7189 Y30.3393 
G01 X-46.5456 Y30.2830 
G01 X-46.3832 Y30.2002 
G01 X-46.2357 Y30.0931 
G01 X-46.1069 Y29.9643 
G01 X-45.9998 Y29.8168 
G01 X-45.9170 Y29.6544 
G01 X-45.8607 Y29.4811 
G01 X-45.8322 Y29.3011 
G01 X-45.8322 Y29.1189 
G01 X-45.8607 Y28.9389 
G01 X-45.9170 Y28.7656 
G01 X-45.9998 Y28.6032 
G01 X-46.1069 Y28.4557 
G01 X-46.2357 Y28.3269 
G01 X-46.3832 Y28.2198 
G01 X-46.5456 Y28.1370 
G01 X-46.7189 Y28.0807 
G01 X-46.8989 Y28.0522 
G01 X-47.0811 Y28.0522 
G01 X-47.2611 Y28.0807 
G01 X-47.4344 Y28.1370 
G01 X-47.5968 Y28.2198 
G01 X-47.7443 Y28.3269 
G01 X-47.8731 Y28.4557 
G01 X-47.8752 Y28.4586 
G01 X-49.2188 Y28.4586 
G01 X-50.2164 Y27.4610 
G01 X-50.3210 Y27.3564 
G01 X-51.5910 Y26.0863 
G01 X-51.7141 Y26.0041 
G01 X-51.8508 Y25.9475 
G01 X-51.9960 Y25.9186 
G01 X-53.7248 Y25.9186 
G01 X-53.7269 Y25.9157 
G01 X-53.8557 Y25.7869 
G01 X-54.0032 Y25.6798 
G01 X-54.1656 Y25.5970 
G01 X-54.3389 Y25.5407 
G01 X-54.5189 Y25.5122 
G01 X-54.7011 Y25.5122 
G01 X-54.8811 Y25.5407 
G01 X-55.0544 Y25.5970 
G01 X-55.2168 Y25.6798 
G01 X-55.3643 Y25.7869 
G01 X-55.4931 Y25.9157 
G01 X-55.4952 Y25.9186 
G01 X-64.7640 Y25.9186 
G01 X-64.9092 Y25.9475 
G01 X-65.0459 Y26.0041 
G01 X-65.1690 Y26.0863 
G01 X-65.8036 Y26.7210 
G01 X-65.9361 Y26.7000 
G01 X-66.1439 Y26.7000 
G01 X-66.3491 Y26.7325 
G01 X-66.5467 Y26.7967 
G01 X-66.7318 Y26.8910 
G01 X-66.8999 Y27.0132 
G01 X-67.0468 Y27.1601 
G01 X-67.1690 Y27.3282 
G01 X-67.2633 Y27.5133 
G01 X-67.3275 Y27.7109 
G01 X-67.3600 Y27.9161 
G00 Z1.0000  
G00 X-47.9954 Y44.0336 
G01 Z0.0000  F70    
G01 X-47.9954 Y44.8664 F300   
G01 X-47.4064 Y45.4554 
G01 X-46.5736 Y45.4554 
G01 X-46.3196 Y45.2014 
G01 X-43.8504 Y45.2014 
G01 X-43.5964 Y45.4554 
G01 X-42.7636 Y45.4554 
G01 X-42.1746 Y44.8664 
G01 X-42.1746 Y44.0336 
G01 X-42.7636 Y43.4446 
G01 X-43.5964 Y43.4446 
G01 X-43.8504 Y43.6986 
G01 X-46.3196 Y43.6986 
G01 X-46.5736 Y43.4446 
G01 X-47.4064 Y43.4446 
G01 X-47.9954 Y44.0336 
G00 Z1.0000  
G00 X-39.1054 Y44.0336 
G01 Z0.0000  F70    
G01 X-39.1054 Y44.8664 F300   
G01 X-38.5164 Y45.4554 
G01 X-37.6836 Y45.4554 
G01 X-37.4296 Y45.2014 
G01 X-34.9604 Y45.2014 
G01 X-34.7064 Y45.4554 
G01 X-33.8736 Y45.4554 
G01 X-33.2846 Y44.8664 
G01 X-33.2846 Y44.0336 
G01 X-33.8736 Y43.4446 
G01 X-34.7064 Y43.4446 
G01 X-34.9604 Y43.6986 
G01 X-37.4296 Y43.6986 
G01 X-37.6836 Y43.4446 
G01 X-38.5164 Y43.4446 
G01 X-39.1054 Y44.0336 
G00 Z1.0000  
G00 X-36.2098 Y29.6848 
G01 Z0.0000  F70    
G01 X-36.2098 Y30.0672 F300   
G01 X-39.6410 Y33.4984 
G01 X-39.6732 Y33.3363 
G01 X-39.7490 Y33.1534 
G01 X-39.8591 Y32.9887 
G01 X-39.9991 Y32.8487 
G01 X-40.1638 Y32.7386 
G01 X-40.3467 Y32.6628 
G01 X-40.5410 Y32.6242 
G01 X-40.7390 Y32.6242 
G01 X-40.9333 Y32.6628 
G01 X-41.1162 Y32.7386 
G01 X-41.2809 Y32.8487 
G01 X-41.4209 Y32.9887 
G01 X-41.5310 Y33.1534 
G01 X-41.6068 Y33.3363 
G01 X-41.6454 Y33.5306 
G01 X-41.6454 Y35.0494 
G01 X-41.6068 Y35.2437 
G01 X-41.5310 Y35.4266 
G01 X-41.4209 Y35.5913 
G01 X-41.2809 Y35.7313 
G01 X-41.1162 Y35.8414 
G01 X-40.9333 Y35.9172 
G01 X-40.7390 Y35.9558 
G01 X-40.5410 Y35.9558 
G01 X-40.3467 Y35.9172 
G01 X-40.1638 Y35.8414 
G01 X-39.9991 Y35.7313 
G01 X-39.8591 Y35.5913 
G01 X-39.7490 Y35.4266 
G01 X-39.6732 Y35.2437 
G01 X-39.6346 Y35.0494 
G01 X-39.6346 Y35.0414 
G01 X-39.2960 Y35.0414 
G01 X-39.1508 Y35.0125 
G01 X-39.0141 Y34.9559 
G01 X-38.8910 Y34.8736 
G01 X-35.7512 Y31.7338 
G01 X-35.0852 Y32.3998 
G01 X-33.4948 Y32.3998 
G01 X-32.3702 Y31.2752 
G01 X-32.3702 Y29.6848 
G01 X-33.4948 Y28.5602 
G01 X-35.0852 Y28.5602 
G01 X-36.2098 Y29.6848 
G00 Z1.0000  
G00 X-25.9186 Y21.6640 
G01 Z0.0000  F70    
G01 X-25.9186 Y21.5160 F300   
G01 X-25.9475 Y21.3708 
G01 X-26.0041 Y21.2341 
G01 X-26.0863 Y21.1110 
G01 X-26.1910 Y21.0064 
G01 X-26.3141 Y20.9241 
G01 X-26.4508 Y20.8675 
G01 X-26.5960 Y20.8386 
G01 X-69.9240 Y20.8386 
G01 X-70.0692 Y20.8675 
G01 X-70.2059 Y20.9241 
G01 X-70.3290 Y21.0064 
G01 X-70.4336 Y21.1110 
G01 X-70.5159 Y21.2341 
G01 X-70.5725 Y21.3708 
G01 X-70.6014 Y21.5160 
G01 X-70.6014 Y52.1440 
G01 X-70.5725 Y52.2892 
G01 X-70.5159 Y52.4259 
G01 X-70.4336 Y52.5490 
G01 X-70.3290 Y52.6536 
G01 X-70.2059 Y52.7359 
G01 X-70.0692 Y52.7925 
G01 X-69.9240 Y52.8214 
G01 X-26.5960 Y52.8214 
G01 X-26.4508 Y52.7925 
G01 X-26.3141 Y52.7359 
G01 X-26.1910 Y52.6536 
G01 X-26.0863 Y52.5490 
G01 X-26.0041 Y52.4259 
G01 X-25.9475 Y52.2892 
G01 X-25.9186 Y52.1440 
G01 X-25.9186 Y51.9960 
G01 X-25.9186 Y21.6640 
G00 Z1.0000  
G00 X-68.8986 Y22.5414 
G01 Z0.0000  F70    
G01 X-27.6214 Y22.5414 F300   
G01 X-27.6214 Y51.1186 
G01 X-60.9353 Y51.1186 
G01 X-60.8582 Y51.0415 
G01 X-60.7666 Y50.9044 
G01 X-60.7035 Y50.7521 
G01 X-60.6714 Y50.5903 
G01 X-60.6714 Y50.0316 
G01 X-60.5111 Y50.1518 
G01 X-60.3624 Y50.2231 
G01 X-60.2027 Y50.2640 
G01 X-60.0380 Y50.2730 
G01 X-59.8748 Y50.2497 
G01 X-59.7192 Y50.1949 
G01 X-59.5773 Y50.1109 
G01 X-59.5234 Y50.0626 
G01 X-59.5031 Y50.0828 
G01 X-59.3660 Y50.1745 
G01 X-59.2137 Y50.2376 
G01 X-59.0520 Y50.2697 
G01 X-58.1445 Y50.2697 
G01 X-57.9308 Y50.2359 
G01 X-57.7250 Y50.1690 
G01 X-57.5322 Y50.0708 
G01 X-57.3571 Y49.9436 
G01 X-57.2041 Y49.7906 
G01 X-57.1416 Y49.7046 
G01 X-57.0792 Y49.7906 
G01 X-56.9262 Y49.9436 
G01 X-56.7511 Y50.0708 
G01 X-56.5583 Y50.1690 
G01 X-56.3525 Y50.2359 
G01 X-56.1388 Y50.2697 
G01 X-55.2313 Y50.2697 
G01 X-55.0696 Y50.2376 
G01 X-54.9173 Y50.1745 
G01 X-54.7802 Y50.0828 
G01 X-54.6636 Y49.9663 
G01 X-54.5720 Y49.8291 
G01 X-54.5089 Y49.6768 
G01 X-54.4767 Y49.5151 
G01 X-54.4767 Y49.3502 
G01 X-54.5089 Y49.1885 
G01 X-54.5720 Y49.0361 
G01 X-54.6636 Y48.8990 
G01 X-54.7802 Y48.7824 
G01 X-54.9173 Y48.6908 
G01 X-55.0696 Y48.6277 
G01 X-55.2313 Y48.5955 
G01 X-55.7312 Y48.5955 
G01 X-55.7312 Y48.1192 
G01 X-55.2313 Y48.1192 
G01 X-55.0696 Y48.0870 
G01 X-54.9173 Y48.0239 
G01 X-54.7802 Y47.9323 
G01 X-54.6636 Y47.8157 
G01 X-54.5720 Y47.6786 
G01 X-54.5089 Y47.5263 
G01 X-54.4767 Y47.3645 
G01 X-54.4767 Y47.1997 
G01 X-51.4065 Y50.2690 
G01 X-51.2507 Y50.3731 
G01 X-51.0775 Y50.4448 
G01 X-50.8937 Y50.4814 
G01 X-31.6563 Y50.4814 
G01 X-31.4725 Y50.4448 
G01 X-31.2993 Y50.3731 
G01 X-31.1435 Y50.2690 
G01 X-31.0110 Y50.1365 
G01 X-28.6035 Y47.7290 
G01 X-28.4710 Y47.5965 
G01 X-28.3669 Y47.4407 
G01 X-28.2952 Y47.2675 
G01 X-28.2586 Y47.0837 
G01 X-28.2586 Y27.8463 
G01 X-28.2952 Y27.6625 
G01 X-28.3669 Y27.4893 
G01 X-28.4710 Y27.3335 
G01 X-31.1435 Y24.6610 
G01 X-31.2993 Y24.5569 
G01 X-31.4725 Y24.4852 
G01 X-31.6563 Y24.4486 
G01 X-32.2435 Y24.4486 
G01 X-33.4120 Y23.2802 
G01 X-35.1680 Y23.2802 
G01 X-36.3364 Y24.4486 
G01 X-41.5210 Y24.4486 
G01 X-41.5665 Y24.4031 
G01 X-41.7330 Y24.2822 
G01 X-41.9163 Y24.1888 
G01 X-42.1119 Y24.1252 
G01 X-42.3151 Y24.0930 
G01 X-44.0449 Y24.0930 
G01 X-44.2481 Y24.1252 
G01 X-44.3471 Y24.1574 
G01 X-44.9810 Y23.5235 
G01 X-45.1135 Y23.3910 
G01 X-45.2693 Y23.2869 
G01 X-45.4425 Y23.2152 
G01 X-45.6263 Y23.1786 
G01 X-46.0212 Y23.1786 
G01 X-46.1055 Y23.0943 
G01 X-46.2784 Y22.9687 
G01 X-46.4688 Y22.8717 
G01 X-46.6720 Y22.8056 
G01 X-46.8831 Y22.7722 
G01 X-47.0969 Y22.7722 
G01 X-47.3080 Y22.8056 
G01 X-47.5112 Y22.8717 
G01 X-47.7016 Y22.9687 
G01 X-47.8745 Y23.0943 
G01 X-48.0257 Y23.2455 
G01 X-48.1513 Y23.4184 
G01 X-48.2483 Y23.6088 
G01 X-48.3144 Y23.8120 
G01 X-48.3478 Y24.0231 
G01 X-48.3478 Y24.2369 
G01 X-48.3144 Y24.4480 
G01 X-48.2483 Y24.6512 
G01 X-48.1513 Y24.8416 
G01 X-48.0257 Y25.0145 
G01 X-47.8745 Y25.1657 
G01 X-47.7016 Y25.2913 
G01 X-47.5112 Y25.3883 
G01 X-47.4753 Y25.4000 
G01 X-47.5112 Y25.4117 
G01 X-47.7016 Y25.5087 
G01 X-47.8745 Y25.6343 
G01 X-48.0257 Y25.7855 
G01 X-48.1513 Y25.9584 
G01 X-48.2483 Y26.1488 
G01 X-48.3144 Y26.3520 
G01 X-48.3478 Y26.5631 
G01 X-48.3478 Y26.7769 
G01 X-48.3144 Y26.9880 
G01 X-48.2483 Y27.1912 
G01 X-48.1513 Y27.3816 
G01 X-48.0257 Y27.5545 
G01 X-47.8745 Y27.7057 
G01 X-47.7016 Y27.8313 
G01 X-47.5112 Y27.9283 
G01 X-47.4753 Y27.9400 
G01 X-47.5112 Y27.9517 
G01 X-47.7016 Y28.0487 
G01 X-47.8745 Y28.1743 
G01 X-47.9588 Y28.2586 
G01 X-49.1359 Y28.2586 
G01 X-50.0610 Y27.3335 
G01 X-50.1935 Y27.2010 
G01 X-51.4635 Y25.9310 
G01 X-51.6193 Y25.8269 
G01 X-51.7925 Y25.7552 
G01 X-51.9763 Y25.7186 
G01 X-53.6412 Y25.7186 
G01 X-53.7255 Y25.6343 
G01 X-53.8984 Y25.5087 
G01 X-54.0888 Y25.4117 
G01 X-54.1247 Y25.4000 
G01 X-54.0888 Y25.3883 
G01 X-53.8984 Y25.2913 
G01 X-53.7255 Y25.1657 
G01 X-53.5743 Y25.0145 
G01 X-53.4487 Y24.8416 
G01 X-53.3517 Y24.6512 
G01 X-53.2856 Y24.4480 
G01 X-53.2522 Y24.2369 
G01 X-53.2522 Y24.0231 
G01 X-53.2856 Y23.8120 
G01 X-53.3517 Y23.6088 
G01 X-53.4487 Y23.4184 
G01 X-53.5743 Y23.2455 
G01 X-53.7255 Y23.0943 
G01 X-53.8984 Y22.9687 
G01 X-54.0888 Y22.8717 
G01 X-54.2920 Y22.8056 
G01 X-54.5031 Y22.7722 
G01 X-54.7169 Y22.7722 
G01 X-54.9280 Y22.8056 
G01 X-55.1312 Y22.8717 
G01 X-55.3216 Y22.9687 
G01 X-55.4945 Y23.0943 
G01 X-55.6457 Y23.2455 
G01 X-55.7713 Y23.4184 
G01 X-55.8683 Y23.6088 
G01 X-55.9344 Y23.8120 
G01 X-55.9678 Y24.0231 
G01 X-55.9678 Y24.2369 
G01 X-55.9344 Y24.4480 
G01 X-55.8683 Y24.6512 
G01 X-55.7713 Y24.8416 
G01 X-55.6457 Y25.0145 
G01 X-55.4945 Y25.1657 
G01 X-55.3216 Y25.2913 
G01 X-55.1312 Y25.3883 
G01 X-55.0953 Y25.4000 
G01 X-55.1312 Y25.4117 
G01 X-55.3216 Y25.5087 
G01 X-55.4945 Y25.6343 
G01 X-55.5788 Y25.7186 
G01 X-64.7837 Y25.7186 
G01 X-64.9675 Y25.7552 
G01 X-65.1407 Y25.8269 
G01 X-65.2965 Y25.9310 
G01 X-65.8730 Y26.5075 
G01 X-65.9204 Y26.5000 
G01 X-66.1596 Y26.5000 
G01 X-66.3959 Y26.5374 
G01 X-66.6235 Y26.6114 
G01 X-66.8367 Y26.7200 
G01 X-67.0302 Y26.8606 
G01 X-67.1994 Y27.0298 
G01 X-67.3400 Y27.2233 
G01 X-67.4486 Y27.4365 
G01 X-67.5226 Y27.6641 
G01 X-67.5600 Y27.9004 
G01 X-67.5600 Y28.1396 
G01 X-67.5226 Y28.3759 
G01 X-67.4486 Y28.6035 
G01 X-67.3400 Y28.8167 
G01 X-67.1994 Y29.0102 
G01 X-67.0302 Y29.1794 
G01 X-66.8367 Y29.3200 
G01 X-66.6235 Y29.4286 
G01 X-66.3959 Y29.5026 
G01 X-66.1596 Y29.5400 
G01 X-65.9204 Y29.5400 
G01 X-65.6841 Y29.5026 
G01 X-65.4565 Y29.4286 
G01 X-65.2433 Y29.3200 
G01 X-65.0498 Y29.1794 
G01 X-64.8806 Y29.0102 
G01 X-64.7400 Y28.8167 
G01 X-64.6314 Y28.6035 
G01 X-64.5574 Y28.3759 
G01 X-64.5200 Y28.1396 
G01 X-64.5200 Y27.9004 
G01 X-64.5275 Y27.8530 
G01 X-64.2959 Y27.6214 
G01 X-55.5788 Y27.6214 
G01 X-55.4945 Y27.7057 
G01 X-55.3216 Y27.8313 
G01 X-55.1312 Y27.9283 
G01 X-55.0953 Y27.9400 
G01 X-55.1312 Y27.9517 
G01 X-55.3216 Y28.0487 
G01 X-55.4945 Y28.1743 
G01 X-55.5788 Y28.2586 
G01 X-62.3237 Y28.2586 
G01 X-62.5075 Y28.2952 
G01 X-62.6807 Y28.3669 
G01 X-62.8365 Y28.4710 
G01 X-65.8730 Y31.5075 
G01 X-65.9204 Y31.5000 
G01 X-66.1596 Y31.5000 
G01 X-66.3959 Y31.5374 
G01 X-66.6235 Y31.6114 
G01 X-66.8367 Y31.7200 
G01 X-67.0302 Y31.8606 
G01 X-67.1994 Y32.0298 
G01 X-67.3400 Y32.2233 
G01 X-67.4486 Y32.4365 
G01 X-67.5226 Y32.6641 
G01 X-67.5600 Y32.9004 
G01 X-67.5600 Y33.1396 
G01 X-67.5226 Y33.3759 
G01 X-67.4486 Y33.6035 
G01 X-67.3400 Y33.8167 
G01 X-67.1994 Y34.0102 
G01 X-67.0302 Y34.1794 
G01 X-66.9914 Y34.2076 
G01 X-66.9914 Y36.8324 
G01 X-67.0302 Y36.8606 
G01 X-67.1994 Y37.0298 
G01 X-67.3400 Y37.2233 
G01 X-67.4486 Y37.4365 
G01 X-67.5226 Y37.6641 
G01 X-67.5600 Y37.9004 
G01 X-67.5600 Y38.1396 
G01 X-67.5226 Y38.3759 
G01 X-67.4486 Y38.6035 
G01 X-67.3400 Y38.8167 
G01 X-67.1994 Y39.0102 
G01 X-67.0302 Y39.1794 
G01 X-66.9914 Y39.2076 
G01 X-66.9914 Y43.2737 
G01 X-66.9548 Y43.4575 
G01 X-66.8831 Y43.6307 
G01 X-66.7790 Y43.7865 
G01 X-66.6465 Y43.9190 
G01 X-65.3765 Y45.1890 
G01 X-65.2207 Y45.2931 
G01 X-65.0475 Y45.3648 
G01 X-64.8637 Y45.4014 
G01 X-57.9033 Y45.4014 
G01 X-57.6493 Y45.6554 
G01 X-56.6507 Y45.6554 
G01 X-55.9446 Y44.9493 
G01 X-55.9446 Y43.9507 
G01 X-56.6507 Y43.2446 
G01 X-57.6493 Y43.2446 
G01 X-57.9033 Y43.4986 
G01 X-60.4247 Y43.4986 
G01 X-60.2389 Y43.4011 
G01 X-60.0128 Y43.2450 
G01 X-59.8072 Y43.0628 
G01 X-59.6250 Y42.8572 
G01 X-59.4689 Y42.6311 
G01 X-59.3413 Y42.3879 
G01 X-59.2439 Y42.1310 
G01 X-59.1781 Y41.8643 
G01 X-59.1450 Y41.5916 
G01 X-59.1450 Y41.3718 
G01 X-59.1772 Y41.2100 
G01 X-59.2403 Y41.0577 
G01 X-59.3319 Y40.9206 
G01 X-59.4485 Y40.8040 
G01 X-59.5408 Y40.7423 
G01 X-59.4485 Y40.6806 
G01 X-59.3319 Y40.5640 
G01 X-59.2403 Y40.4269 
G01 X-59.1772 Y40.2746 
G01 X-59.1450 Y40.1129 
G01 X-59.1450 Y38.1558 
G01 X-59.1772 Y37.9941 
G01 X-59.2403 Y37.8418 
G01 X-59.3319 Y37.7047 
G01 X-59.4485 Y37.5881 
G01 X-59.5856 Y37.4965 
G01 X-59.7049 Y37.4471 
G01 X-59.6553 Y37.4101 
G01 X-59.4922 Y37.2436 
G01 X-59.3567 Y37.0540 
G01 X-59.2521 Y36.8456 
G01 X-59.1810 Y36.6237 
G01 X-59.1450 Y36.3934 
G01 X-59.1450 Y36.1603 
G01 X-59.1810 Y35.9300 
G01 X-59.2521 Y35.7080 
G01 X-59.3567 Y35.4997 
G01 X-59.4922 Y35.3101 
G01 X-59.6553 Y35.1436 
G01 X-59.7049 Y35.1067 
G01 X-59.5856 Y35.0572 
G01 X-59.4485 Y34.9656 
G01 X-59.3319 Y34.8490 
G01 X-59.2403 Y34.7119 
G01 X-59.1772 Y34.5596 
G01 X-59.1450 Y34.3979 
G01 X-59.1450 Y32.5572 
G01 X-59.1411 Y32.5088 
G01 X-59.1450 Y32.4749 
G01 X-59.1450 Y32.4409 
G01 X-59.1545 Y32.3932 
G01 X-59.1601 Y32.3450 
G01 X-59.1705 Y32.3125 
G01 X-59.1772 Y32.2791 
G01 X-59.1958 Y32.2343 
G01 X-59.2107 Y32.1880 
G01 X-59.2272 Y32.1583 
G01 X-59.2403 Y32.1268 
G01 X-59.2673 Y32.0864 
G01 X-59.2909 Y32.0440 
G01 X-59.3129 Y32.0180 
G01 X-59.3319 Y31.9897 
G01 X-59.3662 Y31.9553 
G01 X-59.3977 Y31.9183 
G01 X-59.4244 Y31.8972 
G01 X-59.4485 Y31.8731 
G01 X-59.4889 Y31.8461 
G01 X-59.5269 Y31.8159 
G01 X-59.5573 Y31.8004 
G01 X-59.5856 Y31.7815 
G01 X-59.6304 Y31.7629 
G01 X-59.6737 Y31.7407 
G01 X-59.7065 Y31.7314 
G01 X-59.7379 Y31.7184 
G01 X-59.7856 Y31.7089 
G01 X-59.8323 Y31.6956 
G01 X-59.8662 Y31.6928 
G01 X-59.8997 Y31.6862 
G01 X-59.9482 Y31.6862 
G01 X-59.9966 Y31.6823 
G01 X-60.0305 Y31.6862 
G01 X-60.0645 Y31.6862 
G01 X-60.1122 Y31.6957 
G01 X-60.1604 Y31.7013 
G01 X-60.1928 Y31.7117 
G01 X-60.2263 Y31.7184 
G01 X-60.2711 Y31.7370 
G01 X-60.3174 Y31.7519 
G01 X-60.3471 Y31.7684 
G01 X-60.3786 Y31.7815 
G01 X-60.4190 Y31.8085 
G01 X-60.4614 Y31.8321 
G01 X-60.4874 Y31.8541 
G01 X-60.5157 Y31.8731 
G01 X-60.5501 Y31.9074 
G01 X-61.7632 Y32.9386 
G01 X-61.7081 Y32.8306 
G01 X-61.6631 Y32.6720 
G01 X-61.6501 Y32.5076 
G01 X-61.6693 Y32.3438 
G01 X-61.7201 Y32.1869 
G01 X-61.8005 Y32.0430 
G01 X-61.9075 Y31.9175 
G01 X-62.0369 Y31.8153 
G01 X-62.1837 Y31.7403 
G01 X-62.3424 Y31.6954 
G01 X-62.5068 Y31.6823 
G01 X-62.6705 Y31.7015 
G01 X-62.7490 Y31.7269 
G01 X-62.8737 Y31.7673 
G01 X-63.1094 Y31.8820 
G01 X-63.3269 Y32.0285 
G01 X-63.5218 Y32.2038 
G01 X-63.6904 Y32.4045 
G01 X-63.8295 Y32.6268 
G01 X-63.9362 Y32.8663 
G01 X-64.0085 Y33.1183 
G01 X-64.0450 Y33.3779 
G01 X-64.0450 Y33.6265 
G01 X-64.0115 Y33.8592 
G01 X-63.9453 Y34.0848 
G01 X-63.8476 Y34.2986 
G01 X-63.7205 Y34.4964 
G01 X-63.5666 Y34.6741 
G01 X-63.3889 Y34.8280 
G01 X-63.2197 Y34.9368 
G01 X-63.3478 Y35.0043 
G01 X-63.5347 Y35.1436 
G01 X-63.6978 Y35.3101 
G01 X-63.8333 Y35.4997 
G01 X-63.9379 Y35.7080 
G01 X-64.0090 Y35.9300 
G01 X-64.0450 Y36.1603 
G01 X-64.0450 Y36.3934 
G01 X-64.0090 Y36.6237 
G01 X-63.9379 Y36.8457 
G01 X-63.8333 Y37.0540 
G01 X-63.6978 Y37.2436 
G01 X-63.5347 Y37.4101 
G01 X-63.3478 Y37.5494 
G01 X-63.1416 Y37.6581 
G01 X-63.1081 Y37.6696 
G01 X-63.8326 Y38.5752 
G01 X-63.8581 Y38.6007 
G01 X-63.8840 Y38.6394 
G01 X-63.9131 Y38.6758 
G01 X-63.9297 Y38.7078 
G01 X-63.9497 Y38.7378 
G01 X-63.9675 Y38.7808 
G01 X-63.9890 Y38.8222 
G01 X-63.9990 Y38.8568 
G01 X-64.0128 Y38.8902 
G01 X-64.0219 Y38.9358 
G01 X-64.0349 Y38.9806 
G01 X-64.0380 Y39.0165 
G01 X-64.0450 Y39.0519 
G01 X-64.0450 Y39.0985 
G01 X-64.0490 Y39.1448 
G01 X-64.0450 Y39.1807 
G01 X-64.0450 Y39.2168 
G01 X-64.0359 Y39.2625 
G01 X-64.0308 Y39.3087 
G01 X-64.0199 Y39.3431 
G01 X-64.0128 Y39.3785 
G01 X-63.9950 Y39.4215 
G01 X-63.9809 Y39.4659 
G01 X-63.9635 Y39.4975 
G01 X-63.9497 Y39.5309 
G01 X-63.9239 Y39.5696 
G01 X-63.9014 Y39.6104 
G01 X-63.8782 Y39.6380 
G01 X-63.8581 Y39.6680 
G01 X-63.8252 Y39.7009 
G01 X-63.7952 Y39.7365 
G01 X-63.7670 Y39.7590 
G01 X-63.7415 Y39.7846 
G01 X-63.7028 Y39.8104 
G01 X-63.6665 Y39.8395 
G01 X-63.6344 Y39.8561 
G01 X-63.6044 Y39.8762 
G01 X-63.5614 Y39.8940 
G01 X-63.5201 Y39.9154 
G01 X-63.4854 Y39.9255 
G01 X-63.4521 Y39.9393 
G01 X-63.4064 Y39.9484 
G01 X-63.3617 Y39.9613 
G01 X-63.3257 Y39.9644 
G01 X-63.2903 Y39.9714 
G01 X-63.2438 Y39.9714 
G01 X-63.1974 Y39.9754 
G01 X-63.1615 Y39.9714 
G01 X-60.8192 Y39.9714 
G01 X-60.8192 Y40.1129 
G01 X-60.7870 Y40.2746 
G01 X-60.7239 Y40.4269 
G01 X-60.6323 Y40.5640 
G01 X-60.5157 Y40.6806 
G01 X-60.4234 Y40.7423 
G01 X-60.5157 Y40.8040 
G01 X-60.6323 Y40.9206 
G01 X-60.7239 Y41.0577 
G01 X-60.7454 Y41.1095 
G01 X-60.7653 Y41.0660 
G01 X-60.8855 Y40.8790 
G01 X-61.0310 Y40.7110 
G01 X-61.1990 Y40.5655 
G01 X-61.3860 Y40.4453 
G01 X-61.5882 Y40.3529 
G01 X-61.8015 Y40.2903 
G01 X-62.0215 Y40.2587 
G01 X-62.4358 Y40.2587 
G01 X-62.6812 Y40.2940 
G01 X-62.9191 Y40.3638 
G01 X-63.1446 Y40.4668 
G01 X-63.3531 Y40.6008 
G01 X-63.5405 Y40.7632 
G01 X-63.7028 Y40.9505 
G01 X-63.8369 Y41.1591 
G01 X-63.9399 Y41.3846 
G01 X-64.0097 Y41.6225 
G01 X-64.0450 Y41.8679 
G01 X-64.0450 Y42.1158 
G01 X-64.0097 Y42.3612 
G01 X-63.9399 Y42.5991 
G01 X-63.8369 Y42.8246 
G01 X-63.7028 Y43.0331 
G01 X-63.5405 Y43.2205 
G01 X-63.3531 Y43.3828 
G01 X-63.1730 Y43.4986 
G01 X-64.3759 Y43.4986 
G01 X-65.0886 Y42.7859 
G01 X-65.0886 Y39.2076 
G01 X-65.0498 Y39.1794 
G01 X-64.8806 Y39.0102 
G01 X-64.7400 Y38.8167 
G01 X-64.6314 Y38.6035 
G01 X-64.5574 Y38.3759 
G01 X-64.5200 Y38.1396 
G01 X-64.5200 Y37.9004 
G01 X-64.5574 Y37.6641 
G01 X-64.6314 Y37.4365 
G01 X-64.7400 Y37.2233 
G01 X-64.8806 Y37.0298 
G01 X-65.0498 Y36.8606 
G01 X-65.0886 Y36.8324 
G01 X-65.0886 Y34.2076 
G01 X-65.0498 Y34.1794 
G01 X-64.8806 Y34.0102 
G01 X-64.7400 Y33.8167 
G01 X-64.6314 Y33.6035 
G01 X-64.5574 Y33.3759 
G01 X-64.5200 Y33.1396 
G01 X-64.5200 Y32.9004 
G01 X-64.5275 Y32.8530 
G01 X-61.8359 Y30.1614 
G01 X-55.5788 Y30.1614 
G01 X-55.4945 Y30.2457 
G01 X-55.3216 Y30.3713 
G01 X-55.1312 Y30.4683 
G01 X-55.0953 Y30.4800 
G01 X-55.1312 Y30.4917 
G01 X-55.3216 Y30.5887 
G01 X-55.4945 Y30.7143 
G01 X-55.6457 Y30.8655 
G01 X-55.7713 Y31.0384 
G01 X-55.8683 Y31.2288 
G01 X-55.9344 Y31.4320 
G01 X-55.9678 Y31.6431 
G01 X-55.9678 Y31.8569 
G01 X-55.9344 Y32.0680 
G01 X-55.8683 Y32.2712 
G01 X-55.7713 Y32.4616 
G01 X-55.6457 Y32.6345 
G01 X-55.5614 Y32.7188 
G01 X-55.5614 Y33.3386 
G01 X-56.3967 Y33.3386 
G01 X-56.6507 Y33.0846 
G01 X-57.6493 Y33.0846 
G01 X-58.3554 Y33.7907 
G01 X-58.3554 Y34.7893 
G01 X-57.6493 Y35.4954 
G01 X-56.6507 Y35.4954 
G01 X-56.3967 Y35.2414 
G01 X-55.5614 Y35.2414 
G01 X-55.5614 Y45.8137 
G01 X-55.5248 Y45.9975 
G01 X-55.4531 Y46.1707 
G01 X-55.3490 Y46.3265 
G01 X-55.2303 Y46.4452 
G01 X-56.1388 Y46.4450 
G01 X-56.3525 Y46.4789 
G01 X-56.5583 Y46.5457 
G01 X-56.7511 Y46.6440 
G01 X-56.9262 Y46.7711 
G01 X-57.0002 Y46.8452 
G01 X-57.0648 Y46.7485 
G01 X-57.1814 Y46.6319 
G01 X-57.3185 Y46.5403 
G01 X-57.4709 Y46.4772 
G01 X-57.6326 Y46.4450 
G01 X-58.6367 Y46.4450 
G01 X-58.8644 Y46.4811 
G01 X-59.0836 Y46.5523 
G01 X-59.2890 Y46.6569 
G01 X-59.4242 Y46.7552 
G01 X-59.4824 Y46.6850 
G01 X-59.6102 Y46.5809 
G01 X-59.7560 Y46.5037 
G01 X-59.9140 Y46.4565 
G01 X-60.0781 Y46.4410 
G01 X-60.2422 Y46.4578 
G01 X-60.3998 Y46.5063 
G01 X-60.5449 Y46.5846 
G01 X-60.6719 Y46.6897 
G01 X-60.7760 Y46.8176 
G01 X-60.7920 Y46.8477 
G01 X-60.8582 Y46.7485 
G01 X-60.9748 Y46.6319 
G01 X-61.1119 Y46.5403 
G01 X-61.2643 Y46.4772 
G01 X-61.4260 Y46.4450 
G01 X-61.5909 Y46.4450 
G01 X-61.7526 Y46.4772 
G01 X-61.9050 Y46.5403 
G01 X-62.0421 Y46.6319 
G01 X-62.1101 Y46.6999 
G01 X-62.1780 Y46.6319 
G01 X-62.3152 Y46.5403 
G01 X-62.4675 Y46.4772 
G01 X-62.6292 Y46.4450 
G01 X-62.7941 Y46.4450 
G01 X-62.9558 Y46.4772 
G01 X-63.1082 Y46.5403 
G01 X-63.1936 Y46.5973 
G01 X-63.2789 Y46.5403 
G01 X-63.4313 Y46.4772 
G01 X-63.5930 Y46.4450 
G01 X-63.7836 Y46.4450 
G01 X-63.9974 Y46.4789 
G01 X-64.2032 Y46.5457 
G01 X-64.3960 Y46.6440 
G01 X-64.5710 Y46.7711 
G01 X-64.7240 Y46.9242 
G01 X-64.8112 Y47.0441 
G01 X-64.8932 Y46.9495 
G01 X-65.0806 Y46.7871 
G01 X-65.2891 Y46.6531 
G01 X-65.5146 Y46.5501 
G01 X-65.7525 Y46.4803 
G01 X-65.9979 Y46.4450 
G01 X-66.2043 Y46.4450 
G01 X-67.1003 Y46.4450 
G01 X-67.2621 Y46.4772 
G01 X-67.4144 Y46.5403 
G01 X-67.5515 Y46.6319 
G01 X-67.6681 Y46.7485 
G01 X-67.7597 Y46.8856 
G01 X-67.8228 Y47.0379 
G01 X-67.8550 Y47.1997 
G01 X-67.8550 Y50.5903 
G01 X-67.8228 Y50.7521 
G01 X-67.7597 Y50.9044 
G01 X-67.6681 Y51.0415 
G01 X-67.5910 Y51.1186 
G01 X-68.8986 Y51.1186 
G01 X-68.8986 Y22.5414 
G00 Z1.0000  
G00 X-65.1503 Y51.0094 
G01 Z0.0000  F70    
G01 X-65.1503 Y51.0094 F300   
G01 X-64.9795 Y50.8510 
G01 X-64.9549 Y50.9044 
G01 X-64.8633 Y51.0415 
G01 X-64.7862 Y51.1186 
G01 X-65.3105 Y51.1186 
G01 X-65.1503 Y51.0094 
G00 Z1.0000  
G00 X-63.5629 Y51.0415 
G01 Z0.0000  F70    
G01 X-63.5072 Y50.9582 F300   
G01 X-63.4515 Y51.0415 
G01 X-63.3744 Y51.1186 
G01 X-63.6400 Y51.1186 
G01 X-63.5629 Y51.0415 
G00 Z1.0000  
G00 X-40.9564 Y30.0859 
G01 Z0.0000  F70    
G01 X-41.1297 Y30.2592 F300   
G01 X-41.1432 Y30.1739 
G01 X-41.2068 Y29.9783 
G01 X-41.3002 Y29.7950 
G01 X-41.4211 Y29.6285 
G01 X-41.5665 Y29.4831 
G01 X-41.7330 Y29.3622 
G01 X-41.9163 Y29.2688 
G01 X-42.0971 Y29.2100 
G01 X-41.9163 Y29.1512 
G01 X-41.7330 Y29.0578 
G01 X-41.5665 Y28.9369 
G01 X-41.5210 Y28.8914 
G01 X-41.0341 Y28.8914 
G01 X-40.9564 Y28.9691 
G01 X-40.9564 Y30.0859 
G00 Z1.0000  
G00 X-36.4098 Y29.6020 
G01 Z0.0000  F70    
G01 X-36.4098 Y29.9843 F300   
G01 X-39.5464 Y33.1209 
G01 X-39.6091 Y32.9978 
G01 X-39.7206 Y32.8443 
G01 X-39.8547 Y32.7102 
G01 X-40.0082 Y32.5986 
G01 X-40.1773 Y32.5125 
G01 X-40.3577 Y32.4539 
G01 X-40.5451 Y32.4242 
G01 X-40.6037 Y32.4242 
G01 X-39.3985 Y31.2190 
G01 X-39.2660 Y31.0865 
G01 X-39.1619 Y30.9307 
G01 X-39.0902 Y30.7575 
G01 X-39.0536 Y30.5737 
G01 X-39.0536 Y28.4813 
G01 X-39.0902 Y28.2975 
G01 X-39.1619 Y28.1243 
G01 X-39.2660 Y27.9685 
G01 X-39.9010 Y27.3335 
G01 X-40.0335 Y27.2010 
G01 X-40.1893 Y27.0969 
G01 X-40.3625 Y27.0252 
G01 X-40.5463 Y26.9886 
G01 X-41.5210 Y26.9886 
G01 X-41.5665 Y26.9431 
G01 X-41.7330 Y26.8222 
G01 X-41.9163 Y26.7288 
G01 X-42.0971 Y26.6700 
G01 X-41.9163 Y26.6112 
G01 X-41.7330 Y26.5178 
G01 X-41.5665 Y26.3969 
G01 X-41.5210 Y26.3514 
G01 X-36.3364 Y26.3514 
G01 X-35.1680 Y27.5198 
G01 X-33.4120 Y27.5198 
G01 X-32.2435 Y26.3514 
G01 X-32.1441 Y26.3514 
G01 X-30.1614 Y28.3341 
G01 X-30.1614 Y46.5959 
G01 X-32.1441 Y48.5786 
G01 X-50.4059 Y48.5786 
G01 X-53.6586 Y45.3259 
G01 X-53.6586 Y39.0514 
G01 X-51.8757 Y39.0514 
G01 X-52.1451 Y39.3208 
G01 X-52.1451 Y40.4352 
G01 X-51.7514 Y40.8289 
G01 X-51.7514 Y44.5437 
G01 X-51.7148 Y44.7275 
G01 X-51.6431 Y44.9007 
G01 X-51.5390 Y45.0565 
G01 X-48.8665 Y47.7290 
G01 X-48.7107 Y47.8331 
G01 X-48.5375 Y47.9048 
G01 X-48.3537 Y47.9414 
G01 X-32.9263 Y47.9414 
G01 X-32.7425 Y47.9048 
G01 X-32.5693 Y47.8331 
G01 X-32.4135 Y47.7290 
G01 X-32.2810 Y47.5965 
G01 X-31.1435 Y46.4590 
G01 X-31.0110 Y46.3265 
G01 X-30.9069 Y46.1707 
G01 X-30.8352 Y45.9975 
G01 X-30.7986 Y45.8137 
G01 X-30.7986 Y36.7363 
G01 X-30.8352 Y36.5525 
G01 X-30.9069 Y36.3793 
G01 X-31.0110 Y36.2235 
G01 X-31.1435 Y36.0910 
G01 X-33.0846 Y34.1499 
G01 X-33.0846 Y33.7907 
G01 X-33.7907 Y33.0846 
G01 X-34.7893 Y33.0846 
G01 X-35.4954 Y33.7907 
G01 X-35.4954 Y34.7893 
G01 X-34.7893 Y35.4954 
G01 X-34.4301 Y35.4954 
G01 X-32.7014 Y37.2241 
G01 X-32.7014 Y45.3259 
G01 X-33.4141 Y46.0386 
G01 X-39.6886 Y46.0386 
G01 X-39.6886 Y45.8517 
G01 X-39.6091 Y45.7422 
G01 X-39.5229 Y45.5731 
G01 X-39.4643 Y45.3927 
G01 X-39.4346 Y45.2053 
G01 X-39.4346 Y43.6947 
G01 X-39.4643 Y43.5073 
G01 X-39.5229 Y43.3269 
G01 X-39.6091 Y43.1578 
G01 X-39.6886 Y43.0483 
G01 X-39.6886 Y41.8163 
G01 X-39.7252 Y41.6325 
G01 X-39.7969 Y41.4593 
G01 X-39.9010 Y41.3035 
G01 X-46.0386 Y35.1659 
G01 X-46.0386 Y32.7188 
G01 X-46.0212 Y32.7014 
G01 X-44.3563 Y32.7014 
G01 X-44.1725 Y32.6648 
G01 X-43.9993 Y32.5931 
G01 X-43.8435 Y32.4890 
G01 X-43.7110 Y32.3565 
G01 X-43.1415 Y31.7870 
G01 X-42.6575 Y31.7870 
G01 X-43.9190 Y33.0485 
G01 X-44.0231 Y33.2043 
G01 X-44.0948 Y33.3775 
G01 X-44.1253 Y33.5306 
G01 X-44.3854 Y33.7907 
G01 X-44.3854 Y34.7893 
G01 X-44.1314 Y35.0433 
G01 X-44.1314 Y35.6537 
G01 X-44.0948 Y35.8375 
G01 X-44.0231 Y36.0107 
G01 X-43.9190 Y36.1665 
G01 X-39.0514 Y41.0341 
G01 X-39.0514 Y41.1567 
G01 X-39.3054 Y41.4107 
G01 X-39.3054 Y42.4093 
G01 X-38.5993 Y43.1154 
G01 X-37.6007 Y43.1154 
G01 X-36.8946 Y42.4093 
G01 X-36.8946 Y41.4107 
G01 X-37.1486 Y41.1567 
G01 X-37.1486 Y40.5463 
G01 X-37.1852 Y40.3625 
G01 X-37.2569 Y40.1893 
G01 X-37.3610 Y40.0335 
G01 X-37.4935 Y39.9010 
G01 X-42.2286 Y35.1659 
G01 X-42.2286 Y35.0433 
G01 X-41.9746 Y34.7893 
G01 X-41.9746 Y33.7951 
G01 X-41.8454 Y33.6659 
G01 X-41.8454 Y35.0453 
G01 X-41.8157 Y35.2327 
G01 X-41.7571 Y35.4131 
G01 X-41.6709 Y35.5822 
G01 X-41.5594 Y35.7357 
G01 X-41.4253 Y35.8698 
G01 X-41.2718 Y35.9813 
G01 X-41.1027 Y36.0675 
G01 X-40.9223 Y36.1261 
G01 X-40.7349 Y36.1558 
G01 X-40.5451 Y36.1558 
G01 X-40.3577 Y36.1261 
G01 X-40.1773 Y36.0675 
G01 X-40.0082 Y35.9813 
G01 X-39.8547 Y35.8698 
G01 X-39.7206 Y35.7357 
G01 X-39.6091 Y35.5822 
G01 X-39.5229 Y35.4131 
G01 X-39.4671 Y35.2414 
G01 X-39.2763 Y35.2414 
G01 X-39.0925 Y35.2048 
G01 X-38.9193 Y35.1331 
G01 X-38.7635 Y35.0290 
G01 X-35.7512 Y32.0167 
G01 X-35.1680 Y32.5998 
G01 X-33.4120 Y32.5998 
G01 X-32.1702 Y31.3580 
G01 X-32.1702 Y29.6020 
G01 X-33.4120 Y28.3602 
G01 X-35.1680 Y28.3602 
G01 X-36.4098 Y29.6020 
G00 Z1.0000  
G00 X-39.3054 Y43.9507 
G01 Z0.0000  F70    
G01 X-39.3054 Y44.9493 F300   
G01 X-38.5993 Y45.6554 
G01 X-37.6007 Y45.6554 
G01 X-37.3467 Y45.4014 
G01 X-35.0433 Y45.4014 
G01 X-34.7893 Y45.6554 
G01 X-33.7907 Y45.6554 
G01 X-33.0846 Y44.9493 
G01 X-33.0846 Y43.9507 
G01 X-33.7907 Y43.2446 
G01 X-34.7893 Y43.2446 
G01 X-35.0433 Y43.4986 
G01 X-37.3467 Y43.4986 
G01 X-37.6007 Y43.2446 
G01 X-38.5993 Y43.2446 
G01 X-39.3054 Y43.9507 
G00 Z1.0000  
G00 X-62.3161 Y42.0506 
G01 Z0.0000  F70    
G01 X-62.3244 Y42.0495 F300   
G01 X-62.3324 Y42.0471 
G01 X-62.3401 Y42.0436 
G01 X-62.3472 Y42.0390 
G01 X-62.3535 Y42.0335 
G01 X-62.3590 Y42.0272 
G01 X-62.3636 Y42.0201 
G01 X-62.3671 Y42.0124 
G01 X-62.3695 Y42.0044 
G01 X-62.3706 Y41.9960 
G01 X-62.3706 Y41.9876 
G01 X-62.3695 Y41.9793 
G01 X-62.3671 Y41.9712 
G01 X-62.3636 Y41.9636 
G01 X-62.3590 Y41.9565 
G01 X-62.3535 Y41.9502 
G01 X-62.3472 Y41.9446 
G01 X-62.3401 Y41.9401 
G01 X-62.3324 Y41.9366 
G01 X-62.3244 Y41.9342 
G01 X-62.3160 Y41.9330 
G01 X-62.3118 Y41.9329 
G01 X-62.2529 Y41.9329 
G01 X-62.2529 Y42.0508 
G01 X-62.3118 Y42.0508 
G01 X-62.3161 Y42.0506 
G00 Z1.0000  
G00 X-62.3235 Y33.4096 
G01 Z0.0000  F70    
G01 X-62.3500 Y33.4373 F300   
G01 X-62.3603 Y33.4461 
G01 X-62.3588 Y33.4409 
G01 X-62.3475 Y33.4155 
G01 X-62.3327 Y33.3919 
G01 X-62.3149 Y33.3707 
G01 X-62.2942 Y33.3521 
G01 X-62.2712 Y33.3366 
G01 X-62.2462 Y33.3244 
G01 X-62.2331 Y33.3197 
G01 X-62.1982 Y33.3084 
G01 X-62.2873 Y33.3841 
G01 X-62.3235 Y33.4096 
G00 Z1.0000  
G00 X-61.6559 Y38.2972 
G01 Z0.0000  F70    
G01 X-61.6500 Y38.2278 F300   
G01 X-61.6682 Y38.0639 
