(.../Programs/Tech/pcbgcode/pcb-gcode.ulp)
(Copyright 2005 - 2012 by John Johnson)
(See readme.txt for licensing terms.)
(This file generated from the board:)
(.../Devel/Eagle/ow_lcd_mirror3.brd)
(Current profile is .../pcbgcode/profiles/generic.pp  )
(This file generated 2/18/2015 9:22:53 PM)
(Settings from pcb-machine.h)
(  Tool Size)
(0.0070 )
(Z Axis Settings)
(  High     Up        Down     Drill)
(0.5000 	0.1000 	0.0000 	-0.0100 )
(spindle on time = 3.0000)
(milling depth = -0.0100)
(text depth = -0.0100)
(tool change at 0.5000 0.6000 1.0000 )
(feed rate xy = F20.00 )
(feed rate z  = F10.00 )
(Settings from pcb-defaults.h)
(isolate min = 0.0010)
(isolate max = 0.0400)
(isolate step = 0.0050)
(Generated bottom outlines, )
(Unit of measure: inch)
(Inch Mode)
G20
(Absolute Coordinates)
G90
G00 X0.0000 Y0.0000 
M03
G04 P3.000000
G00 Z0.1000 
G00 X-0.3864 Y0.0376 
G01 Z0.0000 F10.00 
G01 X-0.4101 Y0.0376 F20.00 
G01 X-0.4204 Y0.0272 
G01 X-0.4204 Y-0.0101 
G01 X-0.3796 Y0.0307 
G01 X-0.3864 Y0.0376 
G00 Z0.1000 
G00 X-0.3864 Y-0.0375 
G01 Z0.0000 F10.00 
G01 X-0.3760 Y-0.0271 F20.00 
G01 X-0.3760 Y0.0102 
G01 X-0.4169 Y-0.0307 
G01 X-0.4101 Y-0.0375 
G01 X-0.3864 Y-0.0375 
G00 Z0.1000 
G00 X-0.1415 Y0.4683 
G01 Z0.0000 F10.00 
G01 X-0.1415 Y0.4683 F20.00 
G01 X-0.1398 Y0.4617 
G01 X-0.1372 Y0.4555 
G01 X-0.1336 Y0.4498 
G01 X-0.1291 Y0.4447 
G01 X-0.1239 Y0.4404 
G01 X-0.1180 Y0.4371 
G01 X-0.1117 Y0.4347 
G01 X-0.1051 Y0.4333 
G01 X-0.0983 Y0.4330 
G01 X-0.0916 Y0.4338 
G01 X-0.0851 Y0.4357 
G01 X-0.0790 Y0.4386 
G01 X-0.0734 Y0.4425 
G01 X-0.0686 Y0.4471 
G01 X-0.0645 Y0.4526 
G01 X-0.0614 Y0.4585 
G01 X-0.0592 Y0.4649 
G01 X-0.0581 Y0.4716 
G01 X-0.0581 Y0.4784 
G01 X-0.0592 Y0.4851 
G01 X-0.0614 Y0.4915 
G01 X-0.0645 Y0.4974 
G01 X-0.0686 Y0.5029 
G01 X-0.0734 Y0.5075 
G01 X-0.0790 Y0.5114 
G01 X-0.0851 Y0.5143 
G01 X-0.0916 Y0.5162 
G01 X-0.0983 Y0.5170 
G01 X-0.1051 Y0.5167 
G01 X-0.1117 Y0.5153 
G01 X-0.1180 Y0.5129 
G01 X-0.1239 Y0.5096 
G01 X-0.1291 Y0.5053 
G01 X-0.1336 Y0.5002 
G01 X-0.1372 Y0.4945 
G01 X-0.1398 Y0.4883 
G01 X-0.1415 Y0.4817 
G01 X-0.1420 Y0.4750 
G01 X-0.1415 Y0.4683 
G00 Z0.1000 
G00 X-0.1415 Y0.0683 
G01 Z0.0000 F10.00 
G01 X-0.1398 Y0.0617 F20.00 
G01 X-0.1372 Y0.0555 
G01 X-0.1336 Y0.0498 
G01 X-0.1291 Y0.0447 
G01 X-0.1239 Y0.0404 
G01 X-0.1180 Y0.0371 
G01 X-0.1117 Y0.0347 
G01 X-0.1051 Y0.0333 
G01 X-0.0983 Y0.0330 
G01 X-0.0916 Y0.0338 
G01 X-0.0851 Y0.0357 
G01 X-0.0790 Y0.0386 
G01 X-0.0734 Y0.0425 
G01 X-0.0686 Y0.0471 
G01 X-0.0645 Y0.0526 
G01 X-0.0614 Y0.0585 
G01 X-0.0592 Y0.0649 
G01 X-0.0581 Y0.0716 
G01 X-0.0581 Y0.0784 
G01 X-0.0592 Y0.0851 
G01 X-0.0614 Y0.0915 
G01 X-0.0645 Y0.0974 
G01 X-0.0686 Y0.1029 
G01 X-0.0734 Y0.1075 
G01 X-0.0790 Y0.1114 
G01 X-0.0851 Y0.1143 
G01 X-0.0916 Y0.1162 
G01 X-0.0983 Y0.1170 
G01 X-0.1051 Y0.1167 
G01 X-0.1117 Y0.1153 
G01 X-0.1180 Y0.1129 
G01 X-0.1239 Y0.1096 
G01 X-0.1291 Y0.1053 
G01 X-0.1336 Y0.1002 
G01 X-0.1372 Y0.0945 
G01 X-0.1398 Y0.0883 
G01 X-0.1415 Y0.0817 
G01 X-0.1420 Y0.0750 
G01 X-0.1415 Y0.0683 
G00 Z0.1000 
G00 X-1.9420 Y0.6420 
G01 Z0.0000 F10.00 
G01 X-1.9420 Y-0.0670 F20.00 
G01 X-0.0080 Y-0.0670 
G01 X-0.0080 Y0.6420 
G01 X-1.9420 Y0.6420 
G00 Z0.1000 
G00 X-1.0900 Y0.1673 
G01 Z0.0000 F10.00 
G01 X-1.0900 Y0.1673 F20.00 
G01 X-1.0923 Y0.1650 
G01 X-1.0952 Y0.1634 
G01 X-1.0984 Y0.1625 
G01 X-1.2698 Y0.1625 
G01 X-1.3625 Y0.0698 
G01 X-1.3625 Y0.0385 
G01 X-1.3591 Y0.0385 
G01 X-1.3575 Y0.0378 
G01 X-1.3562 Y0.0365 
G01 X-1.3555 Y0.0349 
G01 X-1.3555 Y-0.0119 
G01 X-1.3562 Y-0.0135 
G01 X-1.3575 Y-0.0148 
G01 X-1.3591 Y-0.0155 
G01 X-1.3909 Y-0.0155 
G01 X-1.3925 Y-0.0148 
G01 X-1.3938 Y-0.0135 
G01 X-1.3945 Y-0.0119 
G01 X-1.3945 Y0.0349 
G01 X-1.3938 Y0.0365 
G01 X-1.3925 Y0.0378 
G01 X-1.3909 Y0.0385 
G01 X-1.3875 Y0.0385 
G01 X-1.3875 Y0.0766 
G01 X-1.3866 Y0.0798 
G01 X-1.3850 Y0.0827 
G01 X-1.2827 Y0.1850 
G01 X-1.2798 Y0.1866 
G01 X-1.2766 Y0.1875 
G01 X-1.1052 Y0.1875 
G01 X-1.0100 Y0.2827 
G01 X-1.0077 Y0.2850 
G01 X-1.0048 Y0.2866 
G01 X-1.0016 Y0.2875 
G01 X-0.9518 Y0.2875 
G01 X-0.9511 Y0.2890 
G01 X-0.9479 Y0.2938 
G01 X-0.9438 Y0.2979 
G01 X-0.9390 Y0.3011 
G01 X-0.9336 Y0.3034 
G01 X-0.9279 Y0.3045 
G01 X-0.9221 Y0.3045 
G01 X-0.9164 Y0.3034 
G01 X-0.9110 Y0.3011 
G01 X-0.9062 Y0.2979 
G01 X-0.9021 Y0.2938 
G01 X-0.8989 Y0.2890 
G01 X-0.8982 Y0.2875 
G01 X-0.8802 Y0.2875 
G01 X-0.7600 Y0.4077 
G01 X-0.7577 Y0.4100 
G01 X-0.7548 Y0.4116 
G01 X-0.7516 Y0.4125 
G01 X-0.7052 Y0.4125 
G01 X-0.6080 Y0.5096 
G01 X-0.6082 Y0.5099 
G01 X-0.6095 Y0.5166 
G01 X-0.6095 Y0.5834 
G01 X-0.6082 Y0.5901 
G01 X-0.6056 Y0.5963 
G01 X-0.6018 Y0.6020 
G01 X-0.5970 Y0.6068 
G01 X-0.5913 Y0.6106 
G01 X-0.5851 Y0.6132 
G01 X-0.5784 Y0.6145 
G01 X-0.5716 Y0.6145 
G01 X-0.5649 Y0.6132 
G01 X-0.5587 Y0.6106 
G01 X-0.5530 Y0.6068 
G01 X-0.5482 Y0.6020 
G01 X-0.5444 Y0.5963 
G01 X-0.5418 Y0.5901 
G01 X-0.5405 Y0.5834 
G01 X-0.5405 Y0.5166 
G01 X-0.5418 Y0.5099 
G01 X-0.5444 Y0.5037 
G01 X-0.5482 Y0.4980 
G01 X-0.5530 Y0.4932 
G01 X-0.5587 Y0.4894 
G01 X-0.5649 Y0.4868 
G01 X-0.5716 Y0.4855 
G01 X-0.5784 Y0.4855 
G01 X-0.5851 Y0.4868 
G01 X-0.5896 Y0.4887 
G01 X-0.5903 Y0.4884 
G01 X-0.5934 Y0.4875 
G01 X-0.5948 Y0.4875 
G01 X-0.6923 Y0.3900 
G01 X-0.6952 Y0.3884 
G01 X-0.6984 Y0.3875 
G01 X-0.7448 Y0.3875 
G01 X-0.8673 Y0.2650 
G01 X-0.8702 Y0.2634 
G01 X-0.8734 Y0.2625 
G01 X-0.8982 Y0.2625 
G01 X-0.8989 Y0.2610 
G01 X-0.9021 Y0.2562 
G01 X-0.9062 Y0.2521 
G01 X-0.9110 Y0.2489 
G01 X-0.9164 Y0.2466 
G01 X-0.9221 Y0.2455 
G01 X-0.9279 Y0.2455 
G01 X-0.9336 Y0.2466 
G01 X-0.9390 Y0.2489 
G01 X-0.9438 Y0.2521 
G01 X-0.9479 Y0.2562 
G01 X-0.9511 Y0.2610 
G01 X-0.9518 Y0.2625 
G01 X-0.9948 Y0.2625 
G01 X-1.0900 Y0.1673 
G00 Z0.1000 
G00 X-0.4095 Y0.5166 
G01 Z0.0000 F10.00 
G01 X-0.4095 Y0.5834 F20.00 
G01 X-0.4082 Y0.5901 
G01 X-0.4056 Y0.5963 
G01 X-0.4018 Y0.6020 
G01 X-0.3970 Y0.6068 
G01 X-0.3913 Y0.6106 
G01 X-0.3851 Y0.6132 
G01 X-0.3784 Y0.6145 
G01 X-0.3716 Y0.6145 
G01 X-0.3649 Y0.6132 
G01 X-0.3587 Y0.6106 
G01 X-0.3530 Y0.6068 
G01 X-0.3482 Y0.6020 
G01 X-0.3444 Y0.5963 
G01 X-0.3418 Y0.5901 
G01 X-0.3405 Y0.5834 
G01 X-0.3405 Y0.5166 
G01 X-0.3418 Y0.5099 
G01 X-0.3444 Y0.5037 
G01 X-0.3482 Y0.4980 
G01 X-0.3530 Y0.4932 
G01 X-0.3587 Y0.4894 
G01 X-0.3649 Y0.4868 
G01 X-0.3716 Y0.4855 
G01 X-0.3784 Y0.4855 
G01 X-0.3851 Y0.4868 
G01 X-0.3913 Y0.4894 
G01 X-0.3970 Y0.4932 
G01 X-0.4018 Y0.4980 
G01 X-0.4056 Y0.5037 
G01 X-0.4082 Y0.5099 
G01 X-0.4095 Y0.5166 
G00 Z0.1000 
G00 X-0.5095 Y0.5166 
G01 Z0.0000 F10.00 
G01 X-0.5095 Y0.5834 F20.00 
G01 X-0.5082 Y0.5901 
G01 X-0.5056 Y0.5963 
G01 X-0.5018 Y0.6020 
G01 X-0.4970 Y0.6068 
G01 X-0.4913 Y0.6106 
G01 X-0.4851 Y0.6132 
G01 X-0.4784 Y0.6145 
G01 X-0.4716 Y0.6145 
G01 X-0.4649 Y0.6132 
G01 X-0.4587 Y0.6106 
G01 X-0.4530 Y0.6068 
G01 X-0.4482 Y0.6020 
G01 X-0.4444 Y0.5963 
G01 X-0.4418 Y0.5901 
G01 X-0.4405 Y0.5834 
G01 X-0.4405 Y0.5166 
G01 X-0.4418 Y0.5099 
G01 X-0.4444 Y0.5037 
G01 X-0.4482 Y0.4980 
G01 X-0.4530 Y0.4932 
G01 X-0.4587 Y0.4894 
G01 X-0.4649 Y0.4868 
G01 X-0.4716 Y0.4855 
G01 X-0.4784 Y0.4855 
G01 X-0.4851 Y0.4868 
G01 X-0.4913 Y0.4894 
G01 X-0.4970 Y0.4932 
G01 X-0.5018 Y0.4980 
G01 X-0.5056 Y0.5037 
G01 X-0.5082 Y0.5099 
G01 X-0.5095 Y0.5166 
G00 Z0.1000 
G00 X-0.7095 Y0.5166 
G01 Z0.0000 F10.00 
G01 X-0.7095 Y0.5834 F20.00 
G01 X-0.7082 Y0.5901 
G01 X-0.7056 Y0.5963 
G01 X-0.7018 Y0.6020 
G01 X-0.6970 Y0.6068 
G01 X-0.6913 Y0.6106 
G01 X-0.6851 Y0.6132 
G01 X-0.6784 Y0.6145 
G01 X-0.6716 Y0.6145 
G01 X-0.6649 Y0.6132 
G01 X-0.6587 Y0.6106 
G01 X-0.6530 Y0.6068 
G01 X-0.6482 Y0.6020 
G01 X-0.6444 Y0.5963 
G01 X-0.6418 Y0.5901 
G01 X-0.6405 Y0.5834 
G01 X-0.6405 Y0.5166 
G01 X-0.6418 Y0.5099 
G01 X-0.6444 Y0.5037 
G01 X-0.6482 Y0.4980 
G01 X-0.6530 Y0.4932 
G01 X-0.6587 Y0.4894 
G01 X-0.6649 Y0.4868 
G01 X-0.6716 Y0.4855 
G01 X-0.6718 Y0.4855 
G01 X-0.7173 Y0.4400 
G01 X-0.7202 Y0.4384 
G01 X-0.7234 Y0.4375 
G01 X-0.7698 Y0.4375 
G01 X-0.8673 Y0.3400 
G01 X-0.8702 Y0.3384 
G01 X-0.8734 Y0.3375 
G01 X-0.8982 Y0.3375 
G01 X-0.8989 Y0.3360 
G01 X-0.9021 Y0.3312 
G01 X-0.9062 Y0.3271 
G01 X-0.9110 Y0.3239 
G01 X-0.9164 Y0.3216 
G01 X-0.9221 Y0.3205 
G01 X-0.9279 Y0.3205 
G01 X-0.9336 Y0.3216 
G01 X-0.9390 Y0.3239 
G01 X-0.9438 Y0.3271 
G01 X-0.9479 Y0.3312 
G01 X-0.9511 Y0.3360 
G01 X-0.9518 Y0.3375 
G01 X-0.9698 Y0.3375 
G01 X-1.0923 Y0.2150 
G01 X-1.0952 Y0.2134 
G01 X-1.0984 Y0.2125 
G01 X-1.2948 Y0.2125 
G01 X-1.4125 Y0.0948 
G01 X-1.4125 Y0.0385 
G01 X-1.4091 Y0.0385 
G01 X-1.4075 Y0.0378 
G01 X-1.4062 Y0.0365 
G01 X-1.4055 Y0.0349 
G01 X-1.4055 Y-0.0119 
G01 X-1.4062 Y-0.0135 
G01 X-1.4075 Y-0.0148 
G01 X-1.4091 Y-0.0155 
G01 X-1.4409 Y-0.0155 
G01 X-1.4425 Y-0.0148 
G01 X-1.4438 Y-0.0135 
G01 X-1.4445 Y-0.0119 
G01 X-1.4445 Y0.0349 
G01 X-1.4438 Y0.0365 
G01 X-1.4425 Y0.0378 
G01 X-1.4409 Y0.0385 
G01 X-1.4375 Y0.0385 
G01 X-1.4375 Y0.1016 
G01 X-1.4366 Y0.1048 
G01 X-1.4350 Y0.1077 
G01 X-1.3100 Y0.2327 
G01 X-1.3077 Y0.2350 
G01 X-1.3048 Y0.2366 
G01 X-1.3016 Y0.2375 
G01 X-1.1052 Y0.2375 
G01 X-0.9850 Y0.3577 
G01 X-0.9827 Y0.3600 
G01 X-0.9798 Y0.3616 
G01 X-0.9766 Y0.3625 
G01 X-0.9518 Y0.3625 
G01 X-0.9511 Y0.3640 
G01 X-0.9479 Y0.3688 
G01 X-0.9438 Y0.3729 
G01 X-0.9390 Y0.3761 
G01 X-0.9336 Y0.3784 
G01 X-0.9279 Y0.3795 
G01 X-0.9221 Y0.3795 
G01 X-0.9164 Y0.3784 
G01 X-0.9110 Y0.3761 
G01 X-0.9062 Y0.3729 
G01 X-0.9021 Y0.3688 
G01 X-0.8989 Y0.3640 
G01 X-0.8982 Y0.3625 
G01 X-0.8802 Y0.3625 
G01 X-0.7850 Y0.4577 
G01 X-0.7827 Y0.4600 
G01 X-0.7798 Y0.4616 
G01 X-0.7766 Y0.4625 
G01 X-0.7302 Y0.4625 
G01 X-0.6982 Y0.4944 
G01 X-0.7018 Y0.4980 
G01 X-0.7056 Y0.5037 
G01 X-0.7082 Y0.5099 
G01 X-0.7095 Y0.5166 
G00 Z0.1000 
G00 X-1.0095 Y0.5166 
G01 Z0.0000 F10.00 
G01 X-1.0095 Y0.5834 F20.00 
G01 X-1.0082 Y0.5901 
G01 X-1.0056 Y0.5963 
G01 X-1.0018 Y0.6020 
G01 X-0.9970 Y0.6068 
G01 X-0.9913 Y0.6106 
G01 X-0.9851 Y0.6132 
G01 X-0.9784 Y0.6145 
G01 X-0.9716 Y0.6145 
G01 X-0.9649 Y0.6132 
G01 X-0.9587 Y0.6106 
G01 X-0.9530 Y0.6068 
G01 X-0.9482 Y0.6020 
G01 X-0.9444 Y0.5963 
G01 X-0.9418 Y0.5901 
G01 X-0.9405 Y0.5834 
G01 X-0.9405 Y0.5166 
G01 X-0.9418 Y0.5099 
G01 X-0.9444 Y0.5037 
G01 X-0.9482 Y0.4980 
G01 X-0.9530 Y0.4932 
G01 X-0.9587 Y0.4894 
G01 X-0.9649 Y0.4868 
G01 X-0.9716 Y0.4855 
G01 X-0.9784 Y0.4855 
G01 X-0.9851 Y0.4868 
G01 X-0.9913 Y0.4894 
G01 X-0.9970 Y0.4932 
G01 X-1.0018 Y0.4980 
G01 X-1.0056 Y0.5037 
G01 X-1.0082 Y0.5099 
G01 X-1.0095 Y0.5166 
G00 Z0.1000 
G00 X-1.1095 Y0.5166 
G01 Z0.0000 F10.00 
G01 X-1.1095 Y0.5834 F20.00 
G01 X-1.1082 Y0.5901 
G01 X-1.1056 Y0.5963 
G01 X-1.1018 Y0.6020 
G01 X-1.0970 Y0.6068 
G01 X-1.0913 Y0.6106 
G01 X-1.0851 Y0.6132 
G01 X-1.0784 Y0.6145 
G01 X-1.0716 Y0.6145 
G01 X-1.0649 Y0.6132 
G01 X-1.0587 Y0.6106 
G01 X-1.0530 Y0.6068 
G01 X-1.0482 Y0.6020 
G01 X-1.0444 Y0.5963 
G01 X-1.0418 Y0.5901 
G01 X-1.0405 Y0.5834 
G01 X-1.0405 Y0.5166 
G01 X-1.0418 Y0.5099 
G01 X-1.0444 Y0.5037 
G01 X-1.0482 Y0.4980 
G01 X-1.0530 Y0.4932 
G01 X-1.0587 Y0.4894 
G01 X-1.0649 Y0.4868 
G01 X-1.0716 Y0.4855 
G01 X-1.0784 Y0.4855 
G01 X-1.0851 Y0.4868 
G01 X-1.0913 Y0.4894 
G01 X-1.0970 Y0.4932 
G01 X-1.1018 Y0.4980 
G01 X-1.1056 Y0.5037 
G01 X-1.1082 Y0.5099 
G01 X-1.1095 Y0.5166 
G00 Z0.1000 
G00 X-1.2095 Y0.5166 
G01 Z0.0000 F10.00 
G01 X-1.2095 Y0.5834 F20.00 
G01 X-1.2082 Y0.5901 
G01 X-1.2056 Y0.5963 
G01 X-1.2018 Y0.6020 
G01 X-1.1970 Y0.6068 
G01 X-1.1913 Y0.6106 
G01 X-1.1851 Y0.6132 
G01 X-1.1784 Y0.6145 
G01 X-1.1716 Y0.6145 
G01 X-1.1649 Y0.6132 
G01 X-1.1587 Y0.6106 
G01 X-1.1530 Y0.6068 
G01 X-1.1482 Y0.6020 
G01 X-1.1444 Y0.5963 
G01 X-1.1418 Y0.5901 
G01 X-1.1405 Y0.5834 
G01 X-1.1405 Y0.5166 
G01 X-1.1418 Y0.5099 
G01 X-1.1444 Y0.5037 
G01 X-1.1482 Y0.4980 
G01 X-1.1530 Y0.4932 
G01 X-1.1587 Y0.4894 
G01 X-1.1649 Y0.4868 
G01 X-1.1716 Y0.4855 
G01 X-1.1784 Y0.4855 
G01 X-1.1851 Y0.4868 
G01 X-1.1913 Y0.4894 
G01 X-1.1970 Y0.4932 
G01 X-1.2018 Y0.4980 
G01 X-1.2056 Y0.5037 
G01 X-1.2082 Y0.5099 
G01 X-1.2095 Y0.5166 
G00 Z0.1000 
G00 X-1.3095 Y0.5166 
G01 Z0.0000 F10.00 
G01 X-1.3095 Y0.5834 F20.00 
G01 X-1.3082 Y0.5901 
G01 X-1.3056 Y0.5963 
G01 X-1.3018 Y0.6020 
G01 X-1.2970 Y0.6068 
G01 X-1.2913 Y0.6106 
G01 X-1.2851 Y0.6132 
G01 X-1.2784 Y0.6145 
G01 X-1.2716 Y0.6145 
G01 X-1.2649 Y0.6132 
G01 X-1.2587 Y0.6106 
G01 X-1.2530 Y0.6068 
G01 X-1.2482 Y0.6020 
G01 X-1.2444 Y0.5963 
G01 X-1.2418 Y0.5901 
G01 X-1.2405 Y0.5834 
G01 X-1.2405 Y0.5166 
G01 X-1.2418 Y0.5099 
G01 X-1.2444 Y0.5037 
G01 X-1.2482 Y0.4980 
G01 X-1.2530 Y0.4932 
G01 X-1.2587 Y0.4894 
G01 X-1.2649 Y0.4868 
G01 X-1.2716 Y0.4855 
G01 X-1.2784 Y0.4855 
G01 X-1.2851 Y0.4868 
G01 X-1.2913 Y0.4894 
G01 X-1.2970 Y0.4932 
G01 X-1.3018 Y0.4980 
G01 X-1.3056 Y0.5037 
G01 X-1.3082 Y0.5099 
G01 X-1.3095 Y0.5166 
G00 Z0.1000 
G00 X-1.4095 Y0.5166 
G01 Z0.0000 F10.00 
G01 X-1.4095 Y0.5834 F20.00 
G01 X-1.4082 Y0.5901 
G01 X-1.4056 Y0.5963 
G01 X-1.4018 Y0.6020 
G01 X-1.3970 Y0.6068 
G01 X-1.3913 Y0.6106 
G01 X-1.3851 Y0.6132 
G01 X-1.3784 Y0.6145 
G01 X-1.3716 Y0.6145 
G01 X-1.3649 Y0.6132 
G01 X-1.3587 Y0.6106 
G01 X-1.3530 Y0.6068 
G01 X-1.3482 Y0.6020 
G01 X-1.3444 Y0.5963 
G01 X-1.3418 Y0.5901 
G01 X-1.3405 Y0.5834 
G01 X-1.3405 Y0.5166 
G01 X-1.3418 Y0.5099 
G01 X-1.3444 Y0.5037 
G01 X-1.3482 Y0.4980 
G01 X-1.3530 Y0.4932 
G01 X-1.3587 Y0.4894 
G01 X-1.3649 Y0.4868 
G01 X-1.3716 Y0.4855 
G01 X-1.3718 Y0.4855 
G01 X-1.4125 Y0.4448 
G01 X-1.4125 Y0.4155 
G01 X-1.4091 Y0.4155 
G01 X-1.4075 Y0.4148 
G01 X-1.4062 Y0.4135 
G01 X-1.4055 Y0.4119 
G01 X-1.4055 Y0.3651 
G01 X-1.4062 Y0.3635 
G01 X-1.4075 Y0.3622 
G01 X-1.4091 Y0.3615 
G01 X-1.4409 Y0.3615 
G01 X-1.4425 Y0.3622 
G01 X-1.4438 Y0.3635 
G01 X-1.4445 Y0.3651 
G01 X-1.4445 Y0.4119 
G01 X-1.4438 Y0.4135 
G01 X-1.4425 Y0.4148 
G01 X-1.4409 Y0.4155 
G01 X-1.4375 Y0.4155 
G01 X-1.4375 Y0.4516 
G01 X-1.4366 Y0.4548 
G01 X-1.4350 Y0.4577 
G01 X-1.4327 Y0.4600 
G01 X-1.3982 Y0.4944 
G01 X-1.4018 Y0.4980 
G01 X-1.4056 Y0.5037 
G01 X-1.4082 Y0.5099 
G01 X-1.4095 Y0.5166 
G00 Z0.1000 
G00 X-1.5095 Y0.5166 
G01 Z0.0000 F10.00 
G01 X-1.5095 Y0.5834 F20.00 
G01 X-1.5082 Y0.5901 
G01 X-1.5056 Y0.5963 
G01 X-1.5018 Y0.6020 
G01 X-1.4970 Y0.6068 
G01 X-1.4913 Y0.6106 
G01 X-1.4851 Y0.6132 
G01 X-1.4784 Y0.6145 
G01 X-1.4716 Y0.6145 
G01 X-1.4649 Y0.6132 
G01 X-1.4587 Y0.6106 
G01 X-1.4530 Y0.6068 
G01 X-1.4482 Y0.6020 
G01 X-1.4444 Y0.5963 
G01 X-1.4418 Y0.5901 
G01 X-1.4405 Y0.5834 
G01 X-1.4405 Y0.5166 
G01 X-1.4418 Y0.5099 
G01 X-1.4444 Y0.5037 
G01 X-1.4482 Y0.4980 
G01 X-1.4530 Y0.4932 
G01 X-1.4587 Y0.4894 
G01 X-1.4625 Y0.4878 
G01 X-1.4625 Y0.4155 
G01 X-1.4591 Y0.4155 
G01 X-1.4575 Y0.4148 
G01 X-1.4562 Y0.4135 
G01 X-1.4555 Y0.4119 
G01 X-1.4555 Y0.3651 
G01 X-1.4562 Y0.3635 
G01 X-1.4575 Y0.3622 
G01 X-1.4591 Y0.3615 
G01 X-1.4909 Y0.3615 
G01 X-1.4925 Y0.3622 
G01 X-1.4938 Y0.3635 
G01 X-1.4945 Y0.3651 
G01 X-1.4945 Y0.4119 
G01 X-1.4938 Y0.4135 
G01 X-1.4925 Y0.4148 
G01 X-1.4909 Y0.4155 
G01 X-1.4875 Y0.4155 
G01 X-1.4875 Y0.4878 
G01 X-1.4913 Y0.4894 
G01 X-1.4970 Y0.4932 
G01 X-1.5018 Y0.4980 
G01 X-1.5056 Y0.5037 
G01 X-1.5082 Y0.5099 
G01 X-1.5095 Y0.5166 
G00 Z0.1000 
G00 X-0.1999 Y0.1209 
G01 Z0.0000 F10.00 
G01 X-0.3001 Y0.1209 F20.00 
G01 X-0.3018 Y0.1216 
G01 X-0.3030 Y0.1228 
G01 X-0.3037 Y0.1245 
G01 X-0.3037 Y0.1875 
G01 X-0.4203 Y0.1875 
G01 X-0.4215 Y0.1847 
G01 X-0.4250 Y0.1795 
G01 X-0.4295 Y0.1750 
G01 X-0.4347 Y0.1715 
G01 X-0.4385 Y0.1699 
G01 X-0.4400 Y0.1673 
G01 X-0.5150 Y0.0923 
G01 X-0.5173 Y0.0900 
G01 X-0.5202 Y0.0884 
G01 X-0.5234 Y0.0875 
G01 X-0.5351 Y0.0875 
G01 X-0.5351 Y0.0625 
G01 X-0.5358 Y0.0608 
G01 X-0.5370 Y0.0596 
G01 X-0.5387 Y0.0589 
G01 X-0.6113 Y0.0589 
G01 X-0.6130 Y0.0596 
G01 X-0.6142 Y0.0608 
G01 X-0.6149 Y0.0625 
G01 X-0.6149 Y0.0824 
G01 X-0.6639 Y0.0824 
G01 X-0.6642 Y0.0816 
G01 X-0.6676 Y0.0749 
G01 X-0.6720 Y0.0689 
G01 X-0.6773 Y0.0635 
G01 X-0.6834 Y0.0591 
G01 X-0.6901 Y0.0557 
G01 X-0.6973 Y0.0534 
G01 X-0.7047 Y0.0522 
G01 X-0.7713 Y0.0522 
G01 X-0.7787 Y0.0534 
G01 X-0.7859 Y0.0557 
G01 X-0.7926 Y0.0591 
G01 X-0.7987 Y0.0635 
G01 X-0.8040 Y0.0689 
G01 X-0.8084 Y0.0749 
G01 X-0.8089 Y0.0758 
G01 X-0.8833 Y0.0758 
G01 X-0.8849 Y0.0765 
G01 X-0.8862 Y0.0778 
G01 X-0.8869 Y0.0794 
G01 X-0.8869 Y0.1206 
G01 X-0.8862 Y0.1222 
G01 X-0.8849 Y0.1235 
G01 X-0.8833 Y0.1242 
G01 X-0.8089 Y0.1242 
G01 X-0.8084 Y0.1251 
G01 X-0.8040 Y0.1311 
G01 X-0.7987 Y0.1365 
G01 X-0.7926 Y0.1409 
G01 X-0.7859 Y0.1443 
G01 X-0.7787 Y0.1466 
G01 X-0.7713 Y0.1478 
G01 X-0.7047 Y0.1478 
G01 X-0.6973 Y0.1466 
G01 X-0.6901 Y0.1443 
G01 X-0.6834 Y0.1409 
G01 X-0.6773 Y0.1365 
G01 X-0.6720 Y0.1311 
G01 X-0.6676 Y0.1251 
G01 X-0.6642 Y0.1184 
G01 X-0.6618 Y0.1112 
G01 X-0.6612 Y0.1074 
G01 X-0.6149 Y0.1074 
G01 X-0.6149 Y0.1273 
G01 X-0.6142 Y0.1289 
G01 X-0.6130 Y0.1302 
G01 X-0.6113 Y0.1309 
G01 X-0.5387 Y0.1309 
G01 X-0.5370 Y0.1302 
G01 X-0.5358 Y0.1289 
G01 X-0.5351 Y0.1273 
G01 X-0.5351 Y0.1125 
G01 X-0.5302 Y0.1125 
G01 X-0.4688 Y0.1738 
G01 X-0.4705 Y0.1750 
G01 X-0.4750 Y0.1795 
G01 X-0.4785 Y0.1847 
G01 X-0.4810 Y0.1906 
G01 X-0.4822 Y0.1968 
G01 X-0.4822 Y0.2032 
G01 X-0.4810 Y0.2094 
G01 X-0.4785 Y0.2153 
G01 X-0.4750 Y0.2205 
G01 X-0.4705 Y0.2250 
G01 X-0.4653 Y0.2285 
G01 X-0.4594 Y0.2310 
G01 X-0.4532 Y0.2322 
G01 X-0.4468 Y0.2322 
G01 X-0.4406 Y0.2310 
G01 X-0.4347 Y0.2285 
G01 X-0.4295 Y0.2250 
G01 X-0.4250 Y0.2205 
G01 X-0.4215 Y0.2153 
G01 X-0.4203 Y0.2125 
G01 X-0.3037 Y0.2125 
G01 X-0.3037 Y0.2267 
G01 X-0.3030 Y0.2283 
G01 X-0.3018 Y0.2296 
G01 X-0.3001 Y0.2303 
G01 X-0.1999 Y0.2303 
G01 X-0.1982 Y0.2296 
G01 X-0.1970 Y0.2283 
G01 X-0.1963 Y0.2267 
G01 X-0.1963 Y0.1245 
G01 X-0.1970 Y0.1228 
G01 X-0.1982 Y0.1216 
G01 X-0.1999 Y0.1209 
G00 Z0.1000 
G00 X-1.7625 Y0.0125 
G01 Z0.0000 F10.00 
G01 X-1.6302 Y0.0125 F20.00 
G01 X-1.5875 Y0.0552 
G01 X-1.5875 Y0.1189 
G01 X-1.6025 Y0.1189 
G01 X-1.6041 Y0.1196 
G01 X-1.6054 Y0.1209 
G01 X-1.6061 Y0.1225 
G01 X-1.6061 Y0.1775 
G01 X-1.6054 Y0.1791 
G01 X-1.6041 Y0.1804 
G01 X-1.6025 Y0.1811 
G01 X-1.5875 Y0.1811 
G01 X-1.5875 Y0.2160 
G01 X-1.6141 Y0.2160 
G01 X-1.6157 Y0.2167 
G01 X-1.6170 Y0.2179 
G01 X-1.6177 Y0.2196 
G01 X-1.6177 Y0.2804 
G01 X-1.6170 Y0.2821 
G01 X-1.6157 Y0.2833 
G01 X-1.6141 Y0.2840 
G01 X-1.5611 Y0.2840 
G01 X-1.5595 Y0.2833 
G01 X-1.5582 Y0.2821 
G01 X-1.5575 Y0.2804 
G01 X-1.5575 Y0.2196 
G01 X-1.5582 Y0.2179 
G01 X-1.5595 Y0.2167 
G01 X-1.5611 Y0.2160 
G01 X-1.5625 Y0.2160 
G01 X-1.5625 Y0.1811 
G01 X-1.5475 Y0.1811 
G01 X-1.5459 Y0.1804 
G01 X-1.5446 Y0.1791 
G01 X-1.5439 Y0.1775 
G01 X-1.5439 Y0.1625 
G01 X-1.5302 Y0.1625 
G01 X-1.3375 Y0.3552 
G01 X-1.3375 Y0.3615 
G01 X-1.3409 Y0.3615 
G01 X-1.3425 Y0.3622 
G01 X-1.3438 Y0.3635 
G01 X-1.3445 Y0.3651 
G01 X-1.3445 Y0.4119 
G01 X-1.3438 Y0.4135 
G01 X-1.3425 Y0.4148 
G01 X-1.3409 Y0.4155 
G01 X-1.3091 Y0.4155 
G01 X-1.3075 Y0.4148 
G01 X-1.3062 Y0.4135 
G01 X-1.3055 Y0.4119 
G01 X-1.3055 Y0.3651 
G01 X-1.3062 Y0.3635 
G01 X-1.3075 Y0.3622 
G01 X-1.3091 Y0.3615 
G01 X-1.3125 Y0.3615 
G01 X-1.3125 Y0.3484 
G01 X-1.3134 Y0.3452 
G01 X-1.3150 Y0.3423 
G01 X-1.5150 Y0.1423 
G01 X-1.5173 Y0.1400 
G01 X-1.5202 Y0.1384 
G01 X-1.5234 Y0.1375 
G01 X-1.5439 Y0.1375 
G01 X-1.5439 Y0.1225 
G01 X-1.5446 Y0.1209 
G01 X-1.5459 Y0.1196 
G01 X-1.5475 Y0.1189 
G01 X-1.5625 Y0.1189 
G01 X-1.5625 Y0.0484 
G01 X-1.5634 Y0.0452 
G01 X-1.5650 Y0.0423 
G01 X-1.6173 Y-0.0100 
G01 X-1.6202 Y-0.0116 
G01 X-1.6234 Y-0.0125 
G01 X-1.8266 Y-0.0125 
G01 X-1.8298 Y-0.0116 
G01 X-1.8327 Y-0.0100 
G01 X-1.8948 Y0.0522 
G01 X-1.8965 Y0.0550 
G01 X-1.8973 Y0.0582 
G01 X-1.8973 Y0.3851 
G01 X-1.9125 Y0.3851 
G01 X-1.9142 Y0.3858 
G01 X-1.9154 Y0.3870 
G01 X-1.9161 Y0.3887 
G01 X-1.9161 Y0.4613 
G01 X-1.9154 Y0.4630 
G01 X-1.9142 Y0.4642 
G01 X-1.9125 Y0.4649 
G01 X-1.8875 Y0.4649 
G01 X-1.8875 Y0.4878 
G01 X-1.8913 Y0.4894 
G01 X-1.8970 Y0.4932 
G01 X-1.9018 Y0.4980 
G01 X-1.9056 Y0.5037 
G01 X-1.9082 Y0.5099 
G01 X-1.9095 Y0.5166 
G01 X-1.9095 Y0.5834 
G01 X-1.9082 Y0.5901 
G01 X-1.9056 Y0.5963 
G01 X-1.9018 Y0.6020 
G01 X-1.8970 Y0.6068 
G01 X-1.8913 Y0.6106 
G01 X-1.8851 Y0.6132 
G01 X-1.8784 Y0.6145 
G01 X-1.8716 Y0.6145 
G01 X-1.8649 Y0.6132 
G01 X-1.8587 Y0.6106 
G01 X-1.8530 Y0.6068 
G01 X-1.8482 Y0.6020 
G01 X-1.8444 Y0.5963 
G01 X-1.8418 Y0.5901 
G01 X-1.8405 Y0.5834 
G01 X-1.8405 Y0.5166 
G01 X-1.8418 Y0.5099 
G01 X-1.8444 Y0.5037 
G01 X-1.8482 Y0.4980 
G01 X-1.8530 Y0.4932 
G01 X-1.8587 Y0.4894 
G01 X-1.8625 Y0.4878 
G01 X-1.8625 Y0.4649 
G01 X-1.8477 Y0.4649 
G01 X-1.8461 Y0.4642 
G01 X-1.8448 Y0.4630 
G01 X-1.8441 Y0.4613 
G01 X-1.8441 Y0.3887 
G01 X-1.8448 Y0.3870 
G01 X-1.8461 Y0.3858 
G01 X-1.8477 Y0.3851 
G01 X-1.8723 Y0.3851 
G01 X-1.8723 Y0.0650 
G01 X-1.8198 Y0.0125 
G01 X-1.7875 Y0.0125 
G01 X-1.7875 Y0.0465 
G01 X-1.7897 Y0.0475 
G01 X-1.7948 Y0.0509 
G01 X-1.7991 Y0.0552 
G01 X-1.8025 Y0.0603 
G01 X-1.8049 Y0.0659 
G01 X-1.8061 Y0.0719 
G01 X-1.8061 Y0.0781 
G01 X-1.8049 Y0.0841 
G01 X-1.8025 Y0.0897 
G01 X-1.7991 Y0.0948 
G01 X-1.7948 Y0.0991 
G01 X-1.7897 Y0.1025 
G01 X-1.7841 Y0.1049 
G01 X-1.7781 Y0.1061 
G01 X-1.7719 Y0.1061 
G01 X-1.7659 Y0.1049 
G01 X-1.7603 Y0.1025 
G01 X-1.7552 Y0.0991 
G01 X-1.7509 Y0.0948 
G01 X-1.7475 Y0.0897 
G01 X-1.7451 Y0.0841 
G01 X-1.7439 Y0.0781 
G01 X-1.7439 Y0.0719 
G01 X-1.7451 Y0.0659 
G01 X-1.7475 Y0.0603 
G01 X-1.7509 Y0.0552 
G01 X-1.7552 Y0.0509 
G01 X-1.7603 Y0.0475 
G01 X-1.7625 Y0.0465 
G01 X-1.7625 Y0.0125 
G00 Z0.1000 
G00 X-1.6875 Y0.2160 
G01 Z0.0000 F10.00 
G01 X-1.6889 Y0.2160 F20.00 
G01 X-1.6905 Y0.2167 
G01 X-1.6918 Y0.2179 
G01 X-1.6925 Y0.2196 
G01 X-1.6925 Y0.2804 
G01 X-1.6918 Y0.2821 
G01 X-1.6905 Y0.2833 
G01 X-1.6889 Y0.2840 
G01 X-1.6875 Y0.2840 
G01 X-1.6875 Y0.3516 
G01 X-1.6866 Y0.3548 
G01 X-1.6850 Y0.3577 
G01 X-1.6427 Y0.4000 
G01 X-1.6427 Y0.4500 
G01 X-1.6782 Y0.4855 
G01 X-1.6784 Y0.4855 
G01 X-1.6851 Y0.4868 
G01 X-1.6913 Y0.4894 
G01 X-1.6970 Y0.4932 
G01 X-1.7018 Y0.4980 
G01 X-1.7056 Y0.5037 
G01 X-1.7082 Y0.5099 
G01 X-1.7095 Y0.5166 
G01 X-1.7095 Y0.5834 
G01 X-1.7082 Y0.5901 
G01 X-1.7056 Y0.5963 
G01 X-1.7018 Y0.6020 
G01 X-1.6970 Y0.6068 
G01 X-1.6913 Y0.6106 
G01 X-1.6851 Y0.6132 
G01 X-1.6784 Y0.6145 
G01 X-1.6716 Y0.6145 
G01 X-1.6649 Y0.6132 
G01 X-1.6587 Y0.6106 
G01 X-1.6530 Y0.6068 
G01 X-1.6482 Y0.6020 
G01 X-1.6444 Y0.5963 
G01 X-1.6418 Y0.5901 
G01 X-1.6405 Y0.5834 
G01 X-1.6405 Y0.5166 
G01 X-1.6418 Y0.5099 
G01 X-1.6444 Y0.5037 
G01 X-1.6482 Y0.4980 
G01 X-1.6518 Y0.4944 
G01 X-1.6164 Y0.4590 
G01 X-1.5861 Y0.4590 
G01 X-1.5845 Y0.4583 
G01 X-1.5832 Y0.4571 
G01 X-1.5825 Y0.4554 
G01 X-1.5825 Y0.3946 
G01 X-1.5832 Y0.3929 
G01 X-1.5845 Y0.3917 
G01 X-1.5861 Y0.3910 
G01 X-1.6164 Y0.3910 
G01 X-1.6173 Y0.3900 
G01 X-1.6625 Y0.3448 
G01 X-1.6625 Y0.2840 
G01 X-1.6359 Y0.2840 
G01 X-1.6343 Y0.2833 
G01 X-1.6330 Y0.2821 
G01 X-1.6323 Y0.2804 
G01 X-1.6323 Y0.2196 
G01 X-1.6330 Y0.2179 
G01 X-1.6343 Y0.2167 
G01 X-1.6359 Y0.2160 
G01 X-1.6625 Y0.2160 
G01 X-1.6625 Y0.2035 
G01 X-1.6603 Y0.2025 
G01 X-1.6552 Y0.1991 
G01 X-1.6509 Y0.1948 
G01 X-1.6475 Y0.1897 
G01 X-1.6451 Y0.1841 
G01 X-1.6439 Y0.1781 
G01 X-1.6439 Y0.1719 
G01 X-1.6451 Y0.1659 
G01 X-1.6475 Y0.1603 
G01 X-1.6509 Y0.1552 
G01 X-1.6552 Y0.1509 
G01 X-1.6603 Y0.1475 
G01 X-1.6659 Y0.1451 
G01 X-1.6719 Y0.1439 
G01 X-1.6781 Y0.1439 
G01 X-1.6841 Y0.1451 
G01 X-1.6897 Y0.1475 
G01 X-1.6948 Y0.1509 
G01 X-1.6991 Y0.1552 
G01 X-1.7025 Y0.1603 
G01 X-1.7049 Y0.1659 
G01 X-1.7061 Y0.1719 
G01 X-1.7061 Y0.1781 
G01 X-1.7049 Y0.1841 
G01 X-1.7025 Y0.1897 
G01 X-1.6991 Y0.1948 
G01 X-1.6948 Y0.1991 
G01 X-1.6897 Y0.2025 
G01 X-1.6875 Y0.2035 
G01 X-1.6875 Y0.2160 
G00 Z0.1000 
G00 X-0.9863 Y0.0809 
G01 Z0.0000 F10.00 
G01 X-0.9137 Y0.0809 F20.00 
G01 X-0.9120 Y0.0802 
G01 X-0.9108 Y0.0789 
G01 X-0.9101 Y0.0773 
G01 X-0.9101 Y0.0535 
G01 X-0.8870 Y0.0535 
G01 X-0.8870 Y0.0616 
G01 X-0.8863 Y0.0632 
G01 X-0.8851 Y0.0645 
G01 X-0.8834 Y0.0652 
G01 X-0.8226 Y0.0652 
G01 X-0.8209 Y0.0645 
G01 X-0.8196 Y0.0632 
G01 X-0.8190 Y0.0616 
G01 X-0.8190 Y0.0204 
G01 X-0.8196 Y0.0188 
G01 X-0.8209 Y0.0175 
G01 X-0.8226 Y0.0168 
G01 X-0.8834 Y0.0168 
G01 X-0.8851 Y0.0175 
G01 X-0.8863 Y0.0188 
G01 X-0.8870 Y0.0204 
G01 X-0.8870 Y0.0285 
G01 X-0.9101 Y0.0285 
G01 X-0.9101 Y0.0125 
G01 X-0.9108 Y0.0108 
G01 X-0.9120 Y0.0096 
G01 X-0.9137 Y0.0089 
G01 X-0.9863 Y0.0089 
G01 X-0.9880 Y0.0096 
G01 X-0.9892 Y0.0108 
G01 X-0.9899 Y0.0125 
G01 X-0.9899 Y0.0324 
G01 X-1.0147 Y0.0324 
G01 X-1.0205 Y0.0266 
G01 X-1.0205 Y0.0221 
G01 X-1.0216 Y0.0164 
G01 X-1.0239 Y0.0110 
G01 X-1.0271 Y0.0062 
G01 X-1.0312 Y0.0021 
G01 X-1.0360 Y-0.0011 
G01 X-1.0414 Y-0.0034 
G01 X-1.0471 Y-0.0045 
G01 X-1.0529 Y-0.0045 
G01 X-1.0586 Y-0.0034 
G01 X-1.0640 Y-0.0011 
G01 X-1.0688 Y0.0021 
G01 X-1.0729 Y0.0062 
G01 X-1.0761 Y0.0110 
G01 X-1.0784 Y0.0164 
G01 X-1.0795 Y0.0221 
G01 X-1.0795 Y0.0279 
G01 X-1.0784 Y0.0336 
G01 X-1.0761 Y0.0390 
G01 X-1.0729 Y0.0438 
G01 X-1.0688 Y0.0479 
G01 X-1.0640 Y0.0511 
G01 X-1.0586 Y0.0534 
G01 X-1.0561 Y0.0539 
G01 X-1.0561 Y0.0875 
G01 X-1.2698 Y0.0875 
G01 X-1.3125 Y0.0448 
G01 X-1.3125 Y0.0385 
G01 X-1.3091 Y0.0385 
G01 X-1.3075 Y0.0378 
G01 X-1.3062 Y0.0365 
G01 X-1.3055 Y0.0349 
G01 X-1.3055 Y-0.0119 
G01 X-1.3062 Y-0.0135 
G01 X-1.3075 Y-0.0148 
G01 X-1.3091 Y-0.0155 
G01 X-1.3409 Y-0.0155 
G01 X-1.3425 Y-0.0148 
G01 X-1.3438 Y-0.0135 
G01 X-1.3445 Y-0.0119 
G01 X-1.3445 Y0.0349 
G01 X-1.3438 Y0.0365 
G01 X-1.3425 Y0.0378 
G01 X-1.3409 Y0.0385 
G01 X-1.3375 Y0.0385 
G01 X-1.3375 Y0.0516 
G01 X-1.3366 Y0.0548 
G01 X-1.3350 Y0.0577 
G01 X-1.2850 Y0.1077 
G01 X-1.2827 Y0.1100 
G01 X-1.2798 Y0.1116 
G01 X-1.2766 Y0.1125 
G01 X-1.0484 Y0.1125 
G01 X-1.0452 Y0.1116 
G01 X-1.0423 Y0.1100 
G01 X-1.0384 Y0.1061 
G01 X-0.9975 Y0.1061 
G01 X-0.9959 Y0.1054 
G01 X-0.9946 Y0.1041 
G01 X-0.9939 Y0.1025 
G01 X-0.9939 Y0.0574 
G01 X-0.9899 Y0.0574 
G01 X-0.9899 Y0.0773 
G01 X-0.9892 Y0.0789 
G01 X-0.9880 Y0.0802 
G01 X-0.9863 Y0.0809 
G00 Z0.1000 
G00 X-0.6113 Y0.2411 
G01 Z0.0000 F10.00 
G01 X-0.5387 Y0.2411 F20.00 
G01 X-0.5370 Y0.2404 
G01 X-0.5358 Y0.2392 
G01 X-0.5351 Y0.2375 
G01 X-0.5351 Y0.1727 
G01 X-0.5358 Y0.1711 
G01 X-0.5370 Y0.1698 
G01 X-0.5387 Y0.1691 
G01 X-0.6113 Y0.1691 
G01 X-0.6130 Y0.1698 
G01 X-0.6142 Y0.1711 
G01 X-0.6149 Y0.1727 
G01 X-0.6149 Y0.1926 
G01 X-0.6318 Y0.1926 
G01 X-0.6349 Y0.1935 
G01 X-0.6378 Y0.1951 
G01 X-0.6802 Y0.2375 
G01 X-0.7732 Y0.2375 
G01 X-0.7739 Y0.2360 
G01 X-0.7771 Y0.2312 
G01 X-0.7812 Y0.2271 
G01 X-0.7860 Y0.2239 
G01 X-0.7914 Y0.2216 
G01 X-0.7971 Y0.2205 
G01 X-0.8029 Y0.2205 
G01 X-0.8086 Y0.2216 
G01 X-0.8101 Y0.2222 
G01 X-0.8405 Y0.1918 
G01 X-0.8405 Y0.1832 
G01 X-0.8226 Y0.1832 
G01 X-0.8209 Y0.1825 
G01 X-0.8196 Y0.1812 
G01 X-0.8190 Y0.1796 
G01 X-0.8190 Y0.1384 
G01 X-0.8196 Y0.1368 
G01 X-0.8209 Y0.1355 
G01 X-0.8226 Y0.1348 
G01 X-0.8834 Y0.1348 
G01 X-0.8851 Y0.1355 
G01 X-0.8863 Y0.1368 
G01 X-0.8870 Y0.1384 
G01 X-0.8870 Y0.1426 
G01 X-0.9101 Y0.1426 
G01 X-0.9101 Y0.1227 
G01 X-0.9108 Y0.1211 
G01 X-0.9120 Y0.1198 
G01 X-0.9137 Y0.1191 
G01 X-0.9863 Y0.1191 
G01 X-0.9880 Y0.1198 
G01 X-0.9892 Y0.1211 
G01 X-0.9899 Y0.1227 
G01 X-0.9899 Y0.1426 
G01 X-0.9939 Y0.1426 
G01 X-0.9939 Y0.1225 
G01 X-0.9946 Y0.1209 
G01 X-0.9959 Y0.1196 
G01 X-0.9975 Y0.1189 
G01 X-1.0525 Y0.1189 
G01 X-1.0541 Y0.1196 
G01 X-1.0554 Y0.1209 
G01 X-1.0561 Y0.1225 
G01 X-1.0561 Y0.1775 
G01 X-1.0554 Y0.1791 
G01 X-1.0541 Y0.1804 
G01 X-1.0525 Y0.1811 
G01 X-0.9975 Y0.1811 
G01 X-0.9959 Y0.1804 
G01 X-0.9946 Y0.1791 
G01 X-0.9939 Y0.1775 
G01 X-0.9939 Y0.1676 
G01 X-0.9899 Y0.1676 
G01 X-0.9899 Y0.1875 
G01 X-0.9892 Y0.1892 
G01 X-0.9880 Y0.1904 
G01 X-0.9863 Y0.1911 
G01 X-0.9137 Y0.1911 
G01 X-0.9120 Y0.1904 
G01 X-0.9108 Y0.1892 
G01 X-0.9101 Y0.1875 
G01 X-0.9101 Y0.1676 
G01 X-0.8870 Y0.1676 
G01 X-0.8870 Y0.1796 
G01 X-0.8863 Y0.1812 
G01 X-0.8851 Y0.1825 
G01 X-0.8834 Y0.1832 
G01 X-0.8655 Y0.1832 
G01 X-0.8655 Y0.1987 
G01 X-0.8646 Y0.2018 
G01 X-0.8630 Y0.2047 
G01 X-0.8278 Y0.2399 
G01 X-0.8284 Y0.2414 
G01 X-0.8295 Y0.2471 
G01 X-0.8295 Y0.2529 
G01 X-0.8284 Y0.2586 
G01 X-0.8261 Y0.2640 
G01 X-0.8229 Y0.2688 
G01 X-0.8188 Y0.2729 
G01 X-0.8140 Y0.2761 
G01 X-0.8086 Y0.2784 
G01 X-0.8029 Y0.2795 
G01 X-0.7971 Y0.2795 
G01 X-0.7914 Y0.2784 
G01 X-0.7860 Y0.2761 
G01 X-0.7812 Y0.2729 
G01 X-0.7771 Y0.2688 
G01 X-0.7739 Y0.2640 
G01 X-0.7732 Y0.2625 
G01 X-0.6875 Y0.2625 
G01 X-0.6875 Y0.3016 
G01 X-0.6866 Y0.3048 
G01 X-0.6850 Y0.3077 
G01 X-0.6327 Y0.3600 
G01 X-0.6298 Y0.3616 
G01 X-0.6266 Y0.3625 
G01 X-0.3797 Y0.3625 
G01 X-0.3785 Y0.3653 
G01 X-0.3750 Y0.3705 
G01 X-0.3705 Y0.3750 
G01 X-0.3653 Y0.3785 
G01 X-0.3594 Y0.3810 
G01 X-0.3532 Y0.3822 
G01 X-0.3468 Y0.3822 
G01 X-0.3406 Y0.3810 
G01 X-0.3347 Y0.3785 
G01 X-0.3295 Y0.3750 
G01 X-0.3250 Y0.3705 
G01 X-0.3215 Y0.3653 
G01 X-0.3203 Y0.3625 
G01 X-0.3037 Y0.3625 
G01 X-0.3037 Y0.4255 
G01 X-0.3030 Y0.4272 
G01 X-0.3018 Y0.4284 
G01 X-0.3001 Y0.4291 
G01 X-0.1999 Y0.4291 
G01 X-0.1982 Y0.4284 
G01 X-0.1970 Y0.4272 
G01 X-0.1963 Y0.4255 
G01 X-0.1963 Y0.3233 
G01 X-0.1970 Y0.3217 
G01 X-0.1982 Y0.3204 
G01 X-0.1999 Y0.3197 
G01 X-0.3001 Y0.3197 
G01 X-0.3018 Y0.3204 
G01 X-0.3030 Y0.3217 
G01 X-0.3037 Y0.3233 
G01 X-0.3037 Y0.3375 
G01 X-0.3203 Y0.3375 
G01 X-0.3215 Y0.3347 
G01 X-0.3250 Y0.3295 
G01 X-0.3295 Y0.3250 
G01 X-0.3347 Y0.3215 
G01 X-0.3406 Y0.3190 
G01 X-0.3468 Y0.3178 
G01 X-0.3532 Y0.3178 
G01 X-0.3594 Y0.3190 
G01 X-0.3653 Y0.3215 
G01 X-0.3705 Y0.3250 
G01 X-0.3750 Y0.3295 
G01 X-0.3785 Y0.3347 
G01 X-0.3797 Y0.3375 
G01 X-0.6198 Y0.3375 
G01 X-0.6625 Y0.2948 
G01 X-0.6625 Y0.2552 
G01 X-0.6249 Y0.2176 
G01 X-0.6149 Y0.2176 
G01 X-0.6149 Y0.2375 
G01 X-0.6142 Y0.2392 
G01 X-0.6130 Y0.2404 
G01 X-0.6113 Y0.2411 
G00 Z0.1000 
G00 X-0.3822 Y0.1468 
G01 Z0.0000 F10.00 
G01 X-0.3822 Y0.1532 F20.00 
G01 X-0.3810 Y0.1594 
G01 X-0.3785 Y0.1653 
G01 X-0.3750 Y0.1705 
G01 X-0.3705 Y0.1750 
G01 X-0.3653 Y0.1785 
G01 X-0.3594 Y0.1810 
G01 X-0.3532 Y0.1822 
G01 X-0.3468 Y0.1822 
G01 X-0.3406 Y0.1810 
G01 X-0.3347 Y0.1785 
G01 X-0.3295 Y0.1750 
G01 X-0.3250 Y0.1705 
G01 X-0.3215 Y0.1653 
G01 X-0.3190 Y0.1594 
G01 X-0.3178 Y0.1532 
G01 X-0.3178 Y0.1468 
G01 X-0.3190 Y0.1406 
G01 X-0.3215 Y0.1347 
G01 X-0.3250 Y0.1295 
G01 X-0.3295 Y0.1250 
G01 X-0.3347 Y0.1215 
G01 X-0.3406 Y0.1190 
G01 X-0.3468 Y0.1178 
G01 X-0.3532 Y0.1178 
G01 X-0.3594 Y0.1190 
G01 X-0.3653 Y0.1215 
G01 X-0.3705 Y0.1250 
G01 X-0.3750 Y0.1295 
G01 X-0.3785 Y0.1347 
G01 X-0.3810 Y0.1406 
G01 X-0.3822 Y0.1468 
G00 Z0.1000 
G00 X-0.4822 Y0.3968 
G01 Z0.0000 F10.00 
G01 X-0.4822 Y0.4032 F20.00 
G01 X-0.4810 Y0.4094 
G01 X-0.4785 Y0.4153 
G01 X-0.4750 Y0.4205 
G01 X-0.4705 Y0.4250 
G01 X-0.4653 Y0.4285 
G01 X-0.4594 Y0.4310 
G01 X-0.4532 Y0.4322 
G01 X-0.4468 Y0.4322 
G01 X-0.4406 Y0.4310 
G01 X-0.4347 Y0.4285 
G01 X-0.4295 Y0.4250 
G01 X-0.4250 Y0.4205 
G01 X-0.4215 Y0.4153 
G01 X-0.4190 Y0.4094 
G01 X-0.4178 Y0.4032 
G01 X-0.4178 Y0.3968 
G01 X-0.4190 Y0.3906 
G01 X-0.4215 Y0.3847 
G01 X-0.4250 Y0.3795 
G01 X-0.4295 Y0.3750 
G01 X-0.4347 Y0.3715 
G01 X-0.4406 Y0.3690 
G01 X-0.4468 Y0.3678 
G01 X-0.4532 Y0.3678 
G01 X-0.4594 Y0.3690 
G01 X-0.4653 Y0.3715 
G01 X-0.4705 Y0.3750 
G01 X-0.4750 Y0.3795 
G01 X-0.4785 Y0.3847 
G01 X-0.4810 Y0.3906 
G01 X-0.4822 Y0.3968 
G00 Z0.1000 
G00 X-0.4785 Y0.3153 
G01 Z0.0000 F10.00 
G01 X-0.4750 Y0.3205 F20.00 
G01 X-0.4705 Y0.3250 
G01 X-0.4653 Y0.3285 
G01 X-0.4594 Y0.3310 
G01 X-0.4532 Y0.3322 
G01 X-0.4468 Y0.3322 
G01 X-0.4406 Y0.3310 
G01 X-0.4347 Y0.3285 
G01 X-0.4295 Y0.3250 
G01 X-0.4250 Y0.3205 
G01 X-0.4215 Y0.3153 
G01 X-0.4190 Y0.3094 
G01 X-0.4178 Y0.3032 
G01 X-0.4178 Y0.2968 
G01 X-0.4190 Y0.2906 
G01 X-0.4215 Y0.2847 
G01 X-0.4250 Y0.2795 
G01 X-0.4295 Y0.2750 
G01 X-0.4347 Y0.2715 
G01 X-0.4406 Y0.2690 
G01 X-0.4468 Y0.2678 
G01 X-0.4532 Y0.2678 
G01 X-0.4594 Y0.2690 
G01 X-0.4653 Y0.2715 
G01 X-0.4705 Y0.2750 
G01 X-0.4750 Y0.2795 
G01 X-0.4785 Y0.2847 
G01 X-0.4797 Y0.2875 
G01 X-0.5311 Y0.2875 
G01 X-0.5311 Y0.2625 
G01 X-0.5318 Y0.2608 
G01 X-0.5331 Y0.2596 
G01 X-0.5347 Y0.2589 
G01 X-0.6153 Y0.2589 
G01 X-0.6169 Y0.2596 
G01 X-0.6182 Y0.2608 
G01 X-0.6189 Y0.2625 
G01 X-0.6189 Y0.3273 
G01 X-0.6182 Y0.3289 
G01 X-0.6169 Y0.3302 
G01 X-0.6153 Y0.3309 
G01 X-0.5347 Y0.3309 
G01 X-0.5331 Y0.3302 
G01 X-0.5318 Y0.3289 
G01 X-0.5311 Y0.3273 
G01 X-0.5311 Y0.3125 
G01 X-0.4797 Y0.3125 
G01 X-0.4785 Y0.3153 
G00 Z0.1000 
G00 X-0.3822 Y0.2468 
G01 Z0.0000 F10.00 
G01 X-0.3822 Y0.2532 F20.00 
G01 X-0.3810 Y0.2594 
G01 X-0.3785 Y0.2653 
G01 X-0.3750 Y0.2705 
G01 X-0.3705 Y0.2750 
G01 X-0.3653 Y0.2785 
G01 X-0.3594 Y0.2810 
G01 X-0.3532 Y0.2822 
G01 X-0.3468 Y0.2822 
G01 X-0.3406 Y0.2810 
G01 X-0.3347 Y0.2785 
G01 X-0.3295 Y0.2750 
G01 X-0.3250 Y0.2705 
G01 X-0.3215 Y0.2653 
G01 X-0.3190 Y0.2594 
G01 X-0.3178 Y0.2532 
G01 X-0.3178 Y0.2468 
G01 X-0.3190 Y0.2406 
G01 X-0.3215 Y0.2347 
G01 X-0.3250 Y0.2295 
G01 X-0.3295 Y0.2250 
G01 X-0.3347 Y0.2215 
G01 X-0.3406 Y0.2190 
G01 X-0.3468 Y0.2178 
G01 X-0.3532 Y0.2178 
G01 X-0.3594 Y0.2190 
G01 X-0.3653 Y0.2215 
G01 X-0.3705 Y0.2250 
G01 X-0.3750 Y0.2295 
G01 X-0.3785 Y0.2347 
G01 X-0.3810 Y0.2406 
G01 X-0.3822 Y0.2468 
G00 Z0.1000 
G00 X-0.4579 Y-0.0375 
G01 Z0.0000 F10.00 
G01 X-0.4548 Y-0.0388 F20.00 
G01 X-0.4524 Y-0.0412 
G01 X-0.4511 Y-0.0443 
G01 X-0.4511 Y-0.0477 
G01 X-0.4524 Y-0.0508 
G01 X-0.4548 Y-0.0532 
G01 X-0.4579 Y-0.0545 
G01 X-0.5227 Y-0.0545 
G01 X-0.5258 Y-0.0532 
G01 X-0.5282 Y-0.0508 
G01 X-0.5295 Y-0.0477 
G01 X-0.5295 Y-0.0443 
G01 X-0.5282 Y-0.0412 
G01 X-0.4681 Y0.0189 
G01 X-0.4681 Y0.0272 
G01 X-0.4785 Y0.0376 
G01 X-0.5021 Y0.0376 
G01 X-0.5162 Y0.0235 
G01 X-0.5193 Y0.0222 
G01 X-0.5227 Y0.0222 
G01 X-0.5258 Y0.0235 
G01 X-0.5282 Y0.0259 
G01 X-0.5295 Y0.0290 
G01 X-0.5295 Y0.0324 
G01 X-0.5282 Y0.0355 
G01 X-0.5129 Y0.0509 
G01 X-0.5106 Y0.0531 
G01 X-0.5105 Y0.0533 
G01 X-0.5073 Y0.0546 
G01 X-0.4733 Y0.0546 
G01 X-0.4701 Y0.0533 
G01 X-0.4678 Y0.0509 
G01 X-0.4524 Y0.0355 
G01 X-0.4511 Y0.0324 
G01 X-0.4511 Y0.0137 
G01 X-0.4524 Y0.0106 
G01 X-0.4548 Y0.0082 
G01 X-0.5005 Y-0.0375 
G01 X-0.4579 Y-0.0375 
G00 Z0.1000 
G00 X-0.0435 Y0.3275 
G01 Z0.0000 F10.00 
G01 X-0.0421 Y0.3252 F20.00 
G01 X-0.0414 Y0.3225 
G01 X-0.0414 Y0.3197 
G01 X-0.0421 Y0.3170 
G01 X-0.0435 Y0.3147 
G01 X-0.0455 Y0.3127 
G01 X-0.0479 Y0.3113 
G01 X-0.0505 Y0.3106 
G01 X-0.0533 Y0.3106 
G01 X-0.0560 Y0.3113 
G01 X-0.0584 Y0.3127 
G01 X-0.0793 Y0.3336 
G01 X-0.1166 Y0.3336 
G01 X-0.1335 Y0.3167 
G01 X-0.1335 Y0.2334 
G01 X-0.1166 Y0.2165 
G01 X-0.0793 Y0.2165 
G01 X-0.0624 Y0.2334 
G01 X-0.0624 Y0.2646 
G01 X-0.0993 Y0.2646 
G01 X-0.1020 Y0.2653 
G01 X-0.1044 Y0.2667 
G01 X-0.1064 Y0.2686 
G01 X-0.1077 Y0.2710 
G01 X-0.1085 Y0.2737 
G01 X-0.1085 Y0.2764 
G01 X-0.1077 Y0.2791 
G01 X-0.1064 Y0.2815 
G01 X-0.1044 Y0.2835 
G01 X-0.1020 Y0.2848 
G01 X-0.0993 Y0.2856 
G01 X-0.0505 Y0.2856 
G01 X-0.0479 Y0.2848 
G01 X-0.0455 Y0.2835 
G01 X-0.0435 Y0.2815 
G01 X-0.0421 Y0.2791 
G01 X-0.0414 Y0.2764 
G01 X-0.0414 Y0.2276 
G01 X-0.0421 Y0.2250 
G01 X-0.0435 Y0.2226 
G01 X-0.0455 Y0.2206 
G01 X-0.0685 Y0.1976 
G01 X-0.0709 Y0.1962 
G01 X-0.0710 Y0.1962 
G01 X-0.0736 Y0.1955 
G01 X-0.1224 Y0.1955 
G01 X-0.1250 Y0.1962 
G01 X-0.1274 Y0.1976 
G01 X-0.1294 Y0.1996 
G01 X-0.1524 Y0.2226 
G01 X-0.1538 Y0.2250 
G01 X-0.1545 Y0.2276 
G01 X-0.1545 Y0.3225 
G01 X-0.1538 Y0.3252 
G01 X-0.1524 Y0.3275 
G01 X-0.1274 Y0.3525 
G01 X-0.1250 Y0.3539 
G01 X-0.1224 Y0.3546 
G01 X-0.0736 Y0.3546 
G01 X-0.0709 Y0.3539 
G01 X-0.0685 Y0.3525 
G01 X-0.0665 Y0.3506 
G01 X-0.0435 Y0.3275 
G00 Z0.1000 
G00 X-0.1550 Y0.0934 
G01 Z0.0000 F10.00 
G01 X-0.1514 Y0.1020 F20.00 
G01 X-0.1464 Y0.1098 
G01 X-0.1402 Y0.1168 
G01 X-0.1329 Y0.1227 
G01 X-0.1249 Y0.1274 
G01 X-0.1161 Y0.1307 
G01 X-0.1070 Y0.1326 
G01 X-0.0977 Y0.1330 
G01 X-0.0884 Y0.1318 
G01 X-0.0794 Y0.1292 
G01 X-0.0710 Y0.1252 
G01 X-0.0633 Y0.1199 
G01 X-0.0566 Y0.1135 
G01 X-0.0510 Y0.1060 
G01 X-0.0466 Y0.0977 
G01 X-0.0437 Y0.0889 
G01 X-0.0422 Y0.0797 
G01 X-0.0422 Y0.0703 
G01 X-0.0437 Y0.0611 
G01 X-0.0466 Y0.0523 
G01 X-0.0510 Y0.0440 
G01 X-0.0566 Y0.0365 
G01 X-0.0633 Y0.0301 
G01 X-0.0710 Y0.0248 
G01 X-0.0794 Y0.0208 
G01 X-0.0884 Y0.0182 
G01 X-0.0977 Y0.0170 
G01 X-0.1070 Y0.0174 
G01 X-0.1161 Y0.0193 
G01 X-0.1249 Y0.0226 
G01 X-0.1329 Y0.0273 
G01 X-0.1402 Y0.0332 
G01 X-0.1464 Y0.0402 
G01 X-0.1514 Y0.0480 
G01 X-0.1550 Y0.0566 
G01 X-0.1572 Y0.0657 
G01 X-0.1580 Y0.0750 
G01 X-0.1572 Y0.0843 
G01 X-0.1550 Y0.0934 
G00 Z0.1000 
G00 X-0.1550 Y0.4934 
G01 Z0.0000 F10.00 
G01 X-0.1514 Y0.5020 F20.00 
G01 X-0.1514 Y0.5020 
G01 X-0.1464 Y0.5098 
G01 X-0.1402 Y0.5168 
G01 X-0.1329 Y0.5227 
G01 X-0.1249 Y0.5274 
G01 X-0.1161 Y0.5307 
G01 X-0.1070 Y0.5326 
G01 X-0.0977 Y0.5330 
G01 X-0.0884 Y0.5318 
G01 X-0.0794 Y0.5292 
G01 X-0.0710 Y0.5252 
G01 X-0.0633 Y0.5199 
G01 X-0.0566 Y0.5135 
G01 X-0.0510 Y0.5060 
G01 X-0.0466 Y0.4977 
G01 X-0.0437 Y0.4889 
G01 X-0.0422 Y0.4797 
G01 X-0.0422 Y0.4703 
G01 X-0.0437 Y0.4611 
G01 X-0.0466 Y0.4523 
G01 X-0.0510 Y0.4440 
G01 X-0.0566 Y0.4365 
G01 X-0.0633 Y0.4301 
G01 X-0.0710 Y0.4248 
G01 X-0.0794 Y0.4208 
G01 X-0.0884 Y0.4182 
G01 X-0.0977 Y0.4170 
G01 X-0.1070 Y0.4174 
G01 X-0.1161 Y0.4193 
G01 X-0.1249 Y0.4226 
G01 X-0.1329 Y0.4273 
G01 X-0.1402 Y0.4332 
G01 X-0.1464 Y0.4402 
G01 X-0.1514 Y0.4480 
G01 X-0.1550 Y0.4566 
G01 X-0.1572 Y0.4657 
G01 X-0.1580 Y0.4750 
G01 X-0.1572 Y0.4843 
G01 X-0.1550 Y0.4934 
G00 Z0.1000 
G00 X-0.4374 Y0.0290 
G01 Z0.0000 F10.00 
G01 X-0.4374 Y0.0324 F20.00 
G01 X-0.4374 Y0.0325 
G01 X-0.4361 Y0.0355 
G01 X-0.4337 Y0.0379 
G01 X-0.4208 Y0.0509 
G01 X-0.4184 Y0.0533 
G01 X-0.4153 Y0.0546 
G01 X-0.3812 Y0.0546 
G01 X-0.3781 Y0.0533 
G01 X-0.3627 Y0.0379 
G01 X-0.3603 Y0.0355 
G01 X-0.3590 Y0.0324 
G01 X-0.3590 Y-0.0323 
G01 X-0.3603 Y-0.0355 
G01 X-0.3605 Y-0.0356 
G01 X-0.3627 Y-0.0379 
G01 X-0.3757 Y-0.0508 
G01 X-0.3781 Y-0.0532 
G01 X-0.3812 Y-0.0545 
G01 X-0.4153 Y-0.0545 
G01 X-0.4184 Y-0.0532 
G01 X-0.4337 Y-0.0379 
G01 X-0.4361 Y-0.0355 
G01 X-0.4374 Y-0.0323 
G01 X-0.4374 Y-0.0290 
G01 X-0.4374 Y0.0290 
G00 Z0.1000 
G00 X-0.3320 Y0.0082 
G01 Z0.0000 F10.00 
G01 X-0.3352 Y0.0069 F20.00 
G01 X-0.3385 Y0.0069 
G01 X-0.3417 Y0.0082 
G01 X-0.3440 Y0.0106 
G01 X-0.3453 Y0.0137 
G01 X-0.3453 Y0.0171 
G01 X-0.3440 Y0.0202 
G01 X-0.3134 Y0.0509 
G01 X-0.3110 Y0.0533 
G01 X-0.3078 Y0.0546 
G01 X-0.3045 Y0.0546 
G01 X-0.3013 Y0.0533 
G01 X-0.2989 Y0.0509 
G01 X-0.2976 Y0.0478 
G01 X-0.2976 Y-0.0375 
G01 X-0.2738 Y-0.0375 
G01 X-0.2706 Y-0.0388 
G01 X-0.2683 Y-0.0412 
G01 X-0.2670 Y-0.0443 
G01 X-0.2670 Y-0.0477 
G01 X-0.2683 Y-0.0508 
G01 X-0.2706 Y-0.0532 
G01 X-0.2738 Y-0.0545 
G01 X-0.3385 Y-0.0545 
G01 X-0.3417 Y-0.0532 
G01 X-0.3440 Y-0.0508 
G01 X-0.3453 Y-0.0477 
G01 X-0.3453 Y-0.0443 
G01 X-0.3440 Y-0.0412 
G01 X-0.3417 Y-0.0388 
G01 X-0.3385 Y-0.0375 
G01 X-0.3146 Y-0.0375 
G01 X-0.3146 Y0.0256 
G01 X-0.3320 Y0.0082 
G00 Z0.1000 
G00 X-0.1817 Y0.0546 
G01 Z0.0000 F10.00 
G01 X-0.1786 Y0.0533 F20.00 
G01 X-0.1762 Y0.0509 
G01 X-0.1749 Y0.0478 
G01 X-0.1749 Y0.0444 
G01 X-0.1762 Y0.0413 
G01 X-0.1786 Y0.0389 
G01 X-0.1817 Y0.0376 
G01 X-0.2363 Y0.0376 
G01 X-0.2363 Y0.0138 
G01 X-0.2191 Y0.0224 
G01 X-0.2189 Y0.0226 
G01 X-0.2176 Y0.0231 
G01 X-0.2164 Y0.0237 
G01 X-0.2160 Y0.0238 
G01 X-0.2158 Y0.0239 
G01 X-0.2144 Y0.0239 
G01 X-0.2130 Y0.0240 
G01 X-0.2127 Y0.0239 
G01 X-0.1970 Y0.0239 
G01 X-0.1939 Y0.0226 
G01 X-0.1915 Y0.0202 
G01 X-0.1786 Y0.0072 
G01 X-0.1762 Y0.0049 
G01 X-0.1749 Y0.0017 
G01 X-0.1749 Y-0.0323 
G01 X-0.1762 Y-0.0355 
G01 X-0.1763 Y-0.0356 
G01 X-0.1786 Y-0.0379 
G01 X-0.1915 Y-0.0508 
G01 X-0.1939 Y-0.0532 
G01 X-0.1970 Y-0.0545 
G01 X-0.2311 Y-0.0545 
G01 X-0.2342 Y-0.0532 
G01 X-0.2520 Y-0.0355 
G01 X-0.2533 Y-0.0323 
G01 X-0.2533 Y-0.0290 
G01 X-0.2520 Y-0.0258 
G01 X-0.2496 Y-0.0234 
G01 X-0.2465 Y-0.0222 
G01 X-0.2431 Y-0.0222 
G01 X-0.2399 Y-0.0234 
G01 X-0.2259 Y-0.0375 
G01 X-0.2022 Y-0.0375 
G01 X-0.1919 Y-0.0271 
G01 X-0.1919 Y-0.0035 
G01 X-0.2022 Y0.0069 
G01 X-0.2121 Y0.0069 
G01 X-0.2397 Y-0.0069 
G01 X-0.2399 Y-0.0072 
G01 X-0.2412 Y-0.0077 
G01 X-0.2425 Y-0.0083 
G01 X-0.2428 Y-0.0083 
G01 X-0.2431 Y-0.0085 
G01 X-0.2445 Y-0.0085 
G01 X-0.2458 Y-0.0086 
G01 X-0.2461 Y-0.0085 
G01 X-0.2465 Y-0.0085 
G01 X-0.2477 Y-0.0079 
G01 X-0.2491 Y-0.0075 
G01 X-0.2493 Y-0.0073 
G01 X-0.2496 Y-0.0072 
G01 X-0.2506 Y-0.0062 
G01 X-0.2516 Y-0.0053 
G01 X-0.2517 Y-0.0050 
G01 X-0.2520 Y-0.0048 
G01 X-0.2525 Y-0.0035 
G01 X-0.2531 Y-0.0022 
G01 X-0.2531 Y-0.0019 
G01 X-0.2533 Y-0.0017 
G01 X-0.2533 Y-0.0003 
G01 X-0.2534 Y0.0011 
G01 X-0.2533 Y0.0014 
G01 X-0.2533 Y0.0478 
G01 X-0.2520 Y0.0509 
G01 X-0.2496 Y0.0533 
G01 X-0.2465 Y0.0546 
G01 X-0.2431 Y0.0546 
G01 X-0.1817 Y0.0546 
G00 Z0.1000 
G00 X-1.1445 Y0.3651 
G01 Z0.0000 F10.00 
G01 X-1.1445 Y0.4119 F20.00 
G01 X-1.1438 Y0.4135 
G01 X-1.1425 Y0.4148 
G01 X-1.1409 Y0.4155 
G01 X-1.1091 Y0.4155 
G01 X-1.1075 Y0.4148 
G01 X-1.1062 Y0.4135 
G01 X-1.1055 Y0.4119 
G01 X-1.1055 Y0.3651 
G01 X-1.1062 Y0.3635 
G01 X-1.1075 Y0.3622 
G01 X-1.1091 Y0.3615 
G01 X-1.1409 Y0.3615 
G01 X-1.1425 Y0.3622 
G01 X-1.1438 Y0.3635 
G01 X-1.1445 Y0.3651 
G00 Z0.1000 
G00 X-1.1945 Y0.3651 
G01 Z0.0000 F10.00 
G01 X-1.1945 Y0.4119 F20.00 
G01 X-1.1938 Y0.4135 
G01 X-1.1925 Y0.4148 
G01 X-1.1909 Y0.4155 
G01 X-1.1591 Y0.4155 
G01 X-1.1575 Y0.4148 
G01 X-1.1562 Y0.4135 
G01 X-1.1555 Y0.4119 
G01 X-1.1555 Y0.3651 
G01 X-1.1562 Y0.3635 
G01 X-1.1575 Y0.3622 
G01 X-1.1591 Y0.3615 
G01 X-1.1909 Y0.3615 
G01 X-1.1925 Y0.3622 
G01 X-1.1938 Y0.3635 
G01 X-1.1945 Y0.3651 
G00 Z0.1000 
G00 X-1.2445 Y0.3651 
G01 Z0.0000 F10.00 
G01 X-1.2445 Y0.4119 F20.00 
G01 X-1.2438 Y0.4135 
G01 X-1.2425 Y0.4148 
G01 X-1.2409 Y0.4155 
G01 X-1.2375 Y0.4155 
G01 X-1.2375 Y0.4232 
G01 X-1.2390 Y0.4239 
G01 X-1.2438 Y0.4271 
G01 X-1.2479 Y0.4312 
G01 X-1.2511 Y0.4360 
G01 X-1.2534 Y0.4414 
G01 X-1.2545 Y0.4471 
G01 X-1.2545 Y0.4529 
G01 X-1.2534 Y0.4586 
G01 X-1.2511 Y0.4640 
G01 X-1.2479 Y0.4688 
G01 X-1.2438 Y0.4729 
G01 X-1.2390 Y0.4761 
G01 X-1.2336 Y0.4784 
G01 X-1.2279 Y0.4795 
G01 X-1.2221 Y0.4795 
G01 X-1.2164 Y0.4784 
G01 X-1.2110 Y0.4761 
G01 X-1.2062 Y0.4729 
G01 X-1.2021 Y0.4688 
G01 X-1.1989 Y0.4640 
G01 X-1.1966 Y0.4586 
G01 X-1.1955 Y0.4529 
G01 X-1.1955 Y0.4471 
G01 X-1.1966 Y0.4414 
G01 X-1.1989 Y0.4360 
G01 X-1.2021 Y0.4312 
G01 X-1.2062 Y0.4271 
G01 X-1.2110 Y0.4239 
G01 X-1.2125 Y0.4232 
G01 X-1.2125 Y0.4155 
G01 X-1.2091 Y0.4155 
G01 X-1.2075 Y0.4148 
G01 X-1.2062 Y0.4135 
G01 X-1.2055 Y0.4119 
G01 X-1.2055 Y0.3651 
G01 X-1.2062 Y0.3635 
G01 X-1.2075 Y0.3622 
G01 X-1.2091 Y0.3615 
G01 X-1.2409 Y0.3615 
G01 X-1.2425 Y0.3622 
G01 X-1.2438 Y0.3635 
G01 X-1.2445 Y0.3651 
G00 Z0.1000 
G00 X-1.2945 Y0.3651 
G01 Z0.0000 F10.00 
G01 X-1.2945 Y0.4119 F20.00 
G01 X-1.2938 Y0.4135 
G01 X-1.2925 Y0.4148 
G01 X-1.2909 Y0.4155 
G01 X-1.2591 Y0.4155 
G01 X-1.2575 Y0.4148 
G01 X-1.2562 Y0.4135 
G01 X-1.2555 Y0.4119 
G01 X-1.2555 Y0.3651 
G01 X-1.2562 Y0.3635 
G01 X-1.2575 Y0.3622 
G01 X-1.2591 Y0.3615 
G01 X-1.2909 Y0.3615 
G01 X-1.2925 Y0.3622 
G01 X-1.2938 Y0.3635 
G01 X-1.2945 Y0.3651 
G00 Z0.1000 
G00 X-1.3945 Y0.3651 
G01 Z0.0000 F10.00 
G01 X-1.3945 Y0.4119 F20.00 
G01 X-1.3938 Y0.4135 
G01 X-1.3925 Y0.4148 
G01 X-1.3909 Y0.4155 
G01 X-1.3591 Y0.4155 
G01 X-1.3575 Y0.4148 
G01 X-1.3562 Y0.4135 
G01 X-1.3555 Y0.4119 
G01 X-1.3555 Y0.3651 
G01 X-1.3562 Y0.3635 
G01 X-1.3575 Y0.3622 
G01 X-1.3591 Y0.3615 
G01 X-1.3625 Y0.3615 
G01 X-1.3625 Y0.3484 
G01 X-1.3634 Y0.3452 
G01 X-1.3650 Y0.3423 
G01 X-1.3900 Y0.3173 
G01 X-1.3923 Y0.3150 
G01 X-1.3952 Y0.3134 
G01 X-1.3984 Y0.3125 
G01 X-1.5439 Y0.3125 
G01 X-1.5439 Y0.2975 
G01 X-1.5446 Y0.2959 
G01 X-1.5459 Y0.2946 
G01 X-1.5475 Y0.2939 
G01 X-1.6025 Y0.2939 
G01 X-1.6041 Y0.2946 
G01 X-1.6054 Y0.2959 
G01 X-1.6061 Y0.2975 
G01 X-1.6061 Y0.3525 
G01 X-1.6054 Y0.3541 
G01 X-1.6041 Y0.3554 
G01 X-1.6025 Y0.3561 
G01 X-1.5475 Y0.3561 
G01 X-1.5459 Y0.3554 
G01 X-1.5446 Y0.3541 
G01 X-1.5439 Y0.3525 
G01 X-1.5439 Y0.3375 
G01 X-1.4052 Y0.3375 
G01 X-1.3875 Y0.3552 
G01 X-1.3875 Y0.3615 
G01 X-1.3909 Y0.3615 
G01 X-1.3925 Y0.3622 
G01 X-1.3938 Y0.3635 
G01 X-1.3945 Y0.3651 
G00 Z0.1000 
G00 X-1.5445 Y0.3651 
G01 Z0.0000 F10.00 
G01 X-1.5445 Y0.4119 F20.00 
G01 X-1.5438 Y0.4135 
G01 X-1.5425 Y0.4148 
G01 X-1.5409 Y0.4155 
G01 X-1.5375 Y0.4155 
G01 X-1.5375 Y0.4448 
G01 X-1.5782 Y0.4855 
G01 X-1.5784 Y0.4855 
G01 X-1.5851 Y0.4868 
G01 X-1.5913 Y0.4894 
G01 X-1.5970 Y0.4932 
G01 X-1.6018 Y0.4980 
G01 X-1.6056 Y0.5037 
G01 X-1.6082 Y0.5099 
G01 X-1.6095 Y0.5166 
G01 X-1.6095 Y0.5834 
G01 X-1.6082 Y0.5901 
G01 X-1.6056 Y0.5963 
G01 X-1.6018 Y0.6020 
G01 X-1.5970 Y0.6068 
G01 X-1.5913 Y0.6106 
G01 X-1.5851 Y0.6132 
G01 X-1.5784 Y0.6145 
G01 X-1.5716 Y0.6145 
G01 X-1.5649 Y0.6132 
G01 X-1.5587 Y0.6106 
G01 X-1.5530 Y0.6068 
G01 X-1.5482 Y0.6020 
G01 X-1.5444 Y0.5963 
G01 X-1.5418 Y0.5901 
G01 X-1.5405 Y0.5834 
G01 X-1.5405 Y0.5166 
G01 X-1.5418 Y0.5099 
G01 X-1.5444 Y0.5037 
G01 X-1.5482 Y0.4980 
G01 X-1.5518 Y0.4944 
G01 X-1.5183 Y0.4609 
G01 X-1.5173 Y0.4604 
G01 X-1.5150 Y0.4581 
G01 X-1.5134 Y0.4552 
G01 X-1.5125 Y0.4520 
G01 X-1.5125 Y0.4155 
G01 X-1.5091 Y0.4155 
G01 X-1.5075 Y0.4148 
G01 X-1.5062 Y0.4135 
G01 X-1.5055 Y0.4119 
G01 X-1.5055 Y0.3651 
G01 X-1.5062 Y0.3635 
G01 X-1.5075 Y0.3622 
G01 X-1.5091 Y0.3615 
G01 X-1.5409 Y0.3615 
G01 X-1.5425 Y0.3622 
G01 X-1.5438 Y0.3635 
G01 X-1.5445 Y0.3651 
G00 Z0.1000 
G00 X-1.5445 Y-0.0119 
G01 Z0.0000 F10.00 
G01 X-1.5445 Y0.0349 F20.00 
G01 X-1.5438 Y0.0365 
G01 X-1.5425 Y0.0378 
G01 X-1.5409 Y0.0385 
G01 X-1.5375 Y0.0385 
G01 X-1.5375 Y0.1016 
G01 X-1.5366 Y0.1048 
G01 X-1.5350 Y0.1077 
G01 X-1.3100 Y0.3327 
G01 X-1.3077 Y0.3350 
G01 X-1.3048 Y0.3366 
G01 X-1.3016 Y0.3375 
G01 X-1.1052 Y0.3375 
G01 X-0.9850 Y0.4577 
G01 X-0.9827 Y0.4600 
G01 X-0.9798 Y0.4616 
G01 X-0.9766 Y0.4625 
G01 X-0.9302 Y0.4625 
G01 X-0.8982 Y0.4944 
G01 X-0.9018 Y0.4980 
G01 X-0.9056 Y0.5037 
G01 X-0.9082 Y0.5099 
G01 X-0.9095 Y0.5166 
G01 X-0.9095 Y0.5834 
G01 X-0.9082 Y0.5901 
G01 X-0.9056 Y0.5963 
G01 X-0.9018 Y0.6020 
G01 X-0.8970 Y0.6068 
G01 X-0.8913 Y0.6106 
G01 X-0.8851 Y0.6132 
G01 X-0.8784 Y0.6145 
G01 X-0.8716 Y0.6145 
G01 X-0.8649 Y0.6132 
G01 X-0.8587 Y0.6106 
G01 X-0.8530 Y0.6068 
G01 X-0.8482 Y0.6020 
G01 X-0.8444 Y0.5963 
G01 X-0.8418 Y0.5901 
G01 X-0.8405 Y0.5834 
G01 X-0.8405 Y0.5166 
G01 X-0.8418 Y0.5099 
G01 X-0.8444 Y0.5037 
G01 X-0.8482 Y0.4980 
G01 X-0.8530 Y0.4932 
G01 X-0.8587 Y0.4894 
G01 X-0.8649 Y0.4868 
G01 X-0.8716 Y0.4855 
G01 X-0.8718 Y0.4855 
G01 X-0.9173 Y0.4400 
G01 X-0.9202 Y0.4384 
G01 X-0.9234 Y0.4375 
G01 X-0.9698 Y0.4375 
G01 X-1.0923 Y0.3150 
G01 X-1.0952 Y0.3134 
G01 X-1.0984 Y0.3125 
G01 X-1.2948 Y0.3125 
G01 X-1.5125 Y0.0948 
G01 X-1.5125 Y0.0385 
G01 X-1.5091 Y0.0385 
G01 X-1.5075 Y0.0378 
G01 X-1.5062 Y0.0365 
G01 X-1.5055 Y0.0349 
G01 X-1.5055 Y-0.0119 
G01 X-1.5062 Y-0.0135 
G01 X-1.5075 Y-0.0148 
G01 X-1.5091 Y-0.0155 
G01 X-1.5409 Y-0.0155 
G01 X-1.5425 Y-0.0148 
G01 X-1.5438 Y-0.0135 
G01 X-1.5445 Y-0.0119 
G00 Z0.1000 
G00 X-1.4945 Y-0.0119 
G01 Z0.0000 F10.00 
G01 X-1.4945 Y0.0349 F20.00 
G01 X-1.4938 Y0.0365 
G01 X-1.4925 Y0.0378 
G01 X-1.4909 Y0.0385 
G01 X-1.4875 Y0.0385 
G01 X-1.4875 Y0.1016 
G01 X-1.4866 Y0.1048 
G01 X-1.4850 Y0.1077 
G01 X-1.3100 Y0.2827 
G01 X-1.3077 Y0.2850 
G01 X-1.3048 Y0.2866 
G01 X-1.3016 Y0.2875 
G01 X-1.1052 Y0.2875 
G01 X-0.9850 Y0.4077 
G01 X-0.9827 Y0.4100 
G01 X-0.9798 Y0.4116 
G01 X-0.9766 Y0.4125 
G01 X-0.9003 Y0.4125 
G01 X-0.8066 Y0.5062 
G01 X-0.8082 Y0.5099 
G01 X-0.8095 Y0.5166 
G01 X-0.8095 Y0.5834 
G01 X-0.8082 Y0.5901 
G01 X-0.8056 Y0.5963 
G01 X-0.8018 Y0.6020 
G01 X-0.7970 Y0.6068 
G01 X-0.7913 Y0.6106 
G01 X-0.7851 Y0.6132 
G01 X-0.7784 Y0.6145 
G01 X-0.7716 Y0.6145 
G01 X-0.7649 Y0.6132 
G01 X-0.7587 Y0.6106 
G01 X-0.7530 Y0.6068 
G01 X-0.7482 Y0.6020 
G01 X-0.7444 Y0.5963 
G01 X-0.7418 Y0.5901 
G01 X-0.7405 Y0.5834 
G01 X-0.7405 Y0.5166 
G01 X-0.7418 Y0.5099 
G01 X-0.7444 Y0.5037 
G01 X-0.7482 Y0.4980 
G01 X-0.7530 Y0.4932 
G01 X-0.7587 Y0.4894 
G01 X-0.7649 Y0.4868 
G01 X-0.7716 Y0.4855 
G01 X-0.7784 Y0.4855 
G01 X-0.7851 Y0.4868 
G01 X-0.7890 Y0.4884 
G01 X-0.8874 Y0.3900 
G01 X-0.8903 Y0.3884 
G01 X-0.8934 Y0.3875 
G01 X-0.9698 Y0.3875 
G01 X-1.0923 Y0.2650 
G01 X-1.0952 Y0.2634 
G01 X-1.0984 Y0.2625 
G01 X-1.2948 Y0.2625 
G01 X-1.4625 Y0.0948 
G01 X-1.4625 Y0.0385 
G01 X-1.4591 Y0.0385 
G01 X-1.4575 Y0.0378 
G01 X-1.4562 Y0.0365 
G01 X-1.4555 Y0.0349 
G01 X-1.4555 Y-0.0119 
G01 X-1.4562 Y-0.0135 
G01 X-1.4575 Y-0.0148 
G01 X-1.4591 Y-0.0155 
G01 X-1.4909 Y-0.0155 
G01 X-1.4925 Y-0.0148 
G01 X-1.4938 Y-0.0135 
G01 X-1.4945 Y-0.0119 
G00 Z0.1000 
G00 X-1.2945 Y-0.0119 
G01 Z0.0000 F10.00 
G01 X-1.2945 Y0.0349 F20.00 
G01 X-1.2938 Y0.0365 
G01 X-1.2925 Y0.0378 
G01 X-1.2909 Y0.0385 
G01 X-1.2591 Y0.0385 
G01 X-1.2575 Y0.0378 
G01 X-1.2562 Y0.0365 
G01 X-1.2555 Y0.0349 
G01 X-1.2555 Y-0.0119 
G01 X-1.2562 Y-0.0135 
G01 X-1.2575 Y-0.0148 
G01 X-1.2591 Y-0.0155 
G01 X-1.2909 Y-0.0155 
G01 X-1.2925 Y-0.0148 
G01 X-1.2938 Y-0.0135 
G01 X-1.2945 Y-0.0119 
G00 Z0.1000 
G00 X-1.2445 Y-0.0119 
G01 Z0.0000 F10.00 
G01 X-1.2445 Y0.0349 F20.00 
G01 X-1.2438 Y0.0365 
G01 X-1.2425 Y0.0378 
G01 X-1.2409 Y0.0385 
G01 X-1.2091 Y0.0385 
G01 X-1.2075 Y0.0378 
G01 X-1.2062 Y0.0365 
G01 X-1.2055 Y0.0349 
G01 X-1.2055 Y-0.0119 
G01 X-1.2062 Y-0.0135 
G01 X-1.2075 Y-0.0148 
G01 X-1.2091 Y-0.0155 
G01 X-1.2409 Y-0.0155 
G01 X-1.2425 Y-0.0148 
G01 X-1.2438 Y-0.0135 
G01 X-1.2445 Y-0.0119 
G00 Z0.1000 
G00 X-1.1945 Y-0.0119 
G01 Z0.0000 F10.00 
G01 X-1.1945 Y0.0349 F20.00 
G01 X-1.1938 Y0.0365 
G01 X-1.1925 Y0.0378 
G01 X-1.1909 Y0.0385 
G01 X-1.1591 Y0.0385 
G01 X-1.1575 Y0.0378 
G01 X-1.1562 Y0.0365 
G01 X-1.1555 Y0.0349 
G01 X-1.1555 Y-0.0119 
G01 X-1.1562 Y-0.0135 
G01 X-1.1575 Y-0.0148 
G01 X-1.1591 Y-0.0155 
G01 X-1.1909 Y-0.0155 
G01 X-1.1925 Y-0.0148 
G01 X-1.1938 Y-0.0135 
G01 X-1.1945 Y-0.0119 
G00 Z0.1000 
G00 X-1.1445 Y-0.0119 
G01 Z0.0000 F10.00 
G01 X-1.1445 Y0.0349 F20.00 
G01 X-1.1438 Y0.0365 
G01 X-1.1425 Y0.0378 
G01 X-1.1409 Y0.0385 
G01 X-1.1091 Y0.0385 
G01 X-1.1075 Y0.0378 
G01 X-1.1062 Y0.0365 
G01 X-1.1055 Y0.0349 
G01 X-1.1055 Y-0.0119 
G01 X-1.1062 Y-0.0135 
G01 X-1.1075 Y-0.0148 
G01 X-1.1091 Y-0.0155 
G01 X-1.1409 Y-0.0155 
G01 X-1.1425 Y-0.0148 
G01 X-1.1438 Y-0.0135 
G01 X-1.1445 Y-0.0119 
G00 Z0.1000 
G00 X-1.6811 Y0.0475 
G01 Z0.0000 F10.00 
G01 X-1.6811 Y0.0641 F20.00 
G01 X-1.6827 Y0.0650 
G01 X-1.7827 Y0.1650 
G01 X-1.7850 Y0.1673 
G01 X-1.7866 Y0.1702 
G01 X-1.7875 Y0.1734 
G01 X-1.7875 Y0.2465 
G01 X-1.7897 Y0.2475 
G01 X-1.7948 Y0.2509 
G01 X-1.7991 Y0.2552 
G01 X-1.8025 Y0.2603 
G01 X-1.8049 Y0.2659 
G01 X-1.8061 Y0.2719 
G01 X-1.8061 Y0.2781 
G01 X-1.8049 Y0.2841 
G01 X-1.8025 Y0.2897 
G01 X-1.7991 Y0.2948 
G01 X-1.7948 Y0.2991 
G01 X-1.7897 Y0.3025 
G01 X-1.7875 Y0.3035 
G01 X-1.7875 Y0.3851 
G01 X-1.8023 Y0.3851 
G01 X-1.8039 Y0.3858 
G01 X-1.8052 Y0.3870 
G01 X-1.8059 Y0.3887 
G01 X-1.8059 Y0.4613 
G01 X-1.8052 Y0.4630 
G01 X-1.8039 Y0.4642 
G01 X-1.8023 Y0.4649 
G01 X-1.7875 Y0.4649 
G01 X-1.7875 Y0.4878 
G01 X-1.7913 Y0.4894 
G01 X-1.7970 Y0.4932 
G01 X-1.8018 Y0.4980 
G01 X-1.8056 Y0.5037 
G01 X-1.8082 Y0.5099 
G01 X-1.8095 Y0.5166 
G01 X-1.8095 Y0.5834 
G01 X-1.8082 Y0.5901 
G01 X-1.8056 Y0.5963 
G01 X-1.8018 Y0.6020 
G01 X-1.7970 Y0.6068 
G01 X-1.7913 Y0.6106 
G01 X-1.7851 Y0.6132 
G01 X-1.7784 Y0.6145 
G01 X-1.7716 Y0.6145 
G01 X-1.7649 Y0.6132 
G01 X-1.7587 Y0.6106 
G01 X-1.7530 Y0.6068 
G01 X-1.7482 Y0.6020 
G01 X-1.7444 Y0.5963 
G01 X-1.7418 Y0.5901 
G01 X-1.7405 Y0.5834 
G01 X-1.7405 Y0.5166 
G01 X-1.7418 Y0.5099 
G01 X-1.7444 Y0.5037 
G01 X-1.7482 Y0.4980 
G01 X-1.7530 Y0.4932 
G01 X-1.7587 Y0.4894 
G01 X-1.7625 Y0.4878 
G01 X-1.7625 Y0.4649 
G01 X-1.7375 Y0.4649 
G01 X-1.7358 Y0.4642 
G01 X-1.7346 Y0.4630 
G01 X-1.7339 Y0.4613 
G01 X-1.7339 Y0.4375 
G01 X-1.7175 Y0.4375 
G01 X-1.7175 Y0.4554 
G01 X-1.7168 Y0.4571 
G01 X-1.7155 Y0.4583 
G01 X-1.7139 Y0.4590 
G01 X-1.6609 Y0.4590 
G01 X-1.6593 Y0.4583 
G01 X-1.6580 Y0.4571 
G01 X-1.6573 Y0.4554 
G01 X-1.6573 Y0.3946 
G01 X-1.6580 Y0.3929 
G01 X-1.6593 Y0.3917 
G01 X-1.6609 Y0.3910 
G01 X-1.7139 Y0.3910 
G01 X-1.7155 Y0.3917 
G01 X-1.7168 Y0.3929 
G01 X-1.7175 Y0.3946 
G01 X-1.7175 Y0.4125 
G01 X-1.7339 Y0.4125 
G01 X-1.7339 Y0.3887 
G01 X-1.7346 Y0.3870 
G01 X-1.7358 Y0.3858 
G01 X-1.7375 Y0.3851 
G01 X-1.7625 Y0.3851 
G01 X-1.7625 Y0.3035 
G01 X-1.7603 Y0.3025 
G01 X-1.7552 Y0.2991 
G01 X-1.7509 Y0.2948 
G01 X-1.7475 Y0.2897 
G01 X-1.7451 Y0.2841 
G01 X-1.7439 Y0.2781 
G01 X-1.7439 Y0.2719 
G01 X-1.7451 Y0.2659 
G01 X-1.7475 Y0.2603 
G01 X-1.7509 Y0.2552 
G01 X-1.7552 Y0.2509 
G01 X-1.7603 Y0.2475 
G01 X-1.7625 Y0.2465 
G01 X-1.7625 Y0.1802 
G01 X-1.6811 Y0.0988 
G01 X-1.6811 Y0.1025 
G01 X-1.6804 Y0.1041 
G01 X-1.6791 Y0.1054 
G01 X-1.6775 Y0.1061 
G01 X-1.6225 Y0.1061 
G01 X-1.6209 Y0.1054 
G01 X-1.6196 Y0.1041 
G01 X-1.6189 Y0.1025 
G01 X-1.6189 Y0.0475 
G01 X-1.6196 Y0.0459 
G01 X-1.6209 Y0.0446 
G01 X-1.6225 Y0.0439 
G01 X-1.6775 Y0.0439 
G01 X-1.6791 Y0.0446 
G01 X-1.6804 Y0.0459 
G01 X-1.6811 Y0.0475 
G00 Z0.1000 
G00 X-0.6549 Y0.4128 
G01 Z0.0000 F10.00 
G01 X-0.6526 Y0.4151 F20.00 
G01 X-0.6497 Y0.4168 
G01 X-0.6465 Y0.4176 
G01 X-0.6189 Y0.4176 
G01 X-0.6189 Y0.4375 
G01 X-0.6182 Y0.4392 
G01 X-0.6169 Y0.4404 
G01 X-0.6153 Y0.4411 
G01 X-0.5347 Y0.4411 
G01 X-0.5331 Y0.4404 
G01 X-0.5318 Y0.4392 
G01 X-0.5311 Y0.4375 
G01 X-0.5311 Y0.3727 
G01 X-0.5318 Y0.3711 
G01 X-0.5331 Y0.3698 
G01 X-0.5347 Y0.3691 
G01 X-0.6153 Y0.3691 
G01 X-0.6169 Y0.3698 
G01 X-0.6182 Y0.3711 
G01 X-0.6189 Y0.3727 
G01 X-0.6189 Y0.3926 
G01 X-0.6397 Y0.3926 
G01 X-0.6939 Y0.3384 
G01 X-0.6939 Y0.2975 
G01 X-0.6946 Y0.2959 
G01 X-0.6959 Y0.2946 
G01 X-0.6975 Y0.2939 
G01 X-0.7525 Y0.2939 
G01 X-0.7541 Y0.2946 
G01 X-0.7554 Y0.2959 
G01 X-0.7561 Y0.2975 
G01 X-0.7561 Y0.3525 
G01 X-0.7554 Y0.3541 
G01 X-0.7541 Y0.3554 
G01 X-0.7525 Y0.3561 
G01 X-0.7116 Y0.3561 
G01 X-0.6549 Y0.4128 
G00 Z0.1000 
G00 X-1.9516 Y-0.0830 
G01 Z0.0000 F10.00 
G01 X-1.9545 Y-0.0818 F20.00 
G01 X-1.9568 Y-0.0795 
G01 X-1.9580 Y-0.0766 
G01 X-1.9580 Y0.6516 
G01 X-1.9568 Y0.6545 
G01 X-1.9545 Y0.6568 
G01 X-1.9516 Y0.6580 
G01 X0.0016 Y0.6580 
G01 X0.0045 Y0.6568 
G01 X0.0068 Y0.6545 
G01 X0.0080 Y0.6516 
G01 X0.0080 Y-0.0766 
G01 X0.0068 Y-0.0795 
G01 X0.0045 Y-0.0818 
G01 X0.0016 Y-0.0830 
G01 X-0.0016 Y-0.0830 
G01 X-1.9516 Y-0.0830 
G00 Z0.1000 
G00 X-0.4830 Y0.3176 
G01 Z0.0000 F10.00 
G01 X-0.4789 Y0.3237 F20.00 
G01 X-0.4737 Y0.3289 
G01 X-0.4683 Y0.3325 
G01 X-0.5283 Y0.3325 
G01 X-0.5276 Y0.3318 
G01 X-0.5261 Y0.3283 
G01 X-0.5261 Y0.3175 
G01 X-0.4830 Y0.3175 
G01 X-0.4830 Y0.3176 
G00 Z0.1000 
G00 X-0.3885 Y0.0326 
G01 Z0.0000 F10.00 
G01 X-0.4080 Y0.0326 F20.00 
G01 X-0.4154 Y0.0251 
G01 X-0.4154 Y0.0019 
G01 X-0.3866 Y0.0307 
G01 X-0.3885 Y0.0326 
G00 Z0.1000 
G00 X-0.3885 Y-0.0325 
G01 Z0.0000 F10.00 
G01 X-0.3810 Y-0.0251 F20.00 
G01 X-0.3810 Y-0.0019 
G01 X-0.4098 Y-0.0307 
G01 X-0.4080 Y-0.0325 
G01 X-0.3885 Y-0.0325 
G00 Z0.1000 
G00 X-0.1365 Y0.0692 
G01 Z0.0000 F10.00 
G01 X-0.1352 Y0.0636 F20.00 
G01 X-0.1330 Y0.0582 
G01 X-0.1299 Y0.0533 
G01 X-0.1262 Y0.0488 
G01 X-0.1217 Y0.0451 
G01 X-0.1168 Y0.0420 
G01 X-0.1114 Y0.0398 
G01 X-0.1058 Y0.0385 
G01 X-0.1000 Y0.0380 
G01 X-0.0942 Y0.0385 
G01 X-0.0886 Y0.0398 
G01 X-0.0832 Y0.0420 
G01 X-0.0783 Y0.0451 
G01 X-0.0738 Y0.0488 
G01 X-0.0701 Y0.0533 
G01 X-0.0670 Y0.0582 
G01 X-0.0648 Y0.0636 
G01 X-0.0635 Y0.0692 
G01 X-0.0630 Y0.0750 
G01 X-0.0635 Y0.0808 
G01 X-0.0648 Y0.0864 
G01 X-0.0670 Y0.0918 
G01 X-0.0701 Y0.0967 
G01 X-0.0738 Y0.1012 
G01 X-0.0783 Y0.1049 
G01 X-0.0832 Y0.1080 
G01 X-0.0886 Y0.1102 
G01 X-0.0942 Y0.1115 
G01 X-0.1000 Y0.1120 
G01 X-0.1058 Y0.1115 
G01 X-0.1114 Y0.1102 
G01 X-0.1168 Y0.1080 
G01 X-0.1217 Y0.1049 
G01 X-0.1262 Y0.1012 
G01 X-0.1299 Y0.0967 
G01 X-0.1330 Y0.0918 
G01 X-0.1352 Y0.0864 
G01 X-0.1365 Y0.0808 
G01 X-0.1370 Y0.0750 
G01 X-0.1365 Y0.0692 
G00 Z0.1000 
G00 X-0.1365 Y0.4692 
G01 Z0.0000 F10.00 
G01 X-0.1365 Y0.4692 F20.00 
G01 X-0.1352 Y0.4636 
G01 X-0.1330 Y0.4582 
G01 X-0.1299 Y0.4533 
G01 X-0.1262 Y0.4488 
G01 X-0.1217 Y0.4451 
G01 X-0.1168 Y0.4420 
G01 X-0.1114 Y0.4398 
G01 X-0.1058 Y0.4385 
G01 X-0.1000 Y0.4380 
G01 X-0.0942 Y0.4385 
G01 X-0.0886 Y0.4398 
G01 X-0.0832 Y0.4420 
G01 X-0.0783 Y0.4451 
G01 X-0.0738 Y0.4488 
G01 X-0.0701 Y0.4533 
G01 X-0.0670 Y0.4582 
G01 X-0.0648 Y0.4636 
G01 X-0.0635 Y0.4692 
G01 X-0.0630 Y0.4750 
G01 X-0.0635 Y0.4808 
G01 X-0.0648 Y0.4864 
G01 X-0.0670 Y0.4918 
G01 X-0.0701 Y0.4967 
G01 X-0.0738 Y0.5012 
G01 X-0.0783 Y0.5049 
G01 X-0.0832 Y0.5080 
G01 X-0.0886 Y0.5102 
G01 X-0.0942 Y0.5115 
G01 X-0.1000 Y0.5120 
G01 X-0.1058 Y0.5115 
G01 X-0.1114 Y0.5102 
G01 X-0.1168 Y0.5080 
G01 X-0.1217 Y0.5049 
G01 X-0.1262 Y0.5012 
G01 X-0.1299 Y0.4967 
G01 X-0.1330 Y0.4918 
G01 X-0.1352 Y0.4864 
G01 X-0.1365 Y0.4808 
G01 X-0.1370 Y0.4750 
G01 X-0.1365 Y0.4692 
G00 Z0.1000 
G00 X-1.6523 Y0.3974 
G01 Z0.0000 F10.00 
G01 X-1.6477 Y0.4021 F20.00 
G01 X-1.6477 Y0.4479 
G01 X-1.6523 Y0.4526 
G01 X-1.6523 Y0.3974 
G00 Z0.1000 
G00 X-0.6357 Y0.3640 
G01 Z0.0000 F10.00 
G01 X-0.6318 Y0.3663 F20.00 
G01 X-0.6273 Y0.3675 
G01 X-0.6217 Y0.3675 
G01 X-0.6224 Y0.3682 
G01 X-0.6239 Y0.3717 
G01 X-0.6239 Y0.3876 
G01 X-0.6376 Y0.3876 
G01 X-0.6889 Y0.3363 
G01 X-0.6889 Y0.3108 
G01 X-0.6357 Y0.3640 
G00 Z0.1000 
G00 X-1.9370 Y0.6370 
G01 Z0.0000 F10.00 
G01 X-1.9370 Y-0.0620 F20.00 
G01 X-0.0130 Y-0.0620 
G01 X-0.0130 Y0.6370 
G01 X-1.9370 Y0.6370 
G00 Z0.1000 
G00 X-0.6589 Y0.4159 
G01 Z0.0000 F10.00 
G01 X-0.6556 Y0.4191 F20.00 
G01 X-0.6516 Y0.4214 
G01 X-0.6472 Y0.4226 
G01 X-0.6239 Y0.4226 
G01 X-0.6239 Y0.4385 
G01 X-0.6224 Y0.4420 
G01 X-0.6198 Y0.4447 
G01 X-0.6163 Y0.4461 
G01 X-0.5337 Y0.4461 
G01 X-0.5302 Y0.4447 
G01 X-0.5276 Y0.4420 
G01 X-0.5261 Y0.4385 
G01 X-0.5261 Y0.3717 
G01 X-0.5276 Y0.3682 
G01 X-0.5283 Y0.3675 
G01 X-0.4683 Y0.3675 
G01 X-0.4737 Y0.3711 
G01 X-0.4789 Y0.3763 
G01 X-0.4830 Y0.3824 
G01 X-0.4858 Y0.3891 
G01 X-0.4872 Y0.3963 
G01 X-0.4872 Y0.4037 
G01 X-0.4858 Y0.4109 
G01 X-0.4830 Y0.4176 
G01 X-0.4789 Y0.4237 
G01 X-0.4737 Y0.4289 
G01 X-0.4676 Y0.4330 
G01 X-0.4609 Y0.4358 
G01 X-0.4537 Y0.4372 
G01 X-0.4463 Y0.4372 
G01 X-0.4391 Y0.4358 
G01 X-0.4324 Y0.4330 
G01 X-0.4263 Y0.4289 
G01 X-0.4211 Y0.4237 
G01 X-0.4170 Y0.4176 
G01 X-0.4142 Y0.4109 
G01 X-0.4128 Y0.4037 
G01 X-0.4128 Y0.3963 
G01 X-0.4142 Y0.3891 
G01 X-0.4170 Y0.3824 
G01 X-0.4211 Y0.3763 
G01 X-0.4263 Y0.3711 
G01 X-0.4317 Y0.3675 
G01 X-0.3830 Y0.3675 
G01 X-0.3830 Y0.3676 
G01 X-0.3789 Y0.3737 
G01 X-0.3737 Y0.3789 
G01 X-0.3676 Y0.3830 
G01 X-0.3609 Y0.3858 
G01 X-0.3537 Y0.3872 
G01 X-0.3463 Y0.3872 
G01 X-0.3391 Y0.3858 
G01 X-0.3324 Y0.3830 
G01 X-0.3263 Y0.3789 
G01 X-0.3211 Y0.3737 
G01 X-0.3170 Y0.3676 
G01 X-0.3170 Y0.3675 
G01 X-0.3087 Y0.3675 
G01 X-0.3087 Y0.4265 
G01 X-0.3073 Y0.4300 
G01 X-0.3046 Y0.4327 
G01 X-0.3011 Y0.4341 
G01 X-0.1989 Y0.4341 
G01 X-0.1954 Y0.4327 
G01 X-0.1927 Y0.4300 
G01 X-0.1913 Y0.4265 
G01 X-0.1913 Y0.3223 
G01 X-0.1927 Y0.3188 
G01 X-0.1954 Y0.3162 
G01 X-0.1989 Y0.3147 
G01 X-0.3011 Y0.3147 
G01 X-0.3046 Y0.3162 
G01 X-0.3073 Y0.3188 
G01 X-0.3087 Y0.3223 
G01 X-0.3087 Y0.3325 
G01 X-0.3170 Y0.3325 
G01 X-0.3170 Y0.3324 
G01 X-0.3211 Y0.3263 
G01 X-0.3263 Y0.3211 
G01 X-0.3324 Y0.3170 
G01 X-0.3391 Y0.3142 
G01 X-0.3463 Y0.3128 
G01 X-0.3537 Y0.3128 
G01 X-0.3609 Y0.3142 
G01 X-0.3676 Y0.3170 
G01 X-0.3737 Y0.3211 
G01 X-0.3789 Y0.3263 
G01 X-0.3830 Y0.3324 
G01 X-0.3830 Y0.3325 
G01 X-0.4317 Y0.3325 
G01 X-0.4263 Y0.3289 
G01 X-0.4211 Y0.3237 
G01 X-0.4170 Y0.3176 
G01 X-0.4142 Y0.3109 
G01 X-0.4128 Y0.3037 
G01 X-0.4128 Y0.2963 
G01 X-0.4142 Y0.2891 
G01 X-0.4170 Y0.2824 
G01 X-0.4211 Y0.2763 
G01 X-0.4263 Y0.2711 
G01 X-0.4324 Y0.2670 
G01 X-0.4391 Y0.2642 
G01 X-0.4463 Y0.2628 
G01 X-0.4537 Y0.2628 
G01 X-0.4609 Y0.2642 
G01 X-0.4676 Y0.2670 
G01 X-0.4737 Y0.2711 
G01 X-0.4789 Y0.2763 
G01 X-0.4830 Y0.2824 
G01 X-0.4830 Y0.2825 
G01 X-0.5261 Y0.2825 
G01 X-0.5261 Y0.2615 
G01 X-0.5276 Y0.2580 
G01 X-0.5302 Y0.2553 
G01 X-0.5337 Y0.2539 
G01 X-0.6163 Y0.2539 
G01 X-0.6198 Y0.2553 
G01 X-0.6224 Y0.2580 
G01 X-0.6239 Y0.2615 
G01 X-0.6239 Y0.3264 
G01 X-0.6575 Y0.2928 
G01 X-0.6575 Y0.2572 
G01 X-0.6229 Y0.2226 
G01 X-0.6199 Y0.2226 
G01 X-0.6199 Y0.2385 
G01 X-0.6185 Y0.2420 
G01 X-0.6158 Y0.2447 
G01 X-0.6123 Y0.2461 
G01 X-0.5377 Y0.2461 
G01 X-0.5342 Y0.2447 
G01 X-0.5315 Y0.2420 
G01 X-0.5301 Y0.2385 
G01 X-0.5301 Y0.1717 
G01 X-0.5315 Y0.1682 
G01 X-0.5342 Y0.1656 
G01 X-0.5377 Y0.1641 
G01 X-0.6123 Y0.1641 
G01 X-0.6158 Y0.1656 
G01 X-0.6185 Y0.1682 
G01 X-0.6199 Y0.1717 
G01 X-0.6199 Y0.1876 
G01 X-0.6324 Y0.1876 
G01 X-0.6369 Y0.1888 
G01 X-0.6409 Y0.1911 
G01 X-0.6822 Y0.2325 
G01 X-0.7702 Y0.2325 
G01 X-0.7732 Y0.2280 
G01 X-0.7780 Y0.2232 
G01 X-0.7837 Y0.2194 
G01 X-0.7899 Y0.2168 
G01 X-0.7966 Y0.2155 
G01 X-0.8034 Y0.2155 
G01 X-0.8087 Y0.2166 
G01 X-0.8355 Y0.1898 
G01 X-0.8355 Y0.1882 
G01 X-0.8216 Y0.1882 
G01 X-0.8181 Y0.1868 
G01 X-0.8154 Y0.1841 
G01 X-0.8140 Y0.1806 
G01 X-0.8140 Y0.1374 
G01 X-0.8154 Y0.1339 
G01 X-0.8181 Y0.1313 
G01 X-0.8216 Y0.1298 
G01 X-0.8844 Y0.1298 
G01 X-0.8879 Y0.1313 
G01 X-0.8906 Y0.1339 
G01 X-0.8920 Y0.1374 
G01 X-0.8920 Y0.1376 
G01 X-0.9051 Y0.1376 
G01 X-0.9051 Y0.1217 
G01 X-0.9065 Y0.1182 
G01 X-0.9092 Y0.1156 
G01 X-0.9127 Y0.1141 
G01 X-0.9873 Y0.1141 
G01 X-0.9908 Y0.1156 
G01 X-0.9918 Y0.1166 
G01 X-0.9930 Y0.1154 
G01 X-0.9965 Y0.1139 
G01 X-1.0392 Y0.1139 
G01 X-1.0363 Y0.1111 
G01 X-0.9965 Y0.1111 
G01 X-0.9930 Y0.1096 
G01 X-0.9904 Y0.1070 
G01 X-0.9889 Y0.1035 
G01 X-0.9889 Y0.0852 
G01 X-0.9873 Y0.0859 
G01 X-0.9127 Y0.0859 
G01 X-0.9092 Y0.0844 
G01 X-0.9065 Y0.0818 
G01 X-0.9051 Y0.0783 
G01 X-0.9051 Y0.0585 
G01 X-0.8920 Y0.0585 
G01 X-0.8920 Y0.0626 
G01 X-0.8906 Y0.0661 
G01 X-0.8879 Y0.0687 
G01 X-0.8844 Y0.0702 
G01 X-0.8216 Y0.0702 
G01 X-0.8181 Y0.0687 
G01 X-0.8154 Y0.0661 
G01 X-0.8140 Y0.0626 
G01 X-0.8140 Y0.0194 
G01 X-0.8154 Y0.0159 
G01 X-0.8181 Y0.0132 
G01 X-0.8216 Y0.0118 
G01 X-0.8844 Y0.0118 
G01 X-0.8879 Y0.0132 
G01 X-0.8906 Y0.0159 
G01 X-0.8920 Y0.0194 
G01 X-0.8920 Y0.0235 
G01 X-0.9051 Y0.0235 
G01 X-0.9051 Y0.0115 
G01 X-0.9065 Y0.0080 
G01 X-0.9092 Y0.0053 
G01 X-0.9127 Y0.0039 
G01 X-0.9873 Y0.0039 
G01 X-0.9908 Y0.0053 
G01 X-0.9935 Y0.0080 
G01 X-0.9949 Y0.0115 
G01 X-0.9949 Y0.0274 
G01 X-1.0126 Y0.0274 
G01 X-1.0155 Y0.0245 
G01 X-1.0155 Y0.0216 
G01 X-1.0168 Y0.0149 
G01 X-1.0194 Y0.0087 
G01 X-1.0232 Y0.0030 
G01 X-1.0280 Y-0.0018 
G01 X-1.0337 Y-0.0056 
G01 X-1.0399 Y-0.0082 
G01 X-1.0466 Y-0.0095 
G01 X-1.0534 Y-0.0095 
G01 X-1.0601 Y-0.0082 
G01 X-1.0663 Y-0.0056 
G01 X-1.0720 Y-0.0018 
G01 X-1.0768 Y0.0030 
G01 X-1.0806 Y0.0087 
G01 X-1.0832 Y0.0149 
G01 X-1.0845 Y0.0216 
G01 X-1.0845 Y0.0284 
G01 X-1.0832 Y0.0351 
G01 X-1.0806 Y0.0413 
G01 X-1.0768 Y0.0470 
G01 X-1.0720 Y0.0518 
G01 X-1.0663 Y0.0556 
G01 X-1.0611 Y0.0578 
G01 X-1.0611 Y0.0825 
G01 X-1.2678 Y0.0825 
G01 X-1.3071 Y0.0431 
G01 X-1.3046 Y0.0421 
G01 X-1.3019 Y0.0394 
G01 X-1.3005 Y0.0359 
G01 X-1.3005 Y-0.0129 
G01 X-1.3019 Y-0.0164 
G01 X-1.3046 Y-0.0191 
G01 X-1.3081 Y-0.0205 
G01 X-1.3419 Y-0.0205 
G01 X-1.3454 Y-0.0191 
G01 X-1.3481 Y-0.0164 
G01 X-1.3495 Y-0.0129 
G01 X-1.3495 Y0.0359 
G01 X-1.3481 Y0.0394 
G01 X-1.3454 Y0.0421 
G01 X-1.3425 Y0.0432 
G01 X-1.3425 Y0.0523 
G01 X-1.3413 Y0.0568 
G01 X-1.3390 Y0.0607 
G01 X-1.2890 Y0.1107 
G01 X-1.2857 Y0.1140 
G01 X-1.2818 Y0.1163 
G01 X-1.2773 Y0.1175 
G01 X-1.0591 Y0.1175 
G01 X-1.0596 Y0.1180 
G01 X-1.0611 Y0.1215 
G01 X-1.0611 Y0.1785 
G01 X-1.0596 Y0.1820 
G01 X-1.0570 Y0.1846 
G01 X-1.0535 Y0.1861 
G01 X-0.9965 Y0.1861 
G01 X-0.9949 Y0.1854 
G01 X-0.9949 Y0.1885 
G01 X-0.9935 Y0.1920 
G01 X-0.9908 Y0.1947 
G01 X-0.9873 Y0.1961 
G01 X-0.9127 Y0.1961 
G01 X-0.9092 Y0.1947 
G01 X-0.9065 Y0.1920 
G01 X-0.9051 Y0.1885 
G01 X-0.9051 Y0.1726 
G01 X-0.8920 Y0.1726 
G01 X-0.8920 Y0.1806 
G01 X-0.8906 Y0.1841 
G01 X-0.8879 Y0.1868 
G01 X-0.8844 Y0.1882 
G01 X-0.8705 Y0.1882 
G01 X-0.8705 Y0.1993 
G01 X-0.8693 Y0.2038 
G01 X-0.8670 Y0.2078 
G01 X-0.8334 Y0.2413 
G01 X-0.8345 Y0.2466 
G01 X-0.8345 Y0.2534 
G01 X-0.8332 Y0.2601 
G01 X-0.8306 Y0.2663 
G01 X-0.8268 Y0.2720 
G01 X-0.8220 Y0.2768 
G01 X-0.8163 Y0.2806 
G01 X-0.8101 Y0.2832 
G01 X-0.8034 Y0.2845 
G01 X-0.7966 Y0.2845 
G01 X-0.7899 Y0.2832 
G01 X-0.7837 Y0.2806 
G01 X-0.7780 Y0.2768 
G01 X-0.7732 Y0.2720 
G01 X-0.7702 Y0.2675 
G01 X-0.6925 Y0.2675 
G01 X-0.6925 Y0.2909 
G01 X-0.6930 Y0.2904 
G01 X-0.6965 Y0.2889 
G01 X-0.7535 Y0.2889 
G01 X-0.7570 Y0.2904 
G01 X-0.7596 Y0.2930 
G01 X-0.7611 Y0.2965 
G01 X-0.7611 Y0.3535 
G01 X-0.7596 Y0.3570 
G01 X-0.7570 Y0.3596 
G01 X-0.7535 Y0.3611 
G01 X-0.7137 Y0.3611 
G01 X-0.6589 Y0.4159 
G00 Z0.1000 
G00 X-1.6861 Y0.0465 
G01 Z0.0000 F10.00 
G01 X-1.6861 Y0.0613 F20.00 
G01 X-1.7857 Y0.1610 
G01 X-1.7890 Y0.1643 
G01 X-1.7913 Y0.1682 
G01 X-1.7925 Y0.1727 
G01 X-1.7925 Y0.2433 
G01 X-1.7980 Y0.2470 
G01 X-1.8030 Y0.2520 
G01 X-1.8070 Y0.2579 
G01 X-1.8097 Y0.2645 
G01 X-1.8111 Y0.2714 
G01 X-1.8111 Y0.2786 
G01 X-1.8097 Y0.2855 
G01 X-1.8070 Y0.2921 
G01 X-1.8030 Y0.2980 
G01 X-1.7980 Y0.3030 
G01 X-1.7925 Y0.3067 
G01 X-1.7925 Y0.3801 
G01 X-1.8033 Y0.3801 
G01 X-1.8068 Y0.3815 
G01 X-1.8094 Y0.3842 
G01 X-1.8109 Y0.3877 
G01 X-1.8109 Y0.4623 
G01 X-1.8094 Y0.4658 
G01 X-1.8068 Y0.4685 
G01 X-1.8033 Y0.4699 
G01 X-1.7925 Y0.4699 
G01 X-1.7925 Y0.4845 
G01 X-1.7937 Y0.4850 
G01 X-1.8002 Y0.4893 
G01 X-1.8057 Y0.4948 
G01 X-1.8100 Y0.5013 
G01 X-1.8130 Y0.5085 
G01 X-1.8145 Y0.5161 
G01 X-1.8145 Y0.5839 
G01 X-1.8130 Y0.5915 
G01 X-1.8100 Y0.5987 
G01 X-1.8057 Y0.6052 
G01 X-1.8002 Y0.6107 
G01 X-1.7937 Y0.6150 
G01 X-1.7865 Y0.6180 
G01 X-1.7789 Y0.6195 
G01 X-1.7711 Y0.6195 
G01 X-1.7635 Y0.6180 
G01 X-1.7563 Y0.6150 
G01 X-1.7498 Y0.6107 
G01 X-1.7443 Y0.6052 
G01 X-1.7400 Y0.5987 
G01 X-1.7370 Y0.5915 
G01 X-1.7355 Y0.5839 
G01 X-1.7355 Y0.5161 
G01 X-1.7370 Y0.5085 
G01 X-1.7400 Y0.5013 
G01 X-1.7443 Y0.4948 
G01 X-1.7498 Y0.4893 
G01 X-1.7563 Y0.4850 
G01 X-1.7575 Y0.4845 
G01 X-1.7575 Y0.4699 
G01 X-1.7365 Y0.4699 
G01 X-1.7330 Y0.4685 
G01 X-1.7303 Y0.4658 
G01 X-1.7289 Y0.4623 
G01 X-1.7289 Y0.4425 
G01 X-1.7225 Y0.4425 
G01 X-1.7225 Y0.4564 
G01 X-1.7210 Y0.4599 
G01 X-1.7184 Y0.4626 
G01 X-1.7149 Y0.4640 
G01 X-1.6638 Y0.4640 
G01 X-1.6806 Y0.4808 
G01 X-1.6865 Y0.4820 
G01 X-1.6937 Y0.4850 
G01 X-1.7002 Y0.4893 
G01 X-1.7057 Y0.4948 
G01 X-1.7100 Y0.5013 
G01 X-1.7130 Y0.5085 
G01 X-1.7145 Y0.5161 
G01 X-1.7145 Y0.5839 
G01 X-1.7130 Y0.5915 
G01 X-1.7100 Y0.5987 
G01 X-1.7057 Y0.6052 
G01 X-1.7002 Y0.6107 
G01 X-1.6937 Y0.6150 
G01 X-1.6865 Y0.6180 
G01 X-1.6789 Y0.6195 
G01 X-1.6711 Y0.6195 
G01 X-1.6635 Y0.6180 
G01 X-1.6563 Y0.6150 
G01 X-1.6498 Y0.6107 
G01 X-1.6443 Y0.6052 
G01 X-1.6400 Y0.5987 
G01 X-1.6370 Y0.5915 
G01 X-1.6355 Y0.5839 
G01 X-1.6355 Y0.5161 
G01 X-1.6370 Y0.5085 
G01 X-1.6400 Y0.5013 
G01 X-1.6443 Y0.4948 
G01 X-1.6447 Y0.4944 
G01 X-1.6143 Y0.4640 
G01 X-1.5851 Y0.4640 
G01 X-1.5816 Y0.4626 
G01 X-1.5790 Y0.4599 
G01 X-1.5775 Y0.4564 
G01 X-1.5775 Y0.3936 
G01 X-1.5790 Y0.3901 
G01 X-1.5816 Y0.3874 
G01 X-1.5851 Y0.3860 
G01 X-1.6143 Y0.3860 
G01 X-1.6575 Y0.3428 
G01 X-1.6575 Y0.2890 
G01 X-1.6349 Y0.2890 
G01 X-1.6314 Y0.2876 
G01 X-1.6288 Y0.2849 
G01 X-1.6273 Y0.2814 
G01 X-1.6273 Y0.2186 
G01 X-1.6288 Y0.2151 
G01 X-1.6314 Y0.2124 
G01 X-1.6349 Y0.2110 
G01 X-1.6575 Y0.2110 
G01 X-1.6575 Y0.2067 
G01 X-1.6520 Y0.2030 
G01 X-1.6470 Y0.1980 
G01 X-1.6430 Y0.1921 
G01 X-1.6403 Y0.1855 
G01 X-1.6389 Y0.1786 
G01 X-1.6389 Y0.1714 
G01 X-1.6403 Y0.1645 
G01 X-1.6430 Y0.1579 
G01 X-1.6470 Y0.1520 
G01 X-1.6520 Y0.1470 
G01 X-1.6579 Y0.1430 
G01 X-1.6645 Y0.1403 
G01 X-1.6714 Y0.1389 
G01 X-1.6786 Y0.1389 
G01 X-1.6855 Y0.1403 
G01 X-1.6921 Y0.1430 
G01 X-1.6980 Y0.1470 
G01 X-1.7030 Y0.1520 
G01 X-1.7070 Y0.1579 
G01 X-1.7097 Y0.1645 
G01 X-1.7111 Y0.1714 
G01 X-1.7111 Y0.1786 
G01 X-1.7097 Y0.1855 
G01 X-1.7070 Y0.1921 
G01 X-1.7030 Y0.1980 
G01 X-1.6980 Y0.2030 
G01 X-1.6925 Y0.2067 
G01 X-1.6925 Y0.2121 
G01 X-1.6934 Y0.2124 
G01 X-1.6960 Y0.2151 
G01 X-1.6975 Y0.2186 
G01 X-1.6975 Y0.2814 
G01 X-1.6960 Y0.2849 
G01 X-1.6934 Y0.2876 
G01 X-1.6925 Y0.2879 
G01 X-1.6925 Y0.3523 
G01 X-1.6913 Y0.3568 
G01 X-1.6890 Y0.3607 
G01 X-1.6638 Y0.3860 
G01 X-1.7149 Y0.3860 
G01 X-1.7184 Y0.3874 
G01 X-1.7210 Y0.3901 
G01 X-1.7225 Y0.3936 
G01 X-1.7225 Y0.4075 
G01 X-1.7289 Y0.4075 
G01 X-1.7289 Y0.3877 
G01 X-1.7303 Y0.3842 
G01 X-1.7330 Y0.3815 
G01 X-1.7365 Y0.3801 
G01 X-1.7575 Y0.3801 
G01 X-1.7575 Y0.3067 
G01 X-1.7520 Y0.3030 
G01 X-1.7470 Y0.2980 
G01 X-1.7430 Y0.2921 
G01 X-1.7403 Y0.2855 
G01 X-1.7389 Y0.2786 
G01 X-1.7389 Y0.2714 
G01 X-1.7403 Y0.2645 
G01 X-1.7430 Y0.2579 
G01 X-1.7470 Y0.2520 
G01 X-1.7520 Y0.2470 
G01 X-1.7575 Y0.2433 
G01 X-1.7575 Y0.1822 
G01 X-1.6834 Y0.1082 
G01 X-1.6820 Y0.1096 
G01 X-1.6785 Y0.1111 
G01 X-1.6215 Y0.1111 
G01 X-1.6180 Y0.1096 
G01 X-1.6154 Y0.1070 
G01 X-1.6139 Y0.1035 
G01 X-1.6139 Y0.0465 
G01 X-1.6154 Y0.0430 
G01 X-1.6180 Y0.0404 
G01 X-1.6215 Y0.0389 
G01 X-1.6785 Y0.0389 
G01 X-1.6820 Y0.0404 
G01 X-1.6846 Y0.0430 
G01 X-1.6861 Y0.0465 
G00 Z0.1000 
G00 X-0.4145 Y0.5161 
G01 Z0.0000 F10.00 
G01 X-0.4145 Y0.5839 F20.00 
G01 X-0.4130 Y0.5915 
G01 X-0.4100 Y0.5987 
G01 X-0.4057 Y0.6052 
G01 X-0.4002 Y0.6107 
G01 X-0.3937 Y0.6150 
G01 X-0.3865 Y0.6180 
G01 X-0.3789 Y0.6195 
G01 X-0.3711 Y0.6195 
G01 X-0.3635 Y0.6180 
G01 X-0.3563 Y0.6150 
G01 X-0.3498 Y0.6107 
G01 X-0.3443 Y0.6052 
G01 X-0.3400 Y0.5987 
G01 X-0.3370 Y0.5915 
G01 X-0.3355 Y0.5839 
G01 X-0.3355 Y0.5161 
G01 X-0.3370 Y0.5085 
G01 X-0.3400 Y0.5013 
G01 X-0.3443 Y0.4948 
G01 X-0.3498 Y0.4893 
G01 X-0.3563 Y0.4850 
G01 X-0.3635 Y0.4820 
G01 X-0.3711 Y0.4805 
G01 X-0.3789 Y0.4805 
G01 X-0.3865 Y0.4820 
G01 X-0.3937 Y0.4850 
G01 X-0.4002 Y0.4893 
G01 X-0.4057 Y0.4948 
G01 X-0.4100 Y0.5013 
G01 X-0.4130 Y0.5085 
G01 X-0.4145 Y0.5161 
G00 Z0.1000 
G00 X-0.5145 Y0.5161 
G01 Z0.0000 F10.00 
G01 X-0.5145 Y0.5839 F20.00 
G01 X-0.5130 Y0.5915 
G01 X-0.5100 Y0.5987 
G01 X-0.5057 Y0.6052 
G01 X-0.5002 Y0.6107 
G01 X-0.4937 Y0.6150 
G01 X-0.4865 Y0.6180 
G01 X-0.4789 Y0.6195 
G01 X-0.4711 Y0.6195 
G01 X-0.4635 Y0.6180 
G01 X-0.4563 Y0.6150 
G01 X-0.4498 Y0.6107 
G01 X-0.4443 Y0.6052 
G01 X-0.4400 Y0.5987 
G01 X-0.4370 Y0.5915 
G01 X-0.4355 Y0.5839 
G01 X-0.4355 Y0.5161 
G01 X-0.4370 Y0.5085 
G01 X-0.4400 Y0.5013 
G01 X-0.4443 Y0.4948 
G01 X-0.4498 Y0.4893 
G01 X-0.4563 Y0.4850 
G01 X-0.4635 Y0.4820 
G01 X-0.4711 Y0.4805 
G01 X-0.4789 Y0.4805 
G01 X-0.4865 Y0.4820 
G01 X-0.4937 Y0.4850 
G01 X-0.5002 Y0.4893 
G01 X-0.5057 Y0.4948 
G01 X-0.5100 Y0.5013 
G01 X-0.5130 Y0.5085 
G01 X-0.5145 Y0.5161 
G00 Z0.1000 
G00 X-0.8145 Y0.5161 
G01 Z0.0000 F10.00 
G01 X-0.8145 Y0.5839 F20.00 
G01 X-0.8130 Y0.5915 
G01 X-0.8100 Y0.5987 
G01 X-0.8057 Y0.6052 
G01 X-0.8002 Y0.6107 
G01 X-0.7937 Y0.6150 
G01 X-0.7865 Y0.6180 
G01 X-0.7789 Y0.6195 
G01 X-0.7711 Y0.6195 
G01 X-0.7635 Y0.6180 
G01 X-0.7563 Y0.6150 
G01 X-0.7498 Y0.6107 
G01 X-0.7443 Y0.6052 
G01 X-0.7400 Y0.5987 
G01 X-0.7370 Y0.5915 
G01 X-0.7355 Y0.5839 
G01 X-0.7355 Y0.5161 
G01 X-0.7370 Y0.5085 
G01 X-0.7400 Y0.5013 
G01 X-0.7443 Y0.4948 
G01 X-0.7498 Y0.4893 
G01 X-0.7563 Y0.4850 
G01 X-0.7635 Y0.4820 
G01 X-0.7711 Y0.4805 
G01 X-0.7789 Y0.4805 
G01 X-0.7865 Y0.4820 
G01 X-0.7878 Y0.4825 
G01 X-0.8843 Y0.3860 
G01 X-0.8883 Y0.3837 
G01 X-0.8928 Y0.3825 
G01 X-0.9133 Y0.3825 
G01 X-0.9087 Y0.3806 
G01 X-0.9030 Y0.3768 
G01 X-0.8982 Y0.3720 
G01 X-0.8952 Y0.3675 
G01 X-0.8822 Y0.3675 
G01 X-0.7890 Y0.4607 
G01 X-0.7857 Y0.4640 
G01 X-0.7818 Y0.4663 
G01 X-0.7773 Y0.4675 
G01 X-0.7322 Y0.4675 
G01 X-0.7053 Y0.4944 
G01 X-0.7057 Y0.4948 
G01 X-0.7100 Y0.5013 
G01 X-0.7130 Y0.5085 
G01 X-0.7145 Y0.5161 
G01 X-0.7145 Y0.5839 
G01 X-0.7130 Y0.5915 
G01 X-0.7100 Y0.5987 
G01 X-0.7057 Y0.6052 
G01 X-0.7002 Y0.6107 
G01 X-0.6937 Y0.6150 
G01 X-0.6865 Y0.6180 
G01 X-0.6789 Y0.6195 
G01 X-0.6711 Y0.6195 
G01 X-0.6635 Y0.6180 
G01 X-0.6563 Y0.6150 
G01 X-0.6498 Y0.6107 
G01 X-0.6443 Y0.6052 
G01 X-0.6400 Y0.5987 
G01 X-0.6370 Y0.5915 
G01 X-0.6355 Y0.5839 
G01 X-0.6355 Y0.5161 
G01 X-0.6370 Y0.5085 
G01 X-0.6400 Y0.5013 
G01 X-0.6443 Y0.4948 
G01 X-0.6498 Y0.4893 
G01 X-0.6563 Y0.4850 
G01 X-0.6635 Y0.4820 
G01 X-0.6694 Y0.4808 
G01 X-0.7143 Y0.4360 
G01 X-0.7182 Y0.4337 
G01 X-0.7227 Y0.4325 
G01 X-0.7678 Y0.4325 
G01 X-0.8643 Y0.3360 
G01 X-0.8682 Y0.3337 
G01 X-0.8727 Y0.3325 
G01 X-0.8952 Y0.3325 
G01 X-0.8982 Y0.3280 
G01 X-0.9030 Y0.3232 
G01 X-0.9087 Y0.3194 
G01 X-0.9149 Y0.3168 
G01 X-0.9216 Y0.3155 
G01 X-0.9284 Y0.3155 
G01 X-0.9351 Y0.3168 
G01 X-0.9413 Y0.3194 
G01 X-0.9470 Y0.3232 
G01 X-0.9518 Y0.3280 
G01 X-0.9548 Y0.3325 
G01 X-0.9678 Y0.3325 
G01 X-1.0893 Y0.2110 
G01 X-1.0932 Y0.2087 
G01 X-1.0977 Y0.2075 
G01 X-1.2928 Y0.2075 
G01 X-1.4075 Y0.0928 
G01 X-1.4075 Y0.0432 
G01 X-1.4046 Y0.0421 
G01 X-1.4019 Y0.0394 
G01 X-1.4005 Y0.0359 
G01 X-1.4005 Y-0.0129 
G01 X-1.4019 Y-0.0164 
G01 X-1.4046 Y-0.0191 
G01 X-1.4081 Y-0.0205 
G01 X-1.4419 Y-0.0205 
G01 X-1.4454 Y-0.0191 
G01 X-1.4481 Y-0.0164 
G01 X-1.4495 Y-0.0129 
G01 X-1.4495 Y0.0359 
G01 X-1.4481 Y0.0394 
G01 X-1.4454 Y0.0421 
G01 X-1.4425 Y0.0432 
G01 X-1.4425 Y0.1023 
G01 X-1.4413 Y0.1068 
G01 X-1.4390 Y0.1107 
G01 X-1.3140 Y0.2357 
G01 X-1.3107 Y0.2390 
G01 X-1.3068 Y0.2413 
G01 X-1.3023 Y0.2425 
G01 X-1.1072 Y0.2425 
G01 X-0.9890 Y0.3607 
G01 X-0.9857 Y0.3640 
G01 X-0.9818 Y0.3663 
G01 X-0.9773 Y0.3675 
G01 X-0.9548 Y0.3675 
G01 X-0.9518 Y0.3720 
G01 X-0.9470 Y0.3768 
G01 X-0.9413 Y0.3806 
G01 X-0.9367 Y0.3825 
G01 X-0.9678 Y0.3825 
G01 X-1.0893 Y0.2610 
G01 X-1.0932 Y0.2587 
G01 X-1.0977 Y0.2575 
G01 X-1.2928 Y0.2575 
G01 X-1.4575 Y0.0928 
G01 X-1.4575 Y0.0432 
G01 X-1.4546 Y0.0421 
G01 X-1.4519 Y0.0394 
G01 X-1.4505 Y0.0359 
G01 X-1.4505 Y-0.0129 
G01 X-1.4519 Y-0.0164 
G01 X-1.4546 Y-0.0191 
G01 X-1.4581 Y-0.0205 
G01 X-1.4919 Y-0.0205 
G01 X-1.4954 Y-0.0191 
G01 X-1.4981 Y-0.0164 
G01 X-1.4995 Y-0.0129 
G01 X-1.4995 Y0.0359 
G01 X-1.4981 Y0.0394 
G01 X-1.4954 Y0.0421 
G01 X-1.4925 Y0.0432 
G01 X-1.4925 Y0.1023 
G01 X-1.4913 Y0.1068 
G01 X-1.4890 Y0.1107 
G01 X-1.3140 Y0.2857 
G01 X-1.3107 Y0.2890 
G01 X-1.3068 Y0.2913 
G01 X-1.3023 Y0.2925 
G01 X-1.1072 Y0.2925 
G01 X-0.9890 Y0.4107 
G01 X-0.9857 Y0.4140 
G01 X-0.9818 Y0.4163 
G01 X-0.9773 Y0.4175 
G01 X-0.9023 Y0.4175 
G01 X-0.8125 Y0.5073 
G01 X-0.8130 Y0.5085 
G01 X-0.8145 Y0.5161 
G00 Z0.1000 
G00 X-0.9145 Y0.5161 
G01 Z0.0000 F10.00 
G01 X-0.9145 Y0.5839 F20.00 
G01 X-0.9130 Y0.5915 
G01 X-0.9100 Y0.5987 
G01 X-0.9057 Y0.6052 
G01 X-0.9002 Y0.6107 
G01 X-0.8937 Y0.6150 
G01 X-0.8865 Y0.6180 
G01 X-0.8789 Y0.6195 
G01 X-0.8711 Y0.6195 
G01 X-0.8635 Y0.6180 
G01 X-0.8563 Y0.6150 
G01 X-0.8498 Y0.6107 
G01 X-0.8443 Y0.6052 
G01 X-0.8400 Y0.5987 
G01 X-0.8370 Y0.5915 
G01 X-0.8355 Y0.5839 
G01 X-0.8355 Y0.5161 
G01 X-0.8370 Y0.5085 
G01 X-0.8400 Y0.5013 
G01 X-0.8443 Y0.4948 
G01 X-0.8498 Y0.4893 
G01 X-0.8563 Y0.4850 
G01 X-0.8635 Y0.4820 
G01 X-0.8694 Y0.4808 
G01 X-0.9143 Y0.4360 
G01 X-0.9182 Y0.4337 
G01 X-0.9227 Y0.4325 
G01 X-0.9678 Y0.4325 
G01 X-1.0893 Y0.3110 
G01 X-1.0932 Y0.3087 
G01 X-1.0977 Y0.3075 
G01 X-1.2928 Y0.3075 
G01 X-1.5075 Y0.0928 
G01 X-1.5075 Y0.0432 
G01 X-1.5046 Y0.0421 
G01 X-1.5019 Y0.0394 
G01 X-1.5005 Y0.0359 
G01 X-1.5005 Y-0.0129 
G01 X-1.5019 Y-0.0164 
G01 X-1.5046 Y-0.0191 
G01 X-1.5081 Y-0.0205 
G01 X-1.5419 Y-0.0205 
G01 X-1.5454 Y-0.0191 
G01 X-1.5481 Y-0.0164 
G01 X-1.5495 Y-0.0129 
G01 X-1.5495 Y0.0359 
G01 X-1.5481 Y0.0394 
G01 X-1.5454 Y0.0421 
G01 X-1.5425 Y0.0432 
G01 X-1.5425 Y0.1023 
G01 X-1.5413 Y0.1068 
G01 X-1.5390 Y0.1107 
G01 X-1.3140 Y0.3357 
G01 X-1.3107 Y0.3390 
G01 X-1.3068 Y0.3413 
G01 X-1.3023 Y0.3425 
G01 X-1.1072 Y0.3425 
G01 X-0.9890 Y0.4607 
G01 X-0.9857 Y0.4640 
G01 X-0.9818 Y0.4663 
G01 X-0.9773 Y0.4675 
G01 X-0.9322 Y0.4675 
G01 X-0.9053 Y0.4944 
G01 X-0.9057 Y0.4948 
G01 X-0.9100 Y0.5013 
G01 X-0.9130 Y0.5085 
G01 X-0.9145 Y0.5161 
G00 Z0.1000 
G00 X-1.0145 Y0.5161 
G01 Z0.0000 F10.00 
G01 X-1.0145 Y0.5839 F20.00 
G01 X-1.0130 Y0.5915 
G01 X-1.0100 Y0.5987 
G01 X-1.0057 Y0.6052 
G01 X-1.0002 Y0.6107 
G01 X-0.9937 Y0.6150 
G01 X-0.9865 Y0.6180 
G01 X-0.9789 Y0.6195 
G01 X-0.9711 Y0.6195 
G01 X-0.9635 Y0.6180 
G01 X-0.9563 Y0.6150 
G01 X-0.9498 Y0.6107 
G01 X-0.9443 Y0.6052 
G01 X-0.9400 Y0.5987 
G01 X-0.9370 Y0.5915 
G01 X-0.9355 Y0.5839 
G01 X-0.9355 Y0.5161 
G01 X-0.9370 Y0.5085 
G01 X-0.9400 Y0.5013 
G01 X-0.9443 Y0.4948 
G01 X-0.9498 Y0.4893 
G01 X-0.9563 Y0.4850 
G01 X-0.9635 Y0.4820 
G01 X-0.9711 Y0.4805 
G01 X-0.9789 Y0.4805 
G01 X-0.9865 Y0.4820 
G01 X-0.9937 Y0.4850 
G01 X-1.0002 Y0.4893 
G01 X-1.0057 Y0.4948 
G01 X-1.0100 Y0.5013 
G01 X-1.0130 Y0.5085 
G01 X-1.0145 Y0.5161 
G00 Z0.1000 
G00 X-1.1145 Y0.5161 
G01 Z0.0000 F10.00 
G01 X-1.1145 Y0.5839 F20.00 
G01 X-1.1130 Y0.5915 
G01 X-1.1100 Y0.5987 
G01 X-1.1057 Y0.6052 
G01 X-1.1002 Y0.6107 
G01 X-1.0937 Y0.6150 
G01 X-1.0865 Y0.6180 
G01 X-1.0789 Y0.6195 
G01 X-1.0711 Y0.6195 
G01 X-1.0635 Y0.6180 
G01 X-1.0563 Y0.6150 
G01 X-1.0498 Y0.6107 
G01 X-1.0443 Y0.6052 
G01 X-1.0400 Y0.5987 
G01 X-1.0370 Y0.5915 
G01 X-1.0355 Y0.5839 
G01 X-1.0355 Y0.5161 
G01 X-1.0370 Y0.5085 
G01 X-1.0400 Y0.5013 
G01 X-1.0443 Y0.4948 
G01 X-1.0498 Y0.4893 
G01 X-1.0563 Y0.4850 
G01 X-1.0635 Y0.4820 
G01 X-1.0711 Y0.4805 
G01 X-1.0789 Y0.4805 
G01 X-1.0865 Y0.4820 
G01 X-1.0937 Y0.4850 
G01 X-1.1002 Y0.4893 
G01 X-1.1057 Y0.4948 
G01 X-1.1100 Y0.5013 
G01 X-1.1130 Y0.5085 
G01 X-1.1145 Y0.5161 
G00 Z0.1000 
G00 X-1.2145 Y0.5161 
G01 Z0.0000 F10.00 
G01 X-1.2145 Y0.5839 F20.00 
G01 X-1.2130 Y0.5915 
G01 X-1.2100 Y0.5987 
G01 X-1.2057 Y0.6052 
G01 X-1.2002 Y0.6107 
G01 X-1.1937 Y0.6150 
G01 X-1.1865 Y0.6180 
G01 X-1.1789 Y0.6195 
G01 X-1.1711 Y0.6195 
G01 X-1.1635 Y0.6180 
G01 X-1.1563 Y0.6150 
G01 X-1.1498 Y0.6107 
G01 X-1.1443 Y0.6052 
G01 X-1.1400 Y0.5987 
G01 X-1.1370 Y0.5915 
G01 X-1.1355 Y0.5839 
G01 X-1.1355 Y0.5161 
G01 X-1.1370 Y0.5085 
G01 X-1.1400 Y0.5013 
G01 X-1.1443 Y0.4948 
G01 X-1.1498 Y0.4893 
G01 X-1.1563 Y0.4850 
G01 X-1.1635 Y0.4820 
G01 X-1.1711 Y0.4805 
G01 X-1.1789 Y0.4805 
G01 X-1.1865 Y0.4820 
G01 X-1.1937 Y0.4850 
G01 X-1.2002 Y0.4893 
G01 X-1.2057 Y0.4948 
G01 X-1.2100 Y0.5013 
G01 X-1.2130 Y0.5085 
G01 X-1.2145 Y0.5161 
G00 Z0.1000 
G00 X-1.5145 Y0.5161 
G01 Z0.0000 F10.00 
G01 X-1.5145 Y0.5839 F20.00 
G01 X-1.5130 Y0.5915 
G01 X-1.5100 Y0.5987 
G01 X-1.5057 Y0.6052 
G01 X-1.5002 Y0.6107 
G01 X-1.4937 Y0.6150 
G01 X-1.4865 Y0.6180 
G01 X-1.4789 Y0.6195 
G01 X-1.4711 Y0.6195 
G01 X-1.4635 Y0.6180 
G01 X-1.4563 Y0.6150 
G01 X-1.4498 Y0.6107 
G01 X-1.4443 Y0.6052 
G01 X-1.4400 Y0.5987 
G01 X-1.4370 Y0.5915 
G01 X-1.4355 Y0.5839 
G01 X-1.4355 Y0.5161 
G01 X-1.4370 Y0.5085 
G01 X-1.4400 Y0.5013 
G01 X-1.4443 Y0.4948 
G01 X-1.4498 Y0.4893 
G01 X-1.4563 Y0.4850 
G01 X-1.4575 Y0.4845 
G01 X-1.4575 Y0.4202 
G01 X-1.4546 Y0.4191 
G01 X-1.4519 Y0.4164 
G01 X-1.4505 Y0.4129 
G01 X-1.4505 Y0.3641 
G01 X-1.4519 Y0.3606 
G01 X-1.4546 Y0.3579 
G01 X-1.4581 Y0.3565 
G01 X-1.4919 Y0.3565 
G01 X-1.4954 Y0.3579 
G01 X-1.4981 Y0.3606 
G01 X-1.4995 Y0.3641 
G01 X-1.4995 Y0.4129 
G01 X-1.4981 Y0.4164 
G01 X-1.4954 Y0.4191 
G01 X-1.4925 Y0.4202 
G01 X-1.4925 Y0.4845 
G01 X-1.4937 Y0.4850 
G01 X-1.5002 Y0.4893 
G01 X-1.5057 Y0.4948 
G01 X-1.5100 Y0.5013 
G01 X-1.5130 Y0.5085 
G01 X-1.5145 Y0.5161 
G00 Z0.1000 
G00 X-1.6145 Y0.5161 
G01 Z0.0000 F10.00 
G01 X-1.6145 Y0.5839 F20.00 
G01 X-1.6130 Y0.5915 
G01 X-1.6100 Y0.5987 
G01 X-1.6057 Y0.6052 
G01 X-1.6002 Y0.6107 
G01 X-1.5937 Y0.6150 
G01 X-1.5865 Y0.6180 
G01 X-1.5789 Y0.6195 
G01 X-1.5711 Y0.6195 
G01 X-1.5635 Y0.6180 
G01 X-1.5563 Y0.6150 
G01 X-1.5498 Y0.6107 
G01 X-1.5443 Y0.6052 
G01 X-1.5400 Y0.5987 
G01 X-1.5370 Y0.5915 
G01 X-1.5355 Y0.5839 
G01 X-1.5355 Y0.5161 
G01 X-1.5370 Y0.5085 
G01 X-1.5400 Y0.5013 
G01 X-1.5443 Y0.4948 
G01 X-1.5447 Y0.4944 
G01 X-1.5152 Y0.4649 
G01 X-1.5143 Y0.4644 
G01 X-1.5110 Y0.4611 
G01 X-1.5087 Y0.4571 
G01 X-1.5075 Y0.4527 
G01 X-1.5075 Y0.4202 
G01 X-1.5046 Y0.4191 
G01 X-1.5019 Y0.4164 
G01 X-1.5005 Y0.4129 
G01 X-1.5005 Y0.3641 
G01 X-1.5019 Y0.3606 
G01 X-1.5046 Y0.3579 
G01 X-1.5081 Y0.3565 
G01 X-1.5402 Y0.3565 
G01 X-1.5389 Y0.3535 
G01 X-1.5389 Y0.3425 
G01 X-1.4072 Y0.3425 
G01 X-1.3929 Y0.3569 
G01 X-1.3954 Y0.3579 
G01 X-1.3981 Y0.3606 
G01 X-1.3995 Y0.3641 
G01 X-1.3995 Y0.4129 
G01 X-1.3981 Y0.4164 
G01 X-1.3954 Y0.4191 
G01 X-1.3919 Y0.4205 
G01 X-1.3581 Y0.4205 
G01 X-1.3546 Y0.4191 
G01 X-1.3519 Y0.4164 
G01 X-1.3505 Y0.4129 
G01 X-1.3505 Y0.3641 
G01 X-1.3519 Y0.3606 
G01 X-1.3546 Y0.3579 
G01 X-1.3575 Y0.3568 
G01 X-1.3575 Y0.3477 
G01 X-1.3587 Y0.3432 
G01 X-1.3610 Y0.3393 
G01 X-1.3860 Y0.3143 
G01 X-1.3893 Y0.3110 
G01 X-1.3932 Y0.3087 
G01 X-1.3977 Y0.3075 
G01 X-1.5389 Y0.3075 
G01 X-1.5389 Y0.2965 
G01 X-1.5404 Y0.2930 
G01 X-1.5430 Y0.2904 
G01 X-1.5465 Y0.2889 
G01 X-1.5599 Y0.2889 
G01 X-1.5566 Y0.2876 
G01 X-1.5540 Y0.2849 
G01 X-1.5525 Y0.2814 
G01 X-1.5525 Y0.2186 
G01 X-1.5540 Y0.2151 
G01 X-1.5566 Y0.2124 
G01 X-1.5575 Y0.2121 
G01 X-1.5575 Y0.1861 
G01 X-1.5465 Y0.1861 
G01 X-1.5430 Y0.1846 
G01 X-1.5404 Y0.1820 
G01 X-1.5389 Y0.1785 
G01 X-1.5389 Y0.1675 
G01 X-1.5322 Y0.1675 
G01 X-1.3429 Y0.3569 
G01 X-1.3454 Y0.3579 
G01 X-1.3481 Y0.3606 
G01 X-1.3495 Y0.3641 
G01 X-1.3495 Y0.4129 
G01 X-1.3481 Y0.4164 
G01 X-1.3454 Y0.4191 
G01 X-1.3419 Y0.4205 
G01 X-1.3081 Y0.4205 
G01 X-1.3046 Y0.4191 
G01 X-1.3019 Y0.4164 
G01 X-1.3005 Y0.4129 
G01 X-1.3005 Y0.3641 
G01 X-1.3019 Y0.3606 
G01 X-1.3046 Y0.3579 
G01 X-1.3075 Y0.3568 
G01 X-1.3075 Y0.3477 
G01 X-1.3087 Y0.3432 
G01 X-1.3110 Y0.3393 
G01 X-1.5110 Y0.1393 
G01 X-1.5143 Y0.1360 
G01 X-1.5182 Y0.1337 
G01 X-1.5227 Y0.1325 
G01 X-1.5389 Y0.1325 
G01 X-1.5389 Y0.1215 
G01 X-1.5404 Y0.1180 
G01 X-1.5430 Y0.1154 
G01 X-1.5465 Y0.1139 
G01 X-1.5575 Y0.1139 
G01 X-1.5575 Y0.0477 
G01 X-1.5587 Y0.0432 
G01 X-1.5610 Y0.0393 
G01 X-1.6143 Y-0.0140 
G01 X-1.6182 Y-0.0163 
G01 X-1.6227 Y-0.0175 
G01 X-1.8273 Y-0.0175 
G01 X-1.8318 Y-0.0163 
G01 X-1.8357 Y-0.0140 
G01 X-1.8988 Y0.0491 
G01 X-1.9011 Y0.0531 
G01 X-1.9023 Y0.0575 
G01 X-1.9023 Y0.3801 
G01 X-1.9135 Y0.3801 
G01 X-1.9170 Y0.3815 
G01 X-1.9197 Y0.3842 
G01 X-1.9211 Y0.3877 
G01 X-1.9211 Y0.4623 
G01 X-1.9197 Y0.4658 
G01 X-1.9170 Y0.4685 
G01 X-1.9135 Y0.4699 
G01 X-1.8925 Y0.4699 
G01 X-1.8925 Y0.4845 
G01 X-1.8937 Y0.4850 
G01 X-1.9002 Y0.4893 
G01 X-1.9057 Y0.4948 
G01 X-1.9100 Y0.5013 
G01 X-1.9130 Y0.5085 
G01 X-1.9145 Y0.5161 
G01 X-1.9145 Y0.5839 
G01 X-1.9130 Y0.5915 
G01 X-1.9100 Y0.5987 
G01 X-1.9057 Y0.6052 
G01 X-1.9002 Y0.6107 
G01 X-1.8937 Y0.6150 
G01 X-1.8865 Y0.6180 
G01 X-1.8789 Y0.6195 
G01 X-1.8711 Y0.6195 
G01 X-1.8635 Y0.6180 
G01 X-1.8563 Y0.6150 
G01 X-1.8498 Y0.6107 
G01 X-1.8443 Y0.6052 
G01 X-1.8400 Y0.5987 
G01 X-1.8370 Y0.5915 
G01 X-1.8355 Y0.5839 
G01 X-1.8355 Y0.5161 
G01 X-1.8370 Y0.5085 
G01 X-1.8400 Y0.5013 
G01 X-1.8443 Y0.4948 
G01 X-1.8498 Y0.4893 
G01 X-1.8563 Y0.4850 
G01 X-1.8575 Y0.4845 
G01 X-1.8575 Y0.4699 
G01 X-1.8467 Y0.4699 
G01 X-1.8432 Y0.4685 
G01 X-1.8406 Y0.4658 
G01 X-1.8391 Y0.4623 
G01 X-1.8391 Y0.3877 
G01 X-1.8406 Y0.3842 
G01 X-1.8432 Y0.3815 
G01 X-1.8467 Y0.3801 
G01 X-1.8673 Y0.3801 
G01 X-1.8673 Y0.0671 
G01 X-1.8178 Y0.0175 
G01 X-1.7925 Y0.0175 
G01 X-1.7925 Y0.0433 
G01 X-1.7980 Y0.0470 
G01 X-1.8030 Y0.0520 
G01 X-1.8070 Y0.0579 
G01 X-1.8097 Y0.0645 
G01 X-1.8111 Y0.0714 
G01 X-1.8111 Y0.0786 
G01 X-1.8097 Y0.0855 
G01 X-1.8070 Y0.0921 
G01 X-1.8030 Y0.0980 
G01 X-1.7980 Y0.1030 
G01 X-1.7921 Y0.1070 
G01 X-1.7855 Y0.1097 
G01 X-1.7786 Y0.1111 
G01 X-1.7714 Y0.1111 
G01 X-1.7645 Y0.1097 
G01 X-1.7579 Y0.1070 
G01 X-1.7520 Y0.1030 
G01 X-1.7470 Y0.0980 
G01 X-1.7430 Y0.0921 
G01 X-1.7403 Y0.0855 
G01 X-1.7389 Y0.0786 
G01 X-1.7389 Y0.0714 
G01 X-1.7403 Y0.0645 
G01 X-1.7430 Y0.0579 
G01 X-1.7470 Y0.0520 
G01 X-1.7520 Y0.0470 
G01 X-1.7575 Y0.0433 
G01 X-1.7575 Y0.0175 
G01 X-1.6322 Y0.0175 
G01 X-1.5925 Y0.0572 
G01 X-1.5925 Y0.1139 
G01 X-1.6035 Y0.1139 
G01 X-1.6070 Y0.1154 
G01 X-1.6096 Y0.1180 
G01 X-1.6111 Y0.1215 
G01 X-1.6111 Y0.1785 
G01 X-1.6096 Y0.1820 
G01 X-1.6070 Y0.1846 
G01 X-1.6035 Y0.1861 
G01 X-1.5925 Y0.1861 
G01 X-1.5925 Y0.2110 
G01 X-1.6151 Y0.2110 
G01 X-1.6186 Y0.2124 
G01 X-1.6212 Y0.2151 
G01 X-1.6227 Y0.2186 
G01 X-1.6227 Y0.2814 
G01 X-1.6212 Y0.2849 
G01 X-1.6186 Y0.2876 
G01 X-1.6151 Y0.2890 
G01 X-1.6037 Y0.2890 
G01 X-1.6070 Y0.2904 
G01 X-1.6096 Y0.2930 
G01 X-1.6111 Y0.2965 
G01 X-1.6111 Y0.3535 
G01 X-1.6096 Y0.3570 
G01 X-1.6070 Y0.3596 
G01 X-1.6035 Y0.3611 
G01 X-1.5482 Y0.3611 
G01 X-1.5495 Y0.3641 
G01 X-1.5495 Y0.4129 
G01 X-1.5481 Y0.4164 
G01 X-1.5454 Y0.4191 
G01 X-1.5425 Y0.4202 
G01 X-1.5425 Y0.4428 
G01 X-1.5806 Y0.4808 
G01 X-1.5865 Y0.4820 
G01 X-1.5937 Y0.4850 
G01 X-1.6002 Y0.4893 
G01 X-1.6057 Y0.4948 
G01 X-1.6100 Y0.5013 
G01 X-1.6130 Y0.5085 
G01 X-1.6145 Y0.5161 
G00 Z0.1000 
G00 X-0.1989 Y0.1159 
G01 Z0.0000 F10.00 
G01 X-0.3011 Y0.1159 F20.00 
G01 X-0.3046 Y0.1173 
G01 X-0.3073 Y0.1200 
G01 X-0.3087 Y0.1235 
G01 X-0.3087 Y0.1825 
G01 X-0.3317 Y0.1825 
G01 X-0.3263 Y0.1789 
G01 X-0.3211 Y0.1737 
G01 X-0.3170 Y0.1676 
G01 X-0.3142 Y0.1609 
G01 X-0.3128 Y0.1537 
G01 X-0.3128 Y0.1463 
G01 X-0.3142 Y0.1391 
G01 X-0.3170 Y0.1324 
G01 X-0.3211 Y0.1263 
G01 X-0.3263 Y0.1211 
G01 X-0.3324 Y0.1170 
G01 X-0.3391 Y0.1142 
G01 X-0.3463 Y0.1128 
G01 X-0.3537 Y0.1128 
G01 X-0.3609 Y0.1142 
G01 X-0.3676 Y0.1170 
G01 X-0.3737 Y0.1211 
G01 X-0.3789 Y0.1263 
G01 X-0.3830 Y0.1324 
G01 X-0.3858 Y0.1391 
G01 X-0.3872 Y0.1463 
G01 X-0.3872 Y0.1537 
G01 X-0.3858 Y0.1609 
G01 X-0.3830 Y0.1676 
G01 X-0.3789 Y0.1737 
G01 X-0.3737 Y0.1789 
G01 X-0.3683 Y0.1825 
G01 X-0.4170 Y0.1825 
G01 X-0.4170 Y0.1824 
G01 X-0.4211 Y0.1763 
G01 X-0.4263 Y0.1711 
G01 X-0.4324 Y0.1670 
G01 X-0.4350 Y0.1659 
G01 X-0.4360 Y0.1643 
G01 X-0.4393 Y0.1610 
G01 X-0.5110 Y0.0893 
G01 X-0.5143 Y0.0860 
G01 X-0.5182 Y0.0837 
G01 X-0.5227 Y0.0825 
G01 X-0.5301 Y0.0825 
G01 X-0.5301 Y0.0615 
G01 X-0.5315 Y0.0580 
G01 X-0.5342 Y0.0553 
G01 X-0.5377 Y0.0539 
G01 X-0.6123 Y0.0539 
G01 X-0.6158 Y0.0553 
G01 X-0.6185 Y0.0580 
G01 X-0.6199 Y0.0615 
G01 X-0.6199 Y0.0774 
G01 X-0.6607 Y0.0774 
G01 X-0.6633 Y0.0723 
G01 X-0.6682 Y0.0656 
G01 X-0.6741 Y0.0597 
G01 X-0.6808 Y0.0548 
G01 X-0.6882 Y0.0511 
G01 X-0.6961 Y0.0485 
G01 X-0.7043 Y0.0472 
G01 X-0.7717 Y0.0472 
G01 X-0.7799 Y0.0485 
G01 X-0.7878 Y0.0511 
G01 X-0.7952 Y0.0548 
G01 X-0.8019 Y0.0597 
G01 X-0.8078 Y0.0656 
G01 X-0.8116 Y0.0708 
G01 X-0.8843 Y0.0708 
G01 X-0.8877 Y0.0723 
G01 X-0.8904 Y0.0749 
G01 X-0.8919 Y0.0784 
G01 X-0.8919 Y0.1216 
G01 X-0.8904 Y0.1251 
G01 X-0.8877 Y0.1277 
G01 X-0.8843 Y0.1292 
G01 X-0.8116 Y0.1292 
G01 X-0.8078 Y0.1344 
G01 X-0.8019 Y0.1403 
G01 X-0.7952 Y0.1452 
G01 X-0.7878 Y0.1489 
G01 X-0.7799 Y0.1515 
G01 X-0.7717 Y0.1528 
G01 X-0.7043 Y0.1528 
G01 X-0.6961 Y0.1515 
G01 X-0.6882 Y0.1489 
G01 X-0.6808 Y0.1452 
G01 X-0.6741 Y0.1403 
G01 X-0.6682 Y0.1344 
G01 X-0.6633 Y0.1277 
G01 X-0.6595 Y0.1203 
G01 X-0.6570 Y0.1124 
G01 X-0.6199 Y0.1124 
G01 X-0.6199 Y0.1283 
G01 X-0.6185 Y0.1318 
G01 X-0.6158 Y0.1344 
G01 X-0.6123 Y0.1359 
G01 X-0.5377 Y0.1359 
G01 X-0.5342 Y0.1344 
G01 X-0.5315 Y0.1318 
G01 X-0.5301 Y0.1283 
G01 X-0.5301 Y0.1197 
G01 X-0.4762 Y0.1736 
G01 X-0.4789 Y0.1763 
G01 X-0.4830 Y0.1824 
G01 X-0.4858 Y0.1891 
G01 X-0.4872 Y0.1963 
G01 X-0.4872 Y0.2037 
G01 X-0.4858 Y0.2109 
G01 X-0.4830 Y0.2176 
G01 X-0.4789 Y0.2237 
G01 X-0.4737 Y0.2289 
G01 X-0.4676 Y0.2330 
G01 X-0.4609 Y0.2358 
G01 X-0.4537 Y0.2372 
G01 X-0.4463 Y0.2372 
G01 X-0.4391 Y0.2358 
G01 X-0.4324 Y0.2330 
G01 X-0.4263 Y0.2289 
G01 X-0.4211 Y0.2237 
G01 X-0.4170 Y0.2176 
G01 X-0.4170 Y0.2175 
G01 X-0.3683 Y0.2175 
G01 X-0.3737 Y0.2211 
G01 X-0.3789 Y0.2263 
G01 X-0.3830 Y0.2324 
G01 X-0.3858 Y0.2391 
G01 X-0.3872 Y0.2463 
G01 X-0.3872 Y0.2537 
G01 X-0.3858 Y0.2609 
G01 X-0.3830 Y0.2676 
G01 X-0.3789 Y0.2737 
G01 X-0.3737 Y0.2789 
G01 X-0.3676 Y0.2830 
G01 X-0.3609 Y0.2858 
G01 X-0.3537 Y0.2872 
G01 X-0.3463 Y0.2872 
G01 X-0.3391 Y0.2858 
G01 X-0.3324 Y0.2830 
G01 X-0.3263 Y0.2789 
G01 X-0.3211 Y0.2737 
G01 X-0.3170 Y0.2676 
G01 X-0.3142 Y0.2609 
G01 X-0.3128 Y0.2537 
G01 X-0.3128 Y0.2463 
G01 X-0.3142 Y0.2391 
G01 X-0.3170 Y0.2324 
G01 X-0.3211 Y0.2263 
G01 X-0.3263 Y0.2211 
G01 X-0.3317 Y0.2175 
G01 X-0.3087 Y0.2175 
G01 X-0.3087 Y0.2277 
G01 X-0.3073 Y0.2312 
G01 X-0.3046 Y0.2338 
G01 X-0.3011 Y0.2353 
G01 X-0.1989 Y0.2353 
G01 X-0.1954 Y0.2338 
G01 X-0.1927 Y0.2312 
G01 X-0.1913 Y0.2277 
G01 X-0.1913 Y0.1235 
G01 X-0.1927 Y0.1200 
G01 X-0.1954 Y0.1173 
G01 X-0.1989 Y0.1159 
G00 Z0.1000 
G00 X-0.4578 Y-0.0325 
G01 Z0.0000 F10.00 
G01 X-0.4544 Y-0.0334 F20.00 
G01 X-0.4513 Y-0.0352 
G01 X-0.4488 Y-0.0377 
G01 X-0.4470 Y-0.0408 
G01 X-0.4461 Y-0.0442 
G01 X-0.4461 Y-0.0478 
G01 X-0.4470 Y-0.0512 
G01 X-0.4488 Y-0.0543 
G01 X-0.4513 Y-0.0568 
G01 X-0.4544 Y-0.0586 
G01 X-0.4578 Y-0.0595 
G01 X-0.5228 Y-0.0595 
G01 X-0.5262 Y-0.0586 
G01 X-0.5293 Y-0.0568 
G01 X-0.5318 Y-0.0543 
G01 X-0.5336 Y-0.0512 
G01 X-0.5345 Y-0.0478 
G01 X-0.5345 Y-0.0442 
G01 X-0.5336 Y-0.0408 
G01 X-0.5318 Y-0.0377 
G01 X-0.4731 Y0.0210 
G01 X-0.4731 Y0.0251 
G01 X-0.4806 Y0.0326 
G01 X-0.5001 Y0.0326 
G01 X-0.5127 Y0.0199 
G01 X-0.5158 Y0.0182 
G01 X-0.5192 Y0.0172 
G01 X-0.5228 Y0.0172 
G01 X-0.5262 Y0.0182 
G01 X-0.5293 Y0.0199 
G01 X-0.5318 Y0.0224 
G01 X-0.5336 Y0.0255 
G01 X-0.5345 Y0.0290 
G01 X-0.5345 Y0.0325 
G01 X-0.5336 Y0.0359 
G01 X-0.5318 Y0.0390 
G01 X-0.5139 Y0.0569 
G01 X-0.5109 Y0.0587 
G01 X-0.5074 Y0.0596 
G01 X-0.4732 Y0.0596 
G01 X-0.4697 Y0.0587 
G01 X-0.4667 Y0.0569 
G01 X-0.4642 Y0.0544 
G01 X-0.4488 Y0.0390 
G01 X-0.4470 Y0.0359 
G01 X-0.4461 Y0.0325 
G01 X-0.4461 Y0.0136 
G01 X-0.4470 Y0.0102 
G01 X-0.4488 Y0.0071 
G01 X-0.4513 Y0.0046 
G01 X-0.4884 Y-0.0325 
G01 X-0.4578 Y-0.0325 
G00 Z0.1000 
G00 X-0.0395 Y0.3306 
G01 Z0.0000 F10.00 
G01 X-0.0375 Y0.3271 F20.00 
G01 X-0.0364 Y0.3231 
G01 X-0.0364 Y0.3191 
G01 X-0.0375 Y0.3151 
G01 X-0.0395 Y0.3116 
G01 X-0.0424 Y0.3087 
G01 X-0.0459 Y0.3067 
G01 X-0.0499 Y0.3056 
G01 X-0.0540 Y0.3056 
G01 X-0.0579 Y0.3067 
G01 X-0.0614 Y0.3087 
G01 X-0.0814 Y0.3286 
G01 X-0.1146 Y0.3286 
G01 X-0.1285 Y0.3147 
G01 X-0.1285 Y0.2354 
G01 X-0.1146 Y0.2215 
G01 X-0.0814 Y0.2215 
G01 X-0.0674 Y0.2354 
G01 X-0.0674 Y0.2596 
G01 X-0.1000 Y0.2596 
G01 X-0.1039 Y0.2606 
G01 X-0.1075 Y0.2627 
G01 X-0.1104 Y0.2655 
G01 X-0.1124 Y0.2691 
G01 X-0.1135 Y0.2730 
G01 X-0.1135 Y0.2771 
G01 X-0.1124 Y0.2810 
G01 X-0.1104 Y0.2846 
G01 X-0.1075 Y0.2875 
G01 X-0.1039 Y0.2895 
G01 X-0.1000 Y0.2906 
G01 X-0.0499 Y0.2906 
G01 X-0.0459 Y0.2895 
G01 X-0.0424 Y0.2875 
G01 X-0.0395 Y0.2846 
G01 X-0.0375 Y0.2810 
G01 X-0.0364 Y0.2771 
G01 X-0.0364 Y0.2270 
G01 X-0.0375 Y0.2230 
G01 X-0.0395 Y0.2195 
G01 X-0.0654 Y0.1936 
G01 X-0.0690 Y0.1916 
G01 X-0.0729 Y0.1905 
G01 X-0.1230 Y0.1905 
G01 X-0.1270 Y0.1916 
G01 X-0.1305 Y0.1936 
G01 X-0.1334 Y0.1965 
G01 X-0.1564 Y0.2195 
G01 X-0.1584 Y0.2230 
G01 X-0.1595 Y0.2270 
G01 X-0.1595 Y0.3231 
G01 X-0.1584 Y0.3271 
G01 X-0.1564 Y0.3306 
G01 X-0.1305 Y0.3565 
G01 X-0.1270 Y0.3586 
G01 X-0.1230 Y0.3596 
G01 X-0.0729 Y0.3596 
G01 X-0.0690 Y0.3586 
G01 X-0.0654 Y0.3565 
G01 X-0.0625 Y0.3536 
G01 X-0.0395 Y0.3306 
G00 Z0.1000 
G00 X-0.1599 Y0.4945 
G01 Z0.0000 F10.00 
G01 X-0.1561 Y0.5036 F20.00 
G01 X-0.1510 Y0.5120 
G01 X-0.1445 Y0.5195 
G01 X-0.1370 Y0.5260 
G01 X-0.1286 Y0.5311 
G01 X-0.1195 Y0.5349 
G01 X-0.1099 Y0.5372 
G01 X-0.1000 Y0.5380 
G01 X-0.0901 Y0.5372 
G01 X-0.0805 Y0.5349 
G01 X-0.0714 Y0.5311 
G01 X-0.0630 Y0.5260 
G01 X-0.0555 Y0.5195 
G01 X-0.0490 Y0.5120 
G01 X-0.0439 Y0.5036 
G01 X-0.0401 Y0.4945 
G01 X-0.0378 Y0.4849 
G01 X-0.0370 Y0.4750 
G01 X-0.0378 Y0.4651 
G01 X-0.0401 Y0.4555 
G01 X-0.0439 Y0.4464 
G01 X-0.0490 Y0.4380 
G01 X-0.0555 Y0.4305 
G01 X-0.0630 Y0.4240 
G01 X-0.0714 Y0.4189 
G01 X-0.0805 Y0.4151 
G01 X-0.0901 Y0.4128 
G01 X-0.1000 Y0.4120 
G01 X-0.1099 Y0.4128 
G01 X-0.1195 Y0.4151 
G01 X-0.1286 Y0.4189 
G01 X-0.1370 Y0.4240 
G01 X-0.1445 Y0.4305 
G01 X-0.1510 Y0.4380 
G01 X-0.1561 Y0.4464 
G01 X-0.1599 Y0.4555 
G01 X-0.1622 Y0.4651 
G01 X-0.1630 Y0.4750 
G01 X-0.1622 Y0.4849 
G01 X-0.1599 Y0.4945 
G00 Z0.1000 
G00 X-0.1599 Y0.0945 
G01 Z0.0000 F10.00 
G01 X-0.1561 Y0.1036 F20.00 
G01 X-0.1510 Y0.1120 
G01 X-0.1445 Y0.1195 
G01 X-0.1370 Y0.1260 
G01 X-0.1286 Y0.1311 
G01 X-0.1195 Y0.1349 
G01 X-0.1099 Y0.1372 
G01 X-0.1000 Y0.1380 
G01 X-0.0901 Y0.1372 
G01 X-0.0805 Y0.1349 
G01 X-0.0714 Y0.1311 
G01 X-0.0630 Y0.1260 
G01 X-0.0555 Y0.1195 
G01 X-0.0490 Y0.1120 
G01 X-0.0439 Y0.1036 
G01 X-0.0401 Y0.0945 
G01 X-0.0378 Y0.0849 
G01 X-0.0370 Y0.0750 
G01 X-0.0378 Y0.0651 
G01 X-0.0401 Y0.0555 
G01 X-0.0439 Y0.0464 
G01 X-0.0490 Y0.0380 
G01 X-0.0555 Y0.0305 
G01 X-0.0630 Y0.0240 
G01 X-0.0714 Y0.0189 
G01 X-0.0805 Y0.0151 
G01 X-0.0901 Y0.0128 
G01 X-0.1000 Y0.0120 
G01 X-0.1099 Y0.0128 
G01 X-0.1195 Y0.0151 
G01 X-0.1286 Y0.0189 
G01 X-0.1370 Y0.0240 
G01 X-0.1445 Y0.0305 
G01 X-0.1510 Y0.0380 
G01 X-0.1561 Y0.0464 
G01 X-0.1599 Y0.0555 
G01 X-0.1622 Y0.0651 
G01 X-0.1630 Y0.0750 
G01 X-0.1622 Y0.0849 
G01 X-0.1599 Y0.0945 
G00 Z0.1000 
G00 X-0.4424 Y0.0290 
G01 Z0.0000 F10.00 
G01 X-0.4424 Y0.0325 F20.00 
G01 X-0.4415 Y0.0358 
G01 X-0.4415 Y0.0359 
G01 X-0.4397 Y0.0390 
G01 X-0.4244 Y0.0544 
G01 X-0.4219 Y0.0569 
G01 X-0.4188 Y0.0587 
G01 X-0.4154 Y0.0596 
G01 X-0.3811 Y0.0596 
G01 X-0.3777 Y0.0587 
G01 X-0.3746 Y0.0569 
G01 X-0.3592 Y0.0415 
G01 X-0.3567 Y0.0390 
G01 X-0.3550 Y0.0359 
G01 X-0.3540 Y0.0325 
G01 X-0.3540 Y-0.0324 
G01 X-0.3550 Y-0.0359 
G01 X-0.3567 Y-0.0389 
G01 X-0.3746 Y-0.0568 
G01 X-0.3776 Y-0.0586 
G01 X-0.3811 Y-0.0595 
G01 X-0.4154 Y-0.0595 
G01 X-0.4188 Y-0.0586 
G01 X-0.4219 Y-0.0568 
G01 X-0.4372 Y-0.0415 
G01 X-0.4397 Y-0.0389 
G01 X-0.4415 Y-0.0359 
G01 X-0.4424 Y-0.0324 
G01 X-0.4424 Y-0.0289 
G01 X-0.4424 Y0.0290 
G00 Z0.1000 
G00 X-0.3286 Y0.0046 
G01 Z0.0000 F10.00 
G01 X-0.3316 Y0.0028 F20.00 
G01 X-0.3351 Y0.0019 
G01 X-0.3386 Y0.0019 
G01 X-0.3421 Y0.0028 
G01 X-0.3451 Y0.0046 
G01 X-0.3476 Y0.0071 
G01 X-0.3494 Y0.0102 
G01 X-0.3503 Y0.0136 
G01 X-0.3503 Y0.0172 
G01 X-0.3494 Y0.0206 
G01 X-0.3476 Y0.0237 
G01 X-0.3170 Y0.0544 
G01 X-0.3144 Y0.0569 
G01 X-0.3114 Y0.0587 
G01 X-0.3079 Y0.0596 
G01 X-0.3044 Y0.0596 
G01 X-0.3009 Y0.0587 
G01 X-0.2979 Y0.0569 
G01 X-0.2954 Y0.0544 
G01 X-0.2936 Y0.0513 
G01 X-0.2926 Y0.0479 
G01 X-0.2926 Y-0.0325 
G01 X-0.2737 Y-0.0325 
G01 X-0.2702 Y-0.0334 
G01 X-0.2672 Y-0.0352 
G01 X-0.2647 Y-0.0377 
G01 X-0.2629 Y-0.0408 
G01 X-0.2620 Y-0.0442 
G01 X-0.2620 Y-0.0478 
G01 X-0.2629 Y-0.0512 
G01 X-0.2647 Y-0.0543 
G01 X-0.2672 Y-0.0568 
G01 X-0.2702 Y-0.0586 
G01 X-0.2737 Y-0.0595 
G01 X-0.3386 Y-0.0595 
G01 X-0.3421 Y-0.0586 
G01 X-0.3451 Y-0.0568 
G01 X-0.3476 Y-0.0543 
G01 X-0.3494 Y-0.0512 
G01 X-0.3503 Y-0.0478 
G01 X-0.3503 Y-0.0442 
G01 X-0.3494 Y-0.0408 
G01 X-0.3476 Y-0.0377 
G01 X-0.3451 Y-0.0352 
G01 X-0.3421 Y-0.0334 
G01 X-0.3386 Y-0.0325 
G01 X-0.3196 Y-0.0325 
G01 X-0.3196 Y0.0135 
G01 X-0.3286 Y0.0046 
G00 Z0.1000 
G00 X-0.1816 Y0.0596 
G01 Z0.0000 F10.00 
G01 X-0.1782 Y0.0587 F20.00 
G01 X-0.1751 Y0.0569 
G01 X-0.1726 Y0.0544 
G01 X-0.1708 Y0.0513 
G01 X-0.1699 Y0.0479 
G01 X-0.1699 Y0.0443 
G01 X-0.1708 Y0.0409 
G01 X-0.1726 Y0.0378 
G01 X-0.1751 Y0.0353 
G01 X-0.1782 Y0.0335 
G01 X-0.1816 Y0.0326 
G01 X-0.2313 Y0.0326 
G01 X-0.2313 Y0.0219 
G01 X-0.2205 Y0.0273 
G01 X-0.2193 Y0.0280 
G01 X-0.2189 Y0.0281 
G01 X-0.2185 Y0.0283 
G01 X-0.2172 Y0.0285 
G01 X-0.2158 Y0.0289 
G01 X-0.2154 Y0.0289 
G01 X-0.2150 Y0.0290 
G01 X-0.2137 Y0.0289 
G01 X-0.1969 Y0.0289 
G01 X-0.1935 Y0.0280 
G01 X-0.1904 Y0.0262 
G01 X-0.1751 Y0.0108 
G01 X-0.1726 Y0.0083 
G01 X-0.1708 Y0.0053 
G01 X-0.1699 Y0.0018 
G01 X-0.1699 Y-0.0324 
G01 X-0.1708 Y-0.0359 
G01 X-0.1726 Y-0.0389 
G01 X-0.1904 Y-0.0568 
G01 X-0.1935 Y-0.0586 
G01 X-0.1969 Y-0.0595 
