(.../Programs/Tech/pcbgcode/pcb-gcode.ulp)
(Copyright 2005 - 2012 by John Johnson)
(See readme.txt for licensing terms.)
(This file generated from the board:)
(.../Work-in-progress/Eagle/dht22ow3.brd)
(Current profile is .../pcbgcode/profiles/generic.pp  )
(This file generated 3/9/2015 10:52:43 PM)
(Settings from pcb-machine.h)
(  Tool Size)
(0.0070 )
(Z Axis Settings)
(  High     Up        Down     Drill)
(0.5000 	0.1000 	0.0000 	-0.0100 )
(spindle on time = 3.0000)
(milling depth = -0.0100)
(text depth = -0.0100)
(tool change at 0.5000 0.6000 1.0000 )
(feed rate xy = F20.00 )
(feed rate z  = F10.00 )
(Settings from pcb-defaults.h)
(isolate min = 0.0010)
(isolate max = 0.0400)
(isolate step = 0.0050)
(Generated top outlines, )
(Unit of measure: inch)
(Inch Mode)
G20
(Absolute Coordinates)
G90
G00 X0.0000 Y0.0000 
M03
G04 P3.000000
G00 Z0.1000 
G00 X0.0345 Y0.4655 
G01 Z0.0000 F10.00 
G01 X0.9155 Y0.4655 F20.00 
G01 X0.9155 Y0.0345 
G01 X0.0345 Y0.0345 
G01 X0.0345 Y0.4655 
G00 Z0.1000 
G00 X0.4302 Y0.2970 
G01 Z0.0000 F10.00 
G01 X0.4302 Y0.3030 F20.00 
G01 X0.4291 Y0.3088 
G01 X0.4268 Y0.3143 
G01 X0.4235 Y0.3193 
G01 X0.4193 Y0.3235 
G01 X0.4143 Y0.3268 
G01 X0.4088 Y0.3291 
G01 X0.4030 Y0.3302 
G01 X0.3970 Y0.3302 
G01 X0.3912 Y0.3291 
G01 X0.3857 Y0.3268 
G01 X0.3807 Y0.3235 
G01 X0.3765 Y0.3193 
G01 X0.3732 Y0.3143 
G01 X0.3709 Y0.3088 
G01 X0.3698 Y0.3030 
G01 X0.3698 Y0.2970 
G01 X0.3709 Y0.2912 
G01 X0.3732 Y0.2857 
G01 X0.3765 Y0.2807 
G01 X0.3807 Y0.2765 
G01 X0.3857 Y0.2732 
G01 X0.3912 Y0.2709 
G01 X0.3970 Y0.2698 
G01 X0.4030 Y0.2698 
G01 X0.4088 Y0.2709 
G01 X0.4143 Y0.2732 
G01 X0.4193 Y0.2765 
G01 X0.4235 Y0.2807 
G01 X0.4268 Y0.2857 
G01 X0.4291 Y0.2912 
G01 X0.4302 Y0.2970 
G00 Z0.1000 
G00 X0.7663 Y0.1034 
G01 Z0.0000 F10.00 
G01 X0.7663 Y0.1918 F20.00 
G01 X0.7656 Y0.1935 
G01 X0.7644 Y0.1948 
G01 X0.7627 Y0.1954 
G01 X0.7373 Y0.1954 
G01 X0.7356 Y0.1948 
G01 X0.7344 Y0.1935 
G01 X0.7337 Y0.1918 
G01 X0.7337 Y0.1034 
G01 X0.7344 Y0.1018 
G01 X0.7356 Y0.1005 
G01 X0.7373 Y0.0998 
G01 X0.7627 Y0.0998 
G01 X0.7644 Y0.1005 
G01 X0.7656 Y0.1018 
G01 X0.7663 Y0.1034 
G00 Z0.1000 
G00 X0.7663 Y0.3082 
G01 Z0.0000 F10.00 
G01 X0.7663 Y0.3966 F20.00 
G01 X0.7656 Y0.3982 
G01 X0.7644 Y0.3995 
G01 X0.7627 Y0.4002 
G01 X0.7373 Y0.4002 
G01 X0.7356 Y0.3995 
G01 X0.7344 Y0.3982 
G01 X0.7337 Y0.3966 
G01 X0.7337 Y0.3082 
G01 X0.7344 Y0.3065 
G01 X0.7356 Y0.3052 
G01 X0.7373 Y0.3046 
G01 X0.7627 Y0.3046 
G01 X0.7644 Y0.3052 
G01 X0.7656 Y0.3065 
G01 X0.7663 Y0.3082 
G00 Z0.1000 
G00 X0.7163 Y0.1034 
G01 Z0.0000 F10.00 
G01 X0.7163 Y0.1918 F20.00 
G01 X0.7156 Y0.1935 
G01 X0.7144 Y0.1948 
G01 X0.7127 Y0.1954 
G01 X0.6873 Y0.1954 
G01 X0.6856 Y0.1948 
G01 X0.6844 Y0.1935 
G01 X0.6837 Y0.1918 
G01 X0.6837 Y0.1264 
G01 X0.6698 Y0.1125 
G01 X0.5899 Y0.1125 
G01 X0.5899 Y0.1773 
G01 X0.5892 Y0.1789 
G01 X0.5880 Y0.1802 
G01 X0.5863 Y0.1809 
G01 X0.5137 Y0.1809 
G01 X0.5120 Y0.1802 
G01 X0.5108 Y0.1789 
G01 X0.5101 Y0.1773 
G01 X0.5101 Y0.1125 
G01 X0.4302 Y0.1125 
G01 X0.4125 Y0.1302 
G01 X0.3875 Y0.1302 
G01 X0.3698 Y0.1125 
G01 X0.2552 Y0.1125 
G01 X0.2375 Y0.1302 
G01 X0.2375 Y0.1698 
G01 X0.3100 Y0.2423 
G01 X0.3116 Y0.2452 
G01 X0.3152 Y0.2466 
G01 X0.3204 Y0.2501 
G01 X0.3249 Y0.2546 
G01 X0.3284 Y0.2598 
G01 X0.3308 Y0.2657 
G01 X0.3320 Y0.2718 
G01 X0.3320 Y0.2782 
G01 X0.3308 Y0.2843 
G01 X0.3284 Y0.2902 
G01 X0.3249 Y0.2954 
G01 X0.3204 Y0.2999 
G01 X0.3152 Y0.3034 
G01 X0.3093 Y0.3058 
G01 X0.3032 Y0.3070 
G01 X0.2968 Y0.3070 
G01 X0.2907 Y0.3058 
G01 X0.2848 Y0.3034 
G01 X0.2796 Y0.2999 
G01 X0.2751 Y0.2954 
G01 X0.2716 Y0.2902 
G01 X0.2692 Y0.2843 
G01 X0.2680 Y0.2782 
G01 X0.2680 Y0.2718 
G01 X0.2692 Y0.2657 
G01 X0.2716 Y0.2598 
G01 X0.2751 Y0.2546 
G01 X0.2796 Y0.2501 
G01 X0.2813 Y0.2490 
G01 X0.2173 Y0.1850 
G01 X0.2150 Y0.1827 
G01 X0.2134 Y0.1798 
G01 X0.2125 Y0.1766 
G01 X0.2125 Y0.1234 
G01 X0.2134 Y0.1202 
G01 X0.2150 Y0.1173 
G01 X0.2400 Y0.0923 
G01 X0.2423 Y0.0900 
G01 X0.2452 Y0.0884 
G01 X0.2484 Y0.0875 
G01 X0.3698 Y0.0875 
G01 X0.3875 Y0.0698 
G01 X0.4125 Y0.0698 
G01 X0.4302 Y0.0875 
G01 X0.6766 Y0.0875 
G01 X0.6798 Y0.0884 
G01 X0.6827 Y0.0900 
G01 X0.6925 Y0.0998 
G01 X0.7127 Y0.0998 
G01 X0.7144 Y0.1005 
G01 X0.7156 Y0.1018 
G01 X0.7163 Y0.1034 
G00 Z0.1000 
G00 X0.8163 Y0.1034 
G01 Z0.0000 F10.00 
G01 X0.8163 Y0.1918 F20.00 
G01 X0.8156 Y0.1935 
G01 X0.8144 Y0.1948 
G01 X0.8127 Y0.1954 
G01 X0.8125 Y0.1954 
G01 X0.8125 Y0.2016 
G01 X0.8116 Y0.2048 
G01 X0.8100 Y0.2077 
G01 X0.8077 Y0.2100 
G01 X0.7850 Y0.2327 
G01 X0.7827 Y0.2350 
G01 X0.7798 Y0.2366 
G01 X0.7766 Y0.2375 
G01 X0.6234 Y0.2375 
G01 X0.6202 Y0.2366 
G01 X0.6173 Y0.2350 
G01 X0.6150 Y0.2327 
G01 X0.5948 Y0.2125 
G01 X0.4276 Y0.2125 
G01 X0.4268 Y0.2143 
G01 X0.4235 Y0.2193 
G01 X0.4193 Y0.2235 
G01 X0.4143 Y0.2268 
G01 X0.4088 Y0.2291 
G01 X0.4030 Y0.2302 
G01 X0.3970 Y0.2302 
G01 X0.3912 Y0.2291 
G01 X0.3857 Y0.2268 
G01 X0.3807 Y0.2235 
G01 X0.3765 Y0.2193 
G01 X0.3732 Y0.2143 
G01 X0.3709 Y0.2088 
G01 X0.3698 Y0.2030 
G01 X0.3698 Y0.1970 
G01 X0.3709 Y0.1912 
G01 X0.3732 Y0.1857 
G01 X0.3765 Y0.1807 
G01 X0.3807 Y0.1765 
G01 X0.3857 Y0.1732 
G01 X0.3912 Y0.1709 
G01 X0.3970 Y0.1698 
G01 X0.4030 Y0.1698 
G01 X0.4088 Y0.1709 
G01 X0.4143 Y0.1732 
G01 X0.4193 Y0.1765 
G01 X0.4235 Y0.1807 
G01 X0.4268 Y0.1857 
G01 X0.4276 Y0.1875 
G01 X0.6016 Y0.1875 
G01 X0.6048 Y0.1884 
G01 X0.6077 Y0.1900 
G01 X0.6100 Y0.1923 
G01 X0.6302 Y0.2125 
G01 X0.7698 Y0.2125 
G01 X0.7870 Y0.1953 
G01 X0.7856 Y0.1948 
G01 X0.7844 Y0.1935 
G01 X0.7837 Y0.1918 
G01 X0.7837 Y0.1034 
G01 X0.7844 Y0.1018 
G01 X0.7856 Y0.1005 
G01 X0.7873 Y0.0998 
G01 X0.8127 Y0.0998 
G01 X0.8144 Y0.1005 
G01 X0.8156 Y0.1018 
G01 X0.8163 Y0.1034 
G00 Z0.1000 
G00 X0.8663 Y0.1034 
G01 Z0.0000 F10.00 
G01 X0.8663 Y0.1918 F20.00 
G01 X0.8656 Y0.1935 
G01 X0.8644 Y0.1948 
G01 X0.8627 Y0.1954 
G01 X0.8373 Y0.1954 
G01 X0.8356 Y0.1948 
G01 X0.8344 Y0.1935 
G01 X0.8337 Y0.1918 
G01 X0.8337 Y0.1034 
G01 X0.8344 Y0.1018 
G01 X0.8356 Y0.1005 
G01 X0.8373 Y0.0998 
G01 X0.8627 Y0.0998 
G01 X0.8644 Y0.1005 
G01 X0.8656 Y0.1018 
G01 X0.8663 Y0.1034 
G00 Z0.1000 
G00 X0.8163 Y0.3082 
G01 Z0.0000 F10.00 
G01 X0.8163 Y0.3966 F20.00 
G01 X0.8156 Y0.3982 
G01 X0.8144 Y0.3995 
G01 X0.8127 Y0.4002 
G01 X0.7873 Y0.4002 
G01 X0.7856 Y0.3995 
G01 X0.7844 Y0.3982 
G01 X0.7837 Y0.3966 
G01 X0.7837 Y0.3082 
G01 X0.7844 Y0.3065 
G01 X0.7856 Y0.3052 
G01 X0.7873 Y0.3046 
G01 X0.8127 Y0.3046 
G01 X0.8144 Y0.3052 
G01 X0.8156 Y0.3065 
G01 X0.8163 Y0.3082 
G00 Z0.1000 
G00 X0.8663 Y0.3082 
G01 Z0.0000 F10.00 
G01 X0.8663 Y0.3966 F20.00 
G01 X0.8656 Y0.3982 
G01 X0.8644 Y0.3995 
G01 X0.8627 Y0.4002 
G01 X0.8373 Y0.4002 
G01 X0.8356 Y0.3995 
G01 X0.8344 Y0.3982 
G01 X0.8337 Y0.3966 
G01 X0.8337 Y0.3082 
G01 X0.8344 Y0.3065 
G01 X0.8356 Y0.3052 
G01 X0.8370 Y0.3047 
G01 X0.8198 Y0.2875 
G01 X0.6552 Y0.2875 
G01 X0.6327 Y0.3100 
G01 X0.6384 Y0.3100 
G01 X0.6400 Y0.3107 
G01 X0.6413 Y0.3120 
G01 X0.6420 Y0.3136 
G01 X0.6420 Y0.3864 
G01 X0.6413 Y0.3880 
G01 X0.6400 Y0.3893 
G01 X0.6384 Y0.3900 
G01 X0.5736 Y0.3900 
G01 X0.5719 Y0.3893 
G01 X0.5707 Y0.3880 
G01 X0.5700 Y0.3864 
G01 X0.5700 Y0.3136 
G01 X0.5707 Y0.3120 
G01 X0.5719 Y0.3107 
G01 X0.5736 Y0.3100 
G01 X0.5973 Y0.3100 
G01 X0.6400 Y0.2673 
G01 X0.6423 Y0.2650 
G01 X0.6452 Y0.2634 
G01 X0.6484 Y0.2625 
G01 X0.8266 Y0.2625 
G01 X0.8298 Y0.2634 
G01 X0.8327 Y0.2650 
G01 X0.8577 Y0.2900 
G01 X0.8600 Y0.2923 
G01 X0.8616 Y0.2952 
G01 X0.8625 Y0.2984 
G01 X0.8625 Y0.3046 
G01 X0.8627 Y0.3046 
G01 X0.8644 Y0.3052 
G01 X0.8656 Y0.3065 
G01 X0.8663 Y0.3082 
G00 Z0.1000 
G00 X0.4580 Y0.3864 
G01 Z0.0000 F10.00 
G01 X0.4580 Y0.3625 F20.00 
G01 X0.2984 Y0.3625 
G01 X0.2952 Y0.3616 
G01 X0.2923 Y0.3600 
G01 X0.2900 Y0.3577 
G01 X0.1900 Y0.2577 
G01 X0.1884 Y0.2548 
G01 X0.1848 Y0.2534 
G01 X0.1796 Y0.2499 
G01 X0.1751 Y0.2454 
G01 X0.1716 Y0.2402 
G01 X0.1692 Y0.2343 
G01 X0.1680 Y0.2282 
G01 X0.1680 Y0.2218 
G01 X0.1692 Y0.2157 
G01 X0.1716 Y0.2098 
G01 X0.1751 Y0.2046 
G01 X0.1796 Y0.2001 
G01 X0.1848 Y0.1966 
G01 X0.1907 Y0.1942 
G01 X0.1968 Y0.1930 
G01 X0.2032 Y0.1930 
G01 X0.2093 Y0.1942 
G01 X0.2152 Y0.1966 
G01 X0.2204 Y0.2001 
G01 X0.2249 Y0.2046 
G01 X0.2284 Y0.2098 
G01 X0.2308 Y0.2157 
G01 X0.2320 Y0.2218 
G01 X0.2320 Y0.2282 
G01 X0.2308 Y0.2343 
G01 X0.2284 Y0.2402 
G01 X0.2249 Y0.2454 
G01 X0.2204 Y0.2499 
G01 X0.2187 Y0.2510 
G01 X0.3052 Y0.3375 
G01 X0.4580 Y0.3375 
G01 X0.4580 Y0.3136 
G01 X0.4587 Y0.3120 
G01 X0.4600 Y0.3107 
G01 X0.4616 Y0.3100 
G01 X0.5264 Y0.3100 
G01 X0.5281 Y0.3107 
G01 X0.5293 Y0.3120 
G01 X0.5300 Y0.3136 
G01 X0.5300 Y0.3864 
G01 X0.5293 Y0.3880 
G01 X0.5281 Y0.3893 
G01 X0.5264 Y0.3900 
G01 X0.4616 Y0.3900 
G01 X0.4600 Y0.3893 
G01 X0.4587 Y0.3880 
G01 X0.4580 Y0.3864 
G00 Z0.1000 
G00 X0.2320 Y0.3218 
G01 Z0.0000 F10.00 
G01 X0.2320 Y0.3282 F20.00 
G01 X0.2308 Y0.3343 
G01 X0.2284 Y0.3402 
G01 X0.2249 Y0.3454 
G01 X0.2204 Y0.3499 
G01 X0.2187 Y0.3510 
G01 X0.2552 Y0.3875 
G01 X0.3724 Y0.3875 
G01 X0.3732 Y0.3857 
G01 X0.3765 Y0.3807 
G01 X0.3807 Y0.3765 
G01 X0.3857 Y0.3732 
G01 X0.3912 Y0.3709 
G01 X0.3970 Y0.3698 
G01 X0.4030 Y0.3698 
G01 X0.4088 Y0.3709 
G01 X0.4143 Y0.3732 
G01 X0.4193 Y0.3765 
G01 X0.4235 Y0.3807 
G01 X0.4268 Y0.3857 
G01 X0.4291 Y0.3912 
G01 X0.4302 Y0.3970 
G01 X0.4302 Y0.4030 
G01 X0.4291 Y0.4088 
G01 X0.4283 Y0.4107 
G01 X0.4302 Y0.4125 
G01 X0.5375 Y0.4125 
G01 X0.5375 Y0.2911 
G01 X0.5137 Y0.2911 
G01 X0.5120 Y0.2904 
G01 X0.5108 Y0.2892 
G01 X0.5101 Y0.2875 
G01 X0.5101 Y0.2227 
G01 X0.5108 Y0.2211 
G01 X0.5120 Y0.2198 
G01 X0.5137 Y0.2191 
G01 X0.5863 Y0.2191 
G01 X0.5880 Y0.2198 
G01 X0.5892 Y0.2211 
G01 X0.5899 Y0.2227 
G01 X0.5899 Y0.2875 
G01 X0.5892 Y0.2892 
G01 X0.5880 Y0.2904 
G01 X0.5863 Y0.2911 
G01 X0.5625 Y0.2911 
G01 X0.5625 Y0.4125 
G01 X0.6698 Y0.4125 
G01 X0.6843 Y0.3980 
G01 X0.6837 Y0.3966 
G01 X0.6837 Y0.3082 
G01 X0.6844 Y0.3065 
G01 X0.6856 Y0.3052 
G01 X0.6873 Y0.3046 
G01 X0.7127 Y0.3046 
G01 X0.7144 Y0.3052 
G01 X0.7156 Y0.3065 
G01 X0.7163 Y0.3082 
G01 X0.7163 Y0.3966 
G01 X0.7156 Y0.3982 
G01 X0.7144 Y0.3995 
G01 X0.7127 Y0.4002 
G01 X0.7125 Y0.4002 
G01 X0.7125 Y0.4016 
G01 X0.7116 Y0.4048 
G01 X0.7100 Y0.4077 
G01 X0.7077 Y0.4100 
G01 X0.6827 Y0.4350 
G01 X0.6798 Y0.4366 
G01 X0.6766 Y0.4375 
G01 X0.4234 Y0.4375 
G01 X0.4202 Y0.4366 
G01 X0.4173 Y0.4350 
G01 X0.4107 Y0.4283 
G01 X0.4088 Y0.4291 
G01 X0.4030 Y0.4302 
G01 X0.3970 Y0.4302 
G01 X0.3912 Y0.4291 
G01 X0.3857 Y0.4268 
G01 X0.3807 Y0.4235 
G01 X0.3765 Y0.4193 
G01 X0.3732 Y0.4143 
G01 X0.3724 Y0.4125 
G01 X0.2484 Y0.4125 
G01 X0.2452 Y0.4116 
G01 X0.2423 Y0.4100 
G01 X0.1923 Y0.3600 
G01 X0.1900 Y0.3577 
G01 X0.1884 Y0.3548 
G01 X0.1848 Y0.3534 
G01 X0.1796 Y0.3499 
G01 X0.1751 Y0.3454 
G01 X0.1716 Y0.3402 
G01 X0.1692 Y0.3343 
G01 X0.1680 Y0.3282 
G01 X0.1680 Y0.3218 
G01 X0.1692 Y0.3157 
G01 X0.1716 Y0.3098 
G01 X0.1751 Y0.3046 
G01 X0.1796 Y0.3001 
G01 X0.1848 Y0.2966 
G01 X0.1907 Y0.2942 
G01 X0.1968 Y0.2930 
G01 X0.2032 Y0.2930 
G01 X0.2093 Y0.2942 
G01 X0.2152 Y0.2966 
G01 X0.2204 Y0.3001 
G01 X0.2249 Y0.3046 
G01 X0.2284 Y0.3098 
G01 X0.2308 Y0.3157 
G01 X0.2320 Y0.3218 
G00 Z0.1000 
G00 X0.3320 Y0.1718 
G01 Z0.0000 F10.00 
G01 X0.3320 Y0.1782 F20.00 
G01 X0.3308 Y0.1843 
G01 X0.3284 Y0.1902 
G01 X0.3249 Y0.1954 
G01 X0.3204 Y0.1999 
G01 X0.3152 Y0.2034 
G01 X0.3093 Y0.2058 
G01 X0.3032 Y0.2070 
G01 X0.2968 Y0.2070 
G01 X0.2907 Y0.2058 
G01 X0.2848 Y0.2034 
G01 X0.2796 Y0.1999 
G01 X0.2751 Y0.1954 
G01 X0.2716 Y0.1902 
G01 X0.2692 Y0.1843 
G01 X0.2680 Y0.1782 
G01 X0.2680 Y0.1718 
G01 X0.2692 Y0.1657 
G01 X0.2716 Y0.1598 
G01 X0.2751 Y0.1546 
G01 X0.2796 Y0.1501 
G01 X0.2848 Y0.1466 
G01 X0.2907 Y0.1442 
G01 X0.2968 Y0.1430 
G01 X0.3032 Y0.1430 
G01 X0.3093 Y0.1442 
G01 X0.3152 Y0.1466 
G01 X0.3204 Y0.1501 
G01 X0.3249 Y0.1546 
G01 X0.3284 Y0.1598 
G01 X0.3308 Y0.1657 
G01 X0.3320 Y0.1718 
G00 Z0.1000 
G00 X0.9345 Y0.4731 
G01 Z0.0000 F10.00 
G01 X0.9345 Y0.4769 F20.00 
G01 X0.9331 Y0.4804 
G01 X0.9304 Y0.4831 
G01 X0.9269 Y0.4845 
G01 X0.0231 Y0.4845 
G01 X0.0196 Y0.4831 
G01 X0.0169 Y0.4804 
G01 X0.0155 Y0.4769 
G01 X0.0155 Y0.0231 
G01 X0.0169 Y0.0196 
G01 X0.0196 Y0.0169 
G01 X0.0231 Y0.0155 
G01 X0.9269 Y0.0155 
G01 X0.9304 Y0.0169 
G01 X0.9331 Y0.0196 
G01 X0.9345 Y0.0231 
G01 X0.9345 Y0.0269 
G01 X0.9345 Y0.4731 
G00 Z0.1000 
G00 X0.2644 Y0.2858 
G01 Z0.0000 F10.00 
G01 X0.2630 Y0.2786 F20.00 
G01 X0.2630 Y0.2714 
G01 X0.2644 Y0.2642 
G01 X0.2672 Y0.2575 
G01 X0.2713 Y0.2514 
G01 X0.2740 Y0.2487 
G01 X0.2328 Y0.2076 
G01 X0.2356 Y0.2142 
G01 X0.2370 Y0.2214 
G01 X0.2370 Y0.2286 
G01 X0.2356 Y0.2358 
G01 X0.2328 Y0.2425 
G01 X0.2287 Y0.2486 
G01 X0.2260 Y0.2513 
G01 X0.2672 Y0.2924 
G01 X0.2644 Y0.2858 
G00 Z0.1000 
G00 X0.4167 Y0.3688 
G01 Z0.0000 F10.00 
G01 X0.4225 Y0.3726 F20.00 
G01 X0.4274 Y0.3775 
G01 X0.4312 Y0.3833 
G01 X0.4339 Y0.3897 
G01 X0.4352 Y0.3965 
G01 X0.4352 Y0.4035 
G01 X0.4344 Y0.4075 
G01 X0.5325 Y0.4075 
G01 X0.5325 Y0.3919 
G01 X0.5309 Y0.3935 
G01 X0.5274 Y0.3950 
G01 X0.4606 Y0.3950 
G01 X0.4571 Y0.3935 
G01 X0.4545 Y0.3909 
G01 X0.4530 Y0.3874 
G01 X0.4530 Y0.3675 
G01 X0.4136 Y0.3675 
G01 X0.4167 Y0.3688 
G00 Z0.1000 
G00 X0.2328 Y0.3076 
G01 Z0.0000 F10.00 
G01 X0.2356 Y0.3142 F20.00 
G01 X0.2370 Y0.3214 
G01 X0.2370 Y0.3286 
G01 X0.2356 Y0.3358 
G01 X0.2328 Y0.3425 
G01 X0.2287 Y0.3486 
G01 X0.2260 Y0.3513 
G01 X0.2572 Y0.3825 
G01 X0.3693 Y0.3825 
G01 X0.3726 Y0.3775 
G01 X0.3775 Y0.3726 
G01 X0.3833 Y0.3688 
G01 X0.3864 Y0.3675 
G01 X0.2977 Y0.3675 
G01 X0.2932 Y0.3663 
G01 X0.2893 Y0.3640 
G01 X0.2860 Y0.3607 
G01 X0.2328 Y0.3076 
G00 Z0.1000 
G00 X0.4352 Y0.2965 
G01 Z0.0000 F10.00 
G01 X0.4352 Y0.3035 F20.00 
G01 X0.4339 Y0.3103 
G01 X0.4312 Y0.3167 
G01 X0.4274 Y0.3225 
G01 X0.4225 Y0.3274 
G01 X0.4167 Y0.3312 
G01 X0.4136 Y0.3325 
G01 X0.4530 Y0.3325 
G01 X0.4530 Y0.3126 
G01 X0.4545 Y0.3091 
G01 X0.4571 Y0.3065 
G01 X0.4606 Y0.3050 
G01 X0.5274 Y0.3050 
G01 X0.5309 Y0.3065 
G01 X0.5325 Y0.3081 
G01 X0.5325 Y0.2961 
G01 X0.5127 Y0.2961 
G01 X0.5092 Y0.2947 
G01 X0.5065 Y0.2920 
G01 X0.5051 Y0.2885 
G01 X0.5051 Y0.2217 
G01 X0.5065 Y0.2182 
G01 X0.5073 Y0.2175 
G01 X0.4307 Y0.2175 
G01 X0.4274 Y0.2225 
G01 X0.4225 Y0.2274 
G01 X0.4167 Y0.2312 
G01 X0.4103 Y0.2339 
G01 X0.4035 Y0.2352 
G01 X0.3965 Y0.2352 
G01 X0.3897 Y0.2339 
G01 X0.3833 Y0.2312 
G01 X0.3775 Y0.2274 
G01 X0.3726 Y0.2225 
G01 X0.3688 Y0.2167 
G01 X0.3661 Y0.2103 
G01 X0.3648 Y0.2035 
G01 X0.3648 Y0.1965 
G01 X0.3661 Y0.1897 
G01 X0.3688 Y0.1833 
G01 X0.3726 Y0.1775 
G01 X0.3775 Y0.1726 
G01 X0.3833 Y0.1688 
G01 X0.3897 Y0.1661 
G01 X0.3965 Y0.1648 
G01 X0.4035 Y0.1648 
G01 X0.4103 Y0.1661 
G01 X0.4167 Y0.1688 
G01 X0.4225 Y0.1726 
G01 X0.4274 Y0.1775 
G01 X0.4307 Y0.1825 
G01 X0.5073 Y0.1825 
G01 X0.5065 Y0.1818 
G01 X0.5051 Y0.1783 
G01 X0.5051 Y0.1175 
G01 X0.4323 Y0.1175 
G01 X0.4146 Y0.1352 
G01 X0.3854 Y0.1352 
G01 X0.3677 Y0.1175 
G01 X0.2572 Y0.1175 
G01 X0.2425 Y0.1322 
G01 X0.2425 Y0.1678 
G01 X0.2672 Y0.1924 
G01 X0.2644 Y0.1858 
G01 X0.2630 Y0.1786 
G01 X0.2630 Y0.1714 
G01 X0.2644 Y0.1642 
G01 X0.2672 Y0.1575 
G01 X0.2713 Y0.1514 
G01 X0.2764 Y0.1463 
G01 X0.2825 Y0.1422 
G01 X0.2892 Y0.1394 
G01 X0.2964 Y0.1380 
G01 X0.3036 Y0.1380 
G01 X0.3108 Y0.1394 
G01 X0.3175 Y0.1422 
G01 X0.3236 Y0.1463 
G01 X0.3287 Y0.1514 
G01 X0.3328 Y0.1575 
G01 X0.3356 Y0.1642 
G01 X0.3370 Y0.1714 
G01 X0.3370 Y0.1786 
G01 X0.3356 Y0.1858 
G01 X0.3328 Y0.1925 
G01 X0.3287 Y0.1986 
G01 X0.3236 Y0.2037 
G01 X0.3175 Y0.2078 
G01 X0.3108 Y0.2106 
G01 X0.3036 Y0.2120 
G01 X0.2964 Y0.2120 
G01 X0.2892 Y0.2106 
G01 X0.2826 Y0.2078 
G01 X0.3140 Y0.2393 
G01 X0.3151 Y0.2412 
G01 X0.3175 Y0.2422 
G01 X0.3236 Y0.2463 
G01 X0.3287 Y0.2514 
G01 X0.3328 Y0.2575 
G01 X0.3356 Y0.2642 
G01 X0.3370 Y0.2714 
G01 X0.3370 Y0.2786 
G01 X0.3356 Y0.2858 
G01 X0.3328 Y0.2925 
G01 X0.3287 Y0.2986 
G01 X0.3236 Y0.3037 
G01 X0.3175 Y0.3078 
G01 X0.3108 Y0.3106 
G01 X0.3036 Y0.3120 
G01 X0.2964 Y0.3120 
G01 X0.2892 Y0.3106 
G01 X0.2826 Y0.3078 
G01 X0.3072 Y0.3325 
G01 X0.3864 Y0.3325 
G01 X0.3833 Y0.3312 
G01 X0.3775 Y0.3274 
G01 X0.3726 Y0.3225 
G01 X0.3688 Y0.3167 
G01 X0.3661 Y0.3103 
G01 X0.3648 Y0.3035 
G01 X0.3648 Y0.2965 
G01 X0.3661 Y0.2897 
G01 X0.3688 Y0.2833 
G01 X0.3726 Y0.2775 
G01 X0.3775 Y0.2726 
G01 X0.3833 Y0.2688 
G01 X0.3897 Y0.2661 
G01 X0.3965 Y0.2648 
G01 X0.4035 Y0.2648 
G01 X0.4103 Y0.2661 
G01 X0.4167 Y0.2688 
G01 X0.4225 Y0.2726 
G01 X0.4274 Y0.2775 
G01 X0.4312 Y0.2833 
G01 X0.4339 Y0.2897 
G01 X0.4352 Y0.2965 
G00 Z0.1000 
G00 X0.0395 Y0.4605 
G01 Z0.0000 F10.00 
G01 X0.9105 Y0.4605 F20.00 
G01 X0.9105 Y0.0395 
G01 X0.0395 Y0.0395 
G01 X0.0395 Y0.4605 
G00 Z0.1000 
G00 X0.7713 Y0.1024 
G01 Z0.0000 F10.00 
G01 X0.7713 Y0.1928 F20.00 
G01 X0.7699 Y0.1963 
G01 X0.7672 Y0.1990 
G01 X0.7637 Y0.2004 
G01 X0.7363 Y0.2004 
G01 X0.7328 Y0.1990 
G01 X0.7301 Y0.1963 
G01 X0.7287 Y0.1928 
G01 X0.7287 Y0.1024 
G01 X0.7301 Y0.0989 
G01 X0.7328 Y0.0963 
G01 X0.7363 Y0.0948 
G01 X0.7637 Y0.0948 
G01 X0.7672 Y0.0963 
G01 X0.7699 Y0.0989 
G01 X0.7713 Y0.1024 
G00 Z0.1000 
G00 X0.7713 Y0.3072 
G01 Z0.0000 F10.00 
G01 X0.7713 Y0.3976 F20.00 
G01 X0.7699 Y0.4011 
G01 X0.7672 Y0.4037 
G01 X0.7637 Y0.4052 
G01 X0.7363 Y0.4052 
G01 X0.7328 Y0.4037 
G01 X0.7301 Y0.4011 
G01 X0.7287 Y0.3976 
G01 X0.7287 Y0.3072 
G01 X0.7301 Y0.3037 
G01 X0.7328 Y0.3010 
G01 X0.7363 Y0.2996 
G01 X0.7637 Y0.2996 
G01 X0.7672 Y0.3010 
G01 X0.7699 Y0.3037 
G01 X0.7713 Y0.3072 
G00 Z0.1000 
G00 X0.8213 Y0.1024 
G01 Z0.0000 F10.00 
G01 X0.8213 Y0.1928 F20.00 
G01 X0.8199 Y0.1963 
G01 X0.8175 Y0.1987 
G01 X0.8175 Y0.2023 
G01 X0.8163 Y0.2068 
G01 X0.8140 Y0.2107 
G01 X0.8107 Y0.2140 
G01 X0.7890 Y0.2357 
G01 X0.7857 Y0.2390 
G01 X0.7818 Y0.2413 
G01 X0.7773 Y0.2425 
G01 X0.6227 Y0.2425 
G01 X0.6182 Y0.2413 
G01 X0.6143 Y0.2390 
G01 X0.6110 Y0.2357 
G01 X0.5928 Y0.2175 
G01 X0.5935 Y0.2182 
G01 X0.5949 Y0.2217 
G01 X0.5949 Y0.2885 
G01 X0.5935 Y0.2920 
G01 X0.5908 Y0.2947 
G01 X0.5873 Y0.2961 
G01 X0.5675 Y0.2961 
G01 X0.5675 Y0.3081 
G01 X0.5691 Y0.3065 
G01 X0.5726 Y0.3050 
G01 X0.5952 Y0.3050 
G01 X0.6360 Y0.2643 
G01 X0.6393 Y0.2610 
G01 X0.6432 Y0.2587 
G01 X0.6477 Y0.2575 
G01 X0.8273 Y0.2575 
G01 X0.8318 Y0.2587 
G01 X0.8357 Y0.2610 
G01 X0.8607 Y0.2860 
G01 X0.8640 Y0.2893 
G01 X0.8663 Y0.2932 
G01 X0.8675 Y0.2977 
G01 X0.8675 Y0.3013 
G01 X0.8699 Y0.3037 
G01 X0.8713 Y0.3072 
G01 X0.8713 Y0.3976 
G01 X0.8699 Y0.4011 
G01 X0.8672 Y0.4037 
G01 X0.8637 Y0.4052 
G01 X0.8363 Y0.4052 
G01 X0.8328 Y0.4037 
G01 X0.8301 Y0.4011 
G01 X0.8287 Y0.3976 
G01 X0.8287 Y0.3072 
G01 X0.8298 Y0.3045 
G01 X0.8178 Y0.2925 
G01 X0.6572 Y0.2925 
G01 X0.6431 Y0.3067 
G01 X0.6455 Y0.3091 
G01 X0.6470 Y0.3126 
G01 X0.6470 Y0.3874 
G01 X0.6455 Y0.3909 
G01 X0.6429 Y0.3935 
G01 X0.6394 Y0.3950 
G01 X0.5726 Y0.3950 
G01 X0.5691 Y0.3935 
G01 X0.5675 Y0.3919 
G01 X0.5675 Y0.4075 
G01 X0.6678 Y0.4075 
G01 X0.6787 Y0.3966 
G01 X0.6787 Y0.3072 
G01 X0.6801 Y0.3037 
G01 X0.6828 Y0.3010 
G01 X0.6863 Y0.2996 
G01 X0.7137 Y0.2996 
G01 X0.7172 Y0.3010 
G01 X0.7199 Y0.3037 
G01 X0.7213 Y0.3072 
G01 X0.7213 Y0.3976 
G01 X0.7199 Y0.4011 
G01 X0.7172 Y0.4037 
G01 X0.7163 Y0.4068 
G01 X0.7140 Y0.4107 
G01 X0.7107 Y0.4140 
G01 X0.6857 Y0.4390 
G01 X0.6818 Y0.4413 
G01 X0.6773 Y0.4425 
G01 X0.4227 Y0.4425 
G01 X0.4182 Y0.4413 
G01 X0.4143 Y0.4390 
G01 X0.4093 Y0.4341 
G01 X0.4035 Y0.4352 
G01 X0.3965 Y0.4352 
G01 X0.3897 Y0.4339 
G01 X0.3833 Y0.4312 
G01 X0.3775 Y0.4274 
G01 X0.3726 Y0.4225 
G01 X0.3693 Y0.4175 
G01 X0.2477 Y0.4175 
G01 X0.2432 Y0.4163 
G01 X0.2393 Y0.4140 
G01 X0.1893 Y0.3640 
G01 X0.1860 Y0.3607 
G01 X0.1849 Y0.3588 
G01 X0.1825 Y0.3578 
G01 X0.1764 Y0.3537 
G01 X0.1713 Y0.3486 
G01 X0.1672 Y0.3425 
G01 X0.1644 Y0.3358 
G01 X0.1630 Y0.3286 
G01 X0.1630 Y0.3214 
G01 X0.1644 Y0.3142 
G01 X0.1672 Y0.3075 
G01 X0.1713 Y0.3014 
G01 X0.1764 Y0.2963 
G01 X0.1825 Y0.2922 
G01 X0.1892 Y0.2894 
G01 X0.1964 Y0.2880 
G01 X0.2036 Y0.2880 
G01 X0.2108 Y0.2894 
G01 X0.2174 Y0.2922 
G01 X0.1860 Y0.2607 
G01 X0.1849 Y0.2588 
G01 X0.1825 Y0.2578 
G01 X0.1764 Y0.2537 
G01 X0.1713 Y0.2486 
G01 X0.1672 Y0.2425 
G01 X0.1644 Y0.2358 
G01 X0.1630 Y0.2286 
G01 X0.1630 Y0.2214 
G01 X0.1644 Y0.2142 
G01 X0.1672 Y0.2075 
G01 X0.1713 Y0.2014 
G01 X0.1764 Y0.1963 
G01 X0.1825 Y0.1922 
G01 X0.1892 Y0.1894 
G01 X0.1964 Y0.1880 
G01 X0.2036 Y0.1880 
G01 X0.2108 Y0.1894 
G01 X0.2174 Y0.1922 
G01 X0.2143 Y0.1890 
G01 X0.2110 Y0.1857 
G01 X0.2087 Y0.1818 
G01 X0.2075 Y0.1773 
G01 X0.2075 Y0.1227 
G01 X0.2087 Y0.1182 
G01 X0.2110 Y0.1143 
G01 X0.2360 Y0.0893 
G01 X0.2393 Y0.0860 
G01 X0.2432 Y0.0837 
G01 X0.2477 Y0.0825 
G01 X0.3677 Y0.0825 
G01 X0.3854 Y0.0648 
G01 X0.4146 Y0.0648 
G01 X0.4323 Y0.0825 
G01 X0.6773 Y0.0825 
G01 X0.6818 Y0.0837 
G01 X0.6857 Y0.0860 
G01 X0.6946 Y0.0948 
G01 X0.7137 Y0.0948 
G01 X0.7172 Y0.0963 
G01 X0.7199 Y0.0989 
G01 X0.7213 Y0.1024 
G01 X0.7213 Y0.1928 
G01 X0.7199 Y0.1963 
G01 X0.7172 Y0.1990 
G01 X0.7137 Y0.2004 
G01 X0.6863 Y0.2004 
G01 X0.6828 Y0.1990 
G01 X0.6801 Y0.1963 
G01 X0.6787 Y0.1928 
G01 X0.6787 Y0.1284 
G01 X0.6678 Y0.1175 
G01 X0.5949 Y0.1175 
G01 X0.5949 Y0.1783 
G01 X0.5935 Y0.1818 
G01 X0.5927 Y0.1825 
G01 X0.6023 Y0.1825 
G01 X0.6068 Y0.1837 
G01 X0.6107 Y0.1860 
G01 X0.6140 Y0.1893 
G01 X0.6322 Y0.2075 
G01 X0.7678 Y0.2075 
G01 X0.7798 Y0.1955 
G01 X0.7787 Y0.1928 
G01 X0.7787 Y0.1024 
G01 X0.7801 Y0.0989 
G01 X0.7828 Y0.0963 
G01 X0.7863 Y0.0948 
G01 X0.8137 Y0.0948 
G01 X0.8172 Y0.0963 
G01 X0.8199 Y0.0989 
G01 X0.8213 Y0.1024 
G00 Z0.1000 
G00 X0.8713 Y0.1024 
G01 Z0.0000 F10.00 
G01 X0.8713 Y0.1928 F20.00 
G01 X0.8699 Y0.1963 
G01 X0.8672 Y0.1990 
G01 X0.8637 Y0.2004 
G01 X0.8363 Y0.2004 
G01 X0.8328 Y0.1990 
G01 X0.8301 Y0.1963 
G01 X0.8287 Y0.1928 
G01 X0.8287 Y0.1024 
G01 X0.8301 Y0.0989 
G01 X0.8328 Y0.0963 
G01 X0.8363 Y0.0948 
G01 X0.8637 Y0.0948 
G01 X0.8672 Y0.0963 
G01 X0.8699 Y0.0989 
G01 X0.8713 Y0.1024 
G00 Z0.1000 
G00 X0.8213 Y0.3072 
G01 Z0.0000 F10.00 
G01 X0.8213 Y0.3976 F20.00 
G01 X0.8199 Y0.4011 
G01 X0.8172 Y0.4037 
G01 X0.8137 Y0.4052 
G01 X0.7863 Y0.4052 
G01 X0.7828 Y0.4037 
G01 X0.7801 Y0.4011 
G01 X0.7787 Y0.3976 
G01 X0.7787 Y0.3072 
G01 X0.7801 Y0.3037 
G01 X0.7828 Y0.3010 
G01 X0.7863 Y0.2996 
G01 X0.8137 Y0.2996 
G01 X0.8172 Y0.3010 
G01 X0.8199 Y0.3037 
G01 X0.8213 Y0.3072 
G00 Z0.1000 
G00 X0.9395 Y0.4731 
G01 Z0.0000 F10.00 
G01 X0.9395 Y0.4769 F20.00 
G01 X0.9385 Y0.4806 
G01 X0.9366 Y0.4839 
G01 X0.9339 Y0.4866 
G01 X0.9306 Y0.4885 
G01 X0.9269 Y0.4895 
G01 X0.0231 Y0.4895 
G01 X0.0194 Y0.4885 
G01 X0.0161 Y0.4866 
G01 X0.0134 Y0.4839 
G01 X0.0115 Y0.4806 
G01 X0.0105 Y0.4769 
G01 X0.0105 Y0.0231 
G01 X0.0115 Y0.0194 
G01 X0.0134 Y0.0161 
G01 X0.0161 Y0.0134 
G01 X0.0194 Y0.0115 
G01 X0.0231 Y0.0105 
G01 X0.9269 Y0.0105 
G01 X0.9306 Y0.0115 
G01 X0.9339 Y0.0134 
G01 X0.9366 Y0.0161 
G01 X0.9385 Y0.0194 
G01 X0.9395 Y0.0231 
G01 X0.9395 Y0.0269 
G01 X0.9395 Y0.4731 
G00 Z0.1000 
G00 X0.2580 Y0.2717 
G01 Z0.0000 F10.00 
G01 X0.2590 Y0.2652 F20.00 
G01 X0.2611 Y0.2589 
G01 X0.2641 Y0.2530 
G01 X0.2671 Y0.2489 
G01 X0.2420 Y0.2238 
G01 X0.2420 Y0.2283 
G01 X0.2410 Y0.2348 
G01 X0.2389 Y0.2411 
G01 X0.2359 Y0.2470 
G01 X0.2329 Y0.2511 
G01 X0.2580 Y0.2762 
G01 X0.2580 Y0.2717 
G00 Z0.1000 
G00 X0.6499 Y0.3070 
G01 Z0.0000 F10.00 
G01 X0.6510 Y0.3089 F20.00 
G01 X0.6520 Y0.3126 
G01 X0.6520 Y0.3874 
G01 X0.6510 Y0.3911 
G01 X0.6491 Y0.3944 
G01 X0.6464 Y0.3971 
G01 X0.6431 Y0.3990 
G01 X0.6394 Y0.4000 
G01 X0.5726 Y0.4000 
G01 X0.5725 Y0.4025 
G01 X0.6657 Y0.4025 
G01 X0.6737 Y0.3945 
G01 X0.6737 Y0.3071 
G01 X0.6747 Y0.3035 
G01 X0.6766 Y0.3002 
G01 X0.6792 Y0.2975 
G01 X0.6593 Y0.2975 
G01 X0.6499 Y0.3070 
G00 Z0.1000 
G00 X0.7234 Y0.3002 
G01 Z0.0000 F10.00 
G01 X0.7250 Y0.3029 F20.00 
G01 X0.7266 Y0.3002 
G01 X0.7292 Y0.2975 
G01 X0.7208 Y0.2975 
G01 X0.7234 Y0.3002 
G00 Z0.1000 
G00 X0.7734 Y0.3002 
G01 Z0.0000 F10.00 
G01 X0.7750 Y0.3029 F20.00 
G01 X0.7766 Y0.3002 
G01 X0.7792 Y0.2975 
G01 X0.7708 Y0.2975 
G01 X0.7734 Y0.3002 
G00 Z0.1000 
G00 X0.6766 Y0.1998 
G01 Z0.0000 F10.00 
G01 X0.6747 Y0.1965 F20.00 
G01 X0.6737 Y0.1929 
G01 X0.6737 Y0.1305 
G01 X0.6657 Y0.1225 
G01 X0.5999 Y0.1225 
G01 X0.5999 Y0.1775 
G01 X0.6030 Y0.1775 
G01 X0.6087 Y0.1790 
G01 X0.6138 Y0.1820 
G01 X0.6180 Y0.1862 
G01 X0.6343 Y0.2025 
G01 X0.6792 Y0.2025 
G01 X0.6766 Y0.1998 
G00 Z0.1000 
G00 X0.7266 Y0.1998 
G01 Z0.0000 F10.00 
G01 X0.7250 Y0.1971 F20.00 
G01 X0.7234 Y0.1998 
G01 X0.7208 Y0.2025 
G01 X0.7292 Y0.2025 
G01 X0.7266 Y0.1998 
G00 Z0.1000 
G00 X0.4313 Y0.3743 
G01 Z0.0000 F10.00 
G01 X0.4357 Y0.3809 F20.00 
G01 X0.4387 Y0.3883 
G01 X0.4402 Y0.3960 
G01 X0.4402 Y0.4025 
G01 X0.5275 Y0.4025 
G01 X0.5275 Y0.4000 
G01 X0.4606 Y0.4000 
G01 X0.4569 Y0.3990 
G01 X0.4536 Y0.3971 
G01 X0.4509 Y0.3944 
G01 X0.4490 Y0.3911 
G01 X0.4480 Y0.3874 
G01 X0.4480 Y0.3725 
G01 X0.4294 Y0.3725 
G01 X0.4313 Y0.3743 
G00 Z0.1000 
G00 X0.2420 Y0.3238 
G01 Z0.0000 F10.00 
G01 X0.2420 Y0.3283 F20.00 
G01 X0.2410 Y0.3348 
G01 X0.2389 Y0.3411 
G01 X0.2359 Y0.3470 
G01 X0.2329 Y0.3511 
G01 X0.2593 Y0.3775 
G01 X0.3666 Y0.3775 
G01 X0.3687 Y0.3743 
G01 X0.3706 Y0.3725 
G01 X0.2970 Y0.3725 
G01 X0.2913 Y0.3710 
G01 X0.2862 Y0.3680 
G01 X0.2820 Y0.3638 
G01 X0.2420 Y0.3238 
G00 Z0.1000 
G00 X0.4402 Y0.2960 
G01 Z0.0000 F10.00 
G01 X0.4402 Y0.3040 F20.00 
G01 X0.4387 Y0.3117 
G01 X0.4357 Y0.3191 
G01 X0.4313 Y0.3257 
G01 X0.4294 Y0.3275 
G01 X0.4480 Y0.3275 
G01 X0.4480 Y0.3126 
G01 X0.4490 Y0.3089 
G01 X0.4509 Y0.3056 
G01 X0.4536 Y0.3029 
G01 X0.4569 Y0.3010 
G01 X0.4606 Y0.3000 
G01 X0.5088 Y0.3000 
G01 X0.5057 Y0.2982 
G01 X0.5030 Y0.2955 
G01 X0.5011 Y0.2922 
G01 X0.5001 Y0.2885 
G01 X0.5001 Y0.2225 
G01 X0.4334 Y0.2225 
G01 X0.4313 Y0.2257 
G01 X0.4257 Y0.2313 
G01 X0.4191 Y0.2357 
G01 X0.4117 Y0.2387 
G01 X0.4040 Y0.2402 
G01 X0.3960 Y0.2402 
G01 X0.3883 Y0.2387 
G01 X0.3809 Y0.2357 
G01 X0.3743 Y0.2313 
G01 X0.3687 Y0.2257 
G01 X0.3643 Y0.2191 
G01 X0.3613 Y0.2117 
G01 X0.3598 Y0.2040 
G01 X0.3598 Y0.1960 
G01 X0.3613 Y0.1883 
G01 X0.3643 Y0.1809 
G01 X0.3687 Y0.1743 
G01 X0.3743 Y0.1687 
G01 X0.3809 Y0.1643 
G01 X0.3883 Y0.1613 
G01 X0.3960 Y0.1598 
G01 X0.4040 Y0.1598 
G01 X0.4117 Y0.1613 
G01 X0.4191 Y0.1643 
G01 X0.4257 Y0.1687 
G01 X0.4313 Y0.1743 
G01 X0.4334 Y0.1775 
G01 X0.5001 Y0.1775 
G01 X0.5001 Y0.1225 
G01 X0.4344 Y0.1225 
G01 X0.4167 Y0.1402 
G01 X0.3833 Y0.1402 
G01 X0.3656 Y0.1225 
G01 X0.2593 Y0.1225 
G01 X0.2475 Y0.1343 
G01 X0.2475 Y0.1657 
G01 X0.2580 Y0.1762 
G01 X0.2580 Y0.1717 
G01 X0.2590 Y0.1652 
G01 X0.2611 Y0.1589 
G01 X0.2641 Y0.1530 
G01 X0.2680 Y0.1476 
G01 X0.2726 Y0.1430 
G01 X0.2780 Y0.1391 
G01 X0.2839 Y0.1361 
G01 X0.2902 Y0.1340 
G01 X0.2967 Y0.1330 
G01 X0.3033 Y0.1330 
G01 X0.3098 Y0.1340 
G01 X0.3161 Y0.1361 
G01 X0.3220 Y0.1391 
G01 X0.3274 Y0.1430 
G01 X0.3320 Y0.1476 
G01 X0.3359 Y0.1530 
G01 X0.3389 Y0.1589 
G01 X0.3410 Y0.1652 
G01 X0.3420 Y0.1717 
G01 X0.3420 Y0.1783 
G01 X0.3410 Y0.1848 
G01 X0.3389 Y0.1911 
G01 X0.3359 Y0.1970 
G01 X0.3320 Y0.2024 
G01 X0.3274 Y0.2070 
G01 X0.3220 Y0.2109 
G01 X0.3161 Y0.2139 
G01 X0.3098 Y0.2160 
G01 X0.3033 Y0.2170 
G01 X0.2988 Y0.2170 
G01 X0.3180 Y0.2362 
G01 X0.3187 Y0.2374 
G01 X0.3220 Y0.2391 
G01 X0.3274 Y0.2430 
G01 X0.3320 Y0.2476 
G01 X0.3359 Y0.2530 
G01 X0.3389 Y0.2589 
G01 X0.3410 Y0.2652 
G01 X0.3420 Y0.2717 
G01 X0.3420 Y0.2783 
G01 X0.3410 Y0.2848 
G01 X0.3389 Y0.2911 
G01 X0.3359 Y0.2970 
G01 X0.3320 Y0.3024 
G01 X0.3274 Y0.3070 
G01 X0.3220 Y0.3109 
G01 X0.3161 Y0.3139 
G01 X0.3098 Y0.3160 
G01 X0.3033 Y0.3170 
G01 X0.2988 Y0.3170 
G01 X0.3093 Y0.3275 
G01 X0.3706 Y0.3275 
G01 X0.3687 Y0.3257 
G01 X0.3643 Y0.3191 
G01 X0.3613 Y0.3117 
G01 X0.3598 Y0.3040 
G01 X0.3598 Y0.2960 
G01 X0.3613 Y0.2883 
G01 X0.3643 Y0.2809 
G01 X0.3687 Y0.2743 
G01 X0.3743 Y0.2687 
G01 X0.3809 Y0.2643 
G01 X0.3883 Y0.2613 
G01 X0.3960 Y0.2598 
G01 X0.4040 Y0.2598 
G01 X0.4117 Y0.2613 
G01 X0.4191 Y0.2643 
G01 X0.4257 Y0.2687 
G01 X0.4313 Y0.2743 
G01 X0.4357 Y0.2809 
G01 X0.4387 Y0.2883 
G01 X0.4402 Y0.2960 
G00 Z0.1000 
G00 X0.0445 Y0.4555 
G01 Z0.0000 F10.00 
G01 X0.9055 Y0.4555 F20.00 
G01 X0.9055 Y0.0445 
G01 X0.0445 Y0.0445 
G01 X0.0445 Y0.4555 
G00 Z0.1000 
G00 X0.5999 Y0.2318 
G01 Z0.0000 F10.00 
G01 X0.5999 Y0.2885 F20.00 
G01 X0.5989 Y0.2922 
G01 X0.5970 Y0.2955 
G01 X0.5943 Y0.2982 
G01 X0.5912 Y0.3000 
G01 X0.5932 Y0.3000 
G01 X0.6320 Y0.2612 
G01 X0.6362 Y0.2570 
G01 X0.6413 Y0.2540 
G01 X0.6470 Y0.2525 
G01 X0.8280 Y0.2525 
G01 X0.8337 Y0.2540 
G01 X0.8388 Y0.2570 
G01 X0.8638 Y0.2820 
G01 X0.8680 Y0.2862 
G01 X0.8710 Y0.2913 
G01 X0.8725 Y0.2970 
G01 X0.8725 Y0.2992 
G01 X0.8734 Y0.3002 
G01 X0.8753 Y0.3035 
G01 X0.8763 Y0.3071 
G01 X0.8763 Y0.3976 
G01 X0.8753 Y0.4013 
G01 X0.8734 Y0.4046 
G01 X0.8707 Y0.4073 
G01 X0.8674 Y0.4092 
G01 X0.8637 Y0.4102 
G01 X0.8363 Y0.4102 
G01 X0.8326 Y0.4092 
G01 X0.8293 Y0.4073 
G01 X0.8266 Y0.4046 
G01 X0.8250 Y0.4018 
G01 X0.8234 Y0.4046 
G01 X0.8207 Y0.4073 
G01 X0.8174 Y0.4092 
G01 X0.8137 Y0.4102 
G01 X0.7863 Y0.4102 
G01 X0.7826 Y0.4092 
G01 X0.7793 Y0.4073 
G01 X0.7766 Y0.4046 
G01 X0.7750 Y0.4018 
G01 X0.7734 Y0.4046 
G01 X0.7707 Y0.4073 
G01 X0.7674 Y0.4092 
G01 X0.7637 Y0.4102 
G01 X0.7363 Y0.4102 
G01 X0.7326 Y0.4092 
G01 X0.7293 Y0.4073 
G01 X0.7266 Y0.4046 
G01 X0.7250 Y0.4018 
G01 X0.7234 Y0.4046 
G01 X0.7216 Y0.4064 
G01 X0.7210 Y0.4087 
G01 X0.7180 Y0.4138 
G01 X0.7138 Y0.4180 
G01 X0.6888 Y0.4430 
G01 X0.6837 Y0.4460 
G01 X0.6780 Y0.4475 
G01 X0.4220 Y0.4475 
G01 X0.4163 Y0.4460 
G01 X0.4112 Y0.4430 
G01 X0.4077 Y0.4395 
G01 X0.4040 Y0.4402 
G01 X0.3960 Y0.4402 
G01 X0.3883 Y0.4387 
G01 X0.3809 Y0.4357 
G01 X0.3743 Y0.4313 
G01 X0.3687 Y0.4257 
G01 X0.3666 Y0.4225 
G01 X0.2470 Y0.4225 
G01 X0.2413 Y0.4210 
G01 X0.2362 Y0.4180 
G01 X0.1862 Y0.3680 
G01 X0.1820 Y0.3638 
G01 X0.1813 Y0.3626 
G01 X0.1780 Y0.3609 
G01 X0.1726 Y0.3570 
G01 X0.1680 Y0.3524 
G01 X0.1641 Y0.3470 
G01 X0.1611 Y0.3411 
G01 X0.1590 Y0.3348 
G01 X0.1580 Y0.3283 
G01 X0.1580 Y0.3217 
G01 X0.1590 Y0.3152 
G01 X0.1611 Y0.3089 
G01 X0.1641 Y0.3030 
G01 X0.1680 Y0.2976 
G01 X0.1726 Y0.2930 
G01 X0.1780 Y0.2891 
G01 X0.1839 Y0.2861 
G01 X0.1902 Y0.2840 
G01 X0.1967 Y0.2830 
G01 X0.2012 Y0.2830 
G01 X0.1820 Y0.2638 
G01 X0.1813 Y0.2626 
G01 X0.1780 Y0.2609 
G01 X0.1726 Y0.2570 
G01 X0.1680 Y0.2524 
G01 X0.1641 Y0.2470 
G01 X0.1611 Y0.2411 
G01 X0.1590 Y0.2348 
G01 X0.1580 Y0.2283 
G01 X0.1580 Y0.2217 
G01 X0.1590 Y0.2152 
G01 X0.1611 Y0.2089 
G01 X0.1641 Y0.2030 
G01 X0.1680 Y0.1976 
G01 X0.1726 Y0.1930 
G01 X0.1780 Y0.1891 
G01 X0.1839 Y0.1861 
G01 X0.1902 Y0.1840 
G01 X0.1967 Y0.1830 
G01 X0.2033 Y0.1830 
G01 X0.2039 Y0.1831 
G01 X0.2025 Y0.1780 
G01 X0.2025 Y0.1220 
G01 X0.2040 Y0.1163 
G01 X0.2070 Y0.1112 
G01 X0.2320 Y0.0862 
G01 X0.2362 Y0.0820 
G01 X0.2413 Y0.0790 
G01 X0.2470 Y0.0775 
G01 X0.3656 Y0.0775 
G01 X0.3833 Y0.0598 
G01 X0.4167 Y0.0598 
G01 X0.4344 Y0.0775 
G01 X0.6780 Y0.0775 
G01 X0.6837 Y0.0790 
G01 X0.6888 Y0.0820 
G01 X0.6967 Y0.0898 
G01 X0.7137 Y0.0898 
G01 X0.7174 Y0.0908 
G01 X0.7207 Y0.0927 
G01 X0.7234 Y0.0954 
G01 X0.7250 Y0.0982 
G01 X0.7266 Y0.0954 
G01 X0.7293 Y0.0927 
G01 X0.7326 Y0.0908 
G01 X0.7363 Y0.0898 
G01 X0.7637 Y0.0898 
G01 X0.7674 Y0.0908 
G01 X0.7707 Y0.0927 
G01 X0.7734 Y0.0954 
G01 X0.7750 Y0.0982 
G01 X0.7766 Y0.0954 
G01 X0.7793 Y0.0927 
G01 X0.7826 Y0.0908 
G01 X0.7863 Y0.0898 
G01 X0.8137 Y0.0898 
G01 X0.8174 Y0.0908 
G01 X0.8207 Y0.0927 
G01 X0.8234 Y0.0954 
G01 X0.8250 Y0.0982 
G01 X0.8266 Y0.0954 
G01 X0.8293 Y0.0927 
G01 X0.8326 Y0.0908 
G01 X0.8363 Y0.0898 
G01 X0.8637 Y0.0898 
G01 X0.8674 Y0.0908 
G01 X0.8707 Y0.0927 
G01 X0.8734 Y0.0954 
G01 X0.8753 Y0.0987 
G01 X0.8763 Y0.1024 
G01 X0.8763 Y0.1929 
G01 X0.8753 Y0.1965 
G01 X0.8734 Y0.1998 
G01 X0.8707 Y0.2025 
G01 X0.8674 Y0.2045 
G01 X0.8637 Y0.2054 
G01 X0.8363 Y0.2054 
G01 X0.8326 Y0.2045 
G01 X0.8293 Y0.2025 
G01 X0.8266 Y0.1998 
G01 X0.8250 Y0.1971 
G01 X0.8234 Y0.1998 
G01 X0.8225 Y0.2008 
G01 X0.8225 Y0.2030 
G01 X0.8210 Y0.2087 
G01 X0.8180 Y0.2138 
G01 X0.8138 Y0.2180 
G01 X0.7930 Y0.2388 
G01 X0.7888 Y0.2430 
G01 X0.7837 Y0.2460 
G01 X0.7780 Y0.2475 
G01 X0.6220 Y0.2475 
G01 X0.6163 Y0.2460 
G01 X0.6112 Y0.2430 
G01 X0.6070 Y0.2388 
G01 X0.5999 Y0.2318 
G00 Z0.1000 
G00 X0.9445 Y0.4724 
G01 Z0.0000 F10.00 
G01 X0.9445 Y0.4776 F20.00 
G01 X0.9432 Y0.4825 
G01 X0.9406 Y0.4870 
G01 X0.9370 Y0.4906 
G01 X0.9325 Y0.4932 
G01 X0.9276 Y0.4945 
G01 X0.0224 Y0.4945 
G01 X0.0175 Y0.4932 
G01 X0.0130 Y0.4906 
G01 X0.0094 Y0.4870 
G01 X0.0068 Y0.4825 
G01 X0.0055 Y0.4776 
G01 X0.0055 Y0.0224 
G01 X0.0068 Y0.0175 
G01 X0.0094 Y0.0130 
G01 X0.0130 Y0.0094 
G01 X0.0175 Y0.0068 
G01 X0.0224 Y0.0055 
G01 X0.9276 Y0.0055 
G01 X0.9325 Y0.0068 
G01 X0.9370 Y0.0094 
G01 X0.9406 Y0.0130 
G01 X0.9432 Y0.0175 
G01 X0.9445 Y0.0224 
G01 X0.9445 Y0.0276 
G01 X0.9445 Y0.4724 
G00 Z0.1000 
G00 X0.0495 Y0.4505 
G01 Z0.0000 F10.00 
G01 X0.4147 Y0.4505 F20.00 
G01 X0.4120 Y0.4494 
G01 X0.4075 Y0.4464 
G01 X0.4060 Y0.4449 
G01 X0.4036 Y0.4452 
G01 X0.3964 Y0.4452 
G01 X0.3894 Y0.4441 
G01 X0.3826 Y0.4419 
G01 X0.3763 Y0.4387 
G01 X0.3705 Y0.4345 
G01 X0.3655 Y0.4295 
G01 X0.3641 Y0.4275 
G01 X0.2473 Y0.4275 
G01 X0.2420 Y0.4264 
G01 X0.2370 Y0.4244 
G01 X0.2325 Y0.4214 
G01 X0.1825 Y0.3714 
G01 X0.1786 Y0.3675 
G01 X0.1780 Y0.3665 
G01 X0.1754 Y0.3652 
G01 X0.1694 Y0.3608 
G01 X0.1642 Y0.3556 
G01 X0.1598 Y0.3496 
G01 X0.1564 Y0.3430 
G01 X0.1542 Y0.3360 
G01 X0.1530 Y0.3287 
G01 X0.1530 Y0.3213 
G01 X0.1542 Y0.3140 
G01 X0.1564 Y0.3070 
G01 X0.1598 Y0.3004 
G01 X0.1642 Y0.2944 
G01 X0.1694 Y0.2892 
G01 X0.1754 Y0.2848 
G01 X0.1820 Y0.2814 
G01 X0.1890 Y0.2792 
G01 X0.1901 Y0.2790 
G01 X0.1786 Y0.2675 
G01 X0.1780 Y0.2665 
G01 X0.1754 Y0.2652 
G01 X0.1694 Y0.2608 
G01 X0.1642 Y0.2556 
G01 X0.1598 Y0.2496 
G01 X0.1564 Y0.2430 
G01 X0.1542 Y0.2360 
G01 X0.1530 Y0.2287 
G01 X0.1530 Y0.2213 
G01 X0.1542 Y0.2140 
G01 X0.1564 Y0.2070 
G01 X0.1598 Y0.2004 
G01 X0.1642 Y0.1944 
G01 X0.1694 Y0.1892 
G01 X0.1754 Y0.1848 
G01 X0.1820 Y0.1814 
G01 X0.1890 Y0.1792 
G01 X0.1963 Y0.1780 
G01 X0.1976 Y0.1780 
G01 X0.1975 Y0.1777 
G01 X0.1975 Y0.1223 
G01 X0.1986 Y0.1170 
G01 X0.2006 Y0.1120 
G01 X0.2036 Y0.1075 
G01 X0.2286 Y0.0825 
G01 X0.2325 Y0.0786 
G01 X0.2370 Y0.0756 
G01 X0.2420 Y0.0736 
G01 X0.2473 Y0.0725 
G01 X0.3635 Y0.0725 
G01 X0.3813 Y0.0548 
G01 X0.4187 Y0.0548 
G01 X0.4365 Y0.0725 
G01 X0.6777 Y0.0725 
G01 X0.6830 Y0.0736 
G01 X0.6880 Y0.0756 
G01 X0.6925 Y0.0786 
G01 X0.6987 Y0.0848 
G01 X0.7144 Y0.0848 
G01 X0.7193 Y0.0862 
G01 X0.7238 Y0.0887 
G01 X0.7250 Y0.0899 
G01 X0.7262 Y0.0887 
G01 X0.7307 Y0.0862 
G01 X0.7356 Y0.0848 
G01 X0.7644 Y0.0848 
G01 X0.7693 Y0.0862 
G01 X0.7738 Y0.0887 
G01 X0.7750 Y0.0899 
G01 X0.7762 Y0.0887 
G01 X0.7807 Y0.0862 
G01 X0.7856 Y0.0848 
G01 X0.8144 Y0.0848 
G01 X0.8193 Y0.0862 
G01 X0.8238 Y0.0887 
G01 X0.8250 Y0.0899 
G01 X0.8262 Y0.0887 
G01 X0.8307 Y0.0862 
G01 X0.8356 Y0.0848 
G01 X0.8644 Y0.0848 
G01 X0.8693 Y0.0862 
G01 X0.8738 Y0.0887 
G01 X0.8774 Y0.0924 
G01 X0.8800 Y0.0968 
G01 X0.8813 Y0.1018 
G01 X0.8813 Y0.1935 
G01 X0.8800 Y0.1985 
G01 X0.8774 Y0.2029 
G01 X0.8738 Y0.2065 
G01 X0.8693 Y0.2091 
G01 X0.8644 Y0.2104 
G01 X0.8356 Y0.2104 
G01 X0.8307 Y0.2091 
G01 X0.8267 Y0.2068 
G01 X0.8264 Y0.2080 
G01 X0.8244 Y0.2130 
G01 X0.8214 Y0.2175 
G01 X0.8175 Y0.2214 
G01 X0.7964 Y0.2425 
G01 X0.7925 Y0.2464 
G01 X0.7908 Y0.2475 
G01 X0.8277 Y0.2475 
G01 X0.8330 Y0.2486 
G01 X0.8380 Y0.2506 
G01 X0.8425 Y0.2536 
G01 X0.8675 Y0.2786 
G01 X0.8714 Y0.2825 
G01 X0.8744 Y0.2870 
G01 X0.8764 Y0.2920 
G01 X0.8775 Y0.2972 
G01 X0.8800 Y0.3015 
G01 X0.8813 Y0.3065 
G01 X0.8813 Y0.3982 
G01 X0.8800 Y0.4032 
G01 X0.8774 Y0.4076 
G01 X0.8738 Y0.4113 
G01 X0.8693 Y0.4138 
G01 X0.8644 Y0.4152 
G01 X0.8356 Y0.4152 
G01 X0.8307 Y0.4138 
G01 X0.8262 Y0.4113 
G01 X0.8250 Y0.4101 
G01 X0.8238 Y0.4113 
G01 X0.8193 Y0.4138 
G01 X0.8144 Y0.4152 
G01 X0.7856 Y0.4152 
G01 X0.7807 Y0.4138 
G01 X0.7762 Y0.4113 
G01 X0.7750 Y0.4101 
G01 X0.7738 Y0.4113 
G01 X0.7693 Y0.4138 
G01 X0.7644 Y0.4152 
G01 X0.7356 Y0.4152 
G01 X0.7307 Y0.4138 
G01 X0.7262 Y0.4113 
G01 X0.7254 Y0.4105 
G01 X0.7244 Y0.4130 
G01 X0.7214 Y0.4175 
G01 X0.7175 Y0.4214 
G01 X0.6925 Y0.4464 
G01 X0.6880 Y0.4494 
G01 X0.6853 Y0.4505 
G01 X0.9005 Y0.4505 
G01 X0.9005 Y0.0495 
G01 X0.0495 Y0.0495 
G01 X0.0495 Y0.4505 
G00 Z0.1000 
G00 X0.4469 Y0.3975 
G01 Z0.0000 F10.00 
G01 X0.4448 Y0.3939 F20.00 
G01 X0.4452 Y0.3964 
G01 X0.4452 Y0.3975 
G01 X0.4470 Y0.3975 
G00 Z0.1000 
G00 X0.6223 Y0.2525 
G01 Z0.0000 F10.00 
G01 X0.6170 Y0.2514 F20.00 
G01 X0.6120 Y0.2494 
G01 X0.6075 Y0.2464 
G01 X0.6049 Y0.2438 
G01 X0.6049 Y0.2812 
G01 X0.6286 Y0.2575 
G01 X0.6325 Y0.2536 
G01 X0.6342 Y0.2525 
G01 X0.6223 Y0.2525 
G00 Z0.1000 
G00 X0.6570 Y0.3119 
G01 Z0.0000 F10.00 
G01 X0.6570 Y0.3881 F20.00 
G01 X0.6557 Y0.3930 
G01 X0.6531 Y0.3975 
G01 X0.6636 Y0.3975 
G01 X0.6687 Y0.3924 
G01 X0.6687 Y0.3065 
G01 X0.6698 Y0.3025 
G01 X0.6614 Y0.3025 
G01 X0.6559 Y0.3080 
G01 X0.6570 Y0.3119 
G00 Z0.1000 
G00 X0.2458 Y0.3360 
G01 Z0.0000 F10.00 
G01 X0.2436 Y0.3430 F20.00 
G01 X0.2402 Y0.3496 
G01 X0.2395 Y0.3506 
G01 X0.2614 Y0.3725 
G01 X0.2842 Y0.3725 
G01 X0.2825 Y0.3714 
G01 X0.2786 Y0.3675 
G01 X0.2460 Y0.3349 
G01 X0.2458 Y0.3360 
G00 Z0.1000 
G00 X0.3581 Y0.3174 
G01 Z0.0000 F10.00 
G01 X0.3559 Y0.3106 F20.00 
G01 X0.3548 Y0.3036 
G01 X0.3548 Y0.2964 
G01 X0.3559 Y0.2894 
G01 X0.3581 Y0.2826 
G01 X0.3613 Y0.2763 
G01 X0.3655 Y0.2705 
G01 X0.3705 Y0.2655 
G01 X0.3763 Y0.2613 
G01 X0.3826 Y0.2581 
G01 X0.3894 Y0.2559 
G01 X0.3964 Y0.2548 
G01 X0.4036 Y0.2548 
G01 X0.4106 Y0.2559 
G01 X0.4174 Y0.2581 
G01 X0.4237 Y0.2613 
G01 X0.4295 Y0.2655 
G01 X0.4345 Y0.2705 
G01 X0.4387 Y0.2763 
G01 X0.4419 Y0.2826 
G01 X0.4441 Y0.2894 
G01 X0.4452 Y0.2964 
G01 X0.4452 Y0.3036 
G01 X0.4448 Y0.3061 
G01 X0.4469 Y0.3025 
G01 X0.4505 Y0.2989 
G01 X0.4550 Y0.2963 
G01 X0.4600 Y0.2950 
G01 X0.4969 Y0.2950 
G01 X0.4964 Y0.2941 
G01 X0.4951 Y0.2892 
G01 X0.4951 Y0.2275 
G01 X0.4359 Y0.2275 
G01 X0.4345 Y0.2295 
G01 X0.4295 Y0.2345 
G01 X0.4237 Y0.2387 
G01 X0.4174 Y0.2419 
G01 X0.4106 Y0.2441 
G01 X0.4036 Y0.2452 
G01 X0.3964 Y0.2452 
G01 X0.3894 Y0.2441 
G01 X0.3826 Y0.2419 
G01 X0.3763 Y0.2387 
G01 X0.3705 Y0.2345 
G01 X0.3655 Y0.2295 
G01 X0.3613 Y0.2237 
G01 X0.3581 Y0.2174 
G01 X0.3559 Y0.2106 
G01 X0.3548 Y0.2036 
G01 X0.3548 Y0.1964 
G01 X0.3559 Y0.1894 
G01 X0.3581 Y0.1826 
G01 X0.3613 Y0.1763 
G01 X0.3655 Y0.1705 
G01 X0.3705 Y0.1655 
G01 X0.3763 Y0.1613 
G01 X0.3826 Y0.1581 
G01 X0.3894 Y0.1559 
G01 X0.3964 Y0.1548 
G01 X0.4036 Y0.1548 
G01 X0.4106 Y0.1559 
G01 X0.4174 Y0.1581 
G01 X0.4237 Y0.1613 
G01 X0.4295 Y0.1655 
G01 X0.4345 Y0.1705 
G01 X0.4359 Y0.1725 
G01 X0.4951 Y0.1725 
G01 X0.4951 Y0.1275 
G01 X0.4365 Y0.1275 
G01 X0.4187 Y0.1452 
G01 X0.3813 Y0.1452 
G01 X0.3635 Y0.1275 
G01 X0.2614 Y0.1275 
G01 X0.2525 Y0.1364 
G01 X0.2525 Y0.1636 
G01 X0.2540 Y0.1651 
G01 X0.2542 Y0.1640 
G01 X0.2564 Y0.1570 
G01 X0.2598 Y0.1504 
G01 X0.2642 Y0.1444 
G01 X0.2694 Y0.1392 
G01 X0.2754 Y0.1348 
G01 X0.2820 Y0.1314 
G01 X0.2890 Y0.1292 
G01 X0.2963 Y0.1280 
G01 X0.3037 Y0.1280 
G01 X0.3110 Y0.1292 
G01 X0.3180 Y0.1314 
G01 X0.3246 Y0.1348 
G01 X0.3306 Y0.1392 
G01 X0.3358 Y0.1444 
G01 X0.3402 Y0.1504 
G01 X0.3436 Y0.1570 
G01 X0.3458 Y0.1640 
G01 X0.3470 Y0.1713 
G01 X0.3470 Y0.1787 
G01 X0.3458 Y0.1860 
G01 X0.3436 Y0.1930 
G01 X0.3402 Y0.1996 
G01 X0.3358 Y0.2056 
G01 X0.3306 Y0.2108 
G01 X0.3246 Y0.2152 
G01 X0.3180 Y0.2186 
G01 X0.3110 Y0.2208 
G01 X0.3099 Y0.2210 
G01 X0.3214 Y0.2325 
G01 X0.3220 Y0.2335 
G01 X0.3246 Y0.2348 
G01 X0.3306 Y0.2392 
G01 X0.3358 Y0.2444 
G01 X0.3402 Y0.2504 
G01 X0.3436 Y0.2570 
G01 X0.3458 Y0.2640 
G01 X0.3470 Y0.2713 
G01 X0.3470 Y0.2787 
G01 X0.3458 Y0.2860 
G01 X0.3436 Y0.2930 
G01 X0.3402 Y0.2996 
G01 X0.3358 Y0.3056 
G01 X0.3306 Y0.3108 
G01 X0.3246 Y0.3152 
G01 X0.3180 Y0.3186 
G01 X0.3110 Y0.3208 
G01 X0.3099 Y0.3210 
G01 X0.3114 Y0.3225 
G01 X0.3607 Y0.3225 
G01 X0.3581 Y0.3174 
G00 Z0.1000 
G00 X0.4430 Y0.3140 
G01 Z0.0000 F10.00 
G01 X0.4419 Y0.3174 F20.00 
G01 X0.4393 Y0.3225 
G01 X0.4430 Y0.3225 
G01 X0.4430 Y0.3140 
G00 Z0.1000 
G00 X0.4419 Y0.3826 
G01 Z0.0000 F10.00 
G01 X0.4430 Y0.3860 F20.00 
G01 X0.4430 Y0.3775 
G01 X0.4393 Y0.3775 
G01 X0.4419 Y0.3826 
G00 Z0.1000 
G00 X0.2542 Y0.2640 
G01 Z0.0000 F10.00 
G01 X0.2564 Y0.2570 F20.00 
G01 X0.2598 Y0.2504 
G01 X0.2605 Y0.2494 
G01 X0.2460 Y0.2349 
G01 X0.2458 Y0.2360 
G01 X0.2436 Y0.2430 
G01 X0.2402 Y0.2496 
G01 X0.2395 Y0.2506 
G01 X0.2540 Y0.2651 
G01 X0.2542 Y0.2640 
G00 Z0.1000 
G00 X0.6687 Y0.1935 
G01 Z0.0000 F10.00 
G01 X0.6687 Y0.1326 F20.00 
G01 X0.6636 Y0.1275 
G01 X0.6049 Y0.1275 
G01 X0.6049 Y0.1729 
G01 X0.6080 Y0.1736 
G01 X0.6130 Y0.1756 
G01 X0.6175 Y0.1786 
G01 X0.6214 Y0.1825 
G01 X0.6364 Y0.1975 
G01 X0.6698 Y0.1975 
G01 X0.6687 Y0.1935 
G00 Z0.1000 
G00 X0.9495 Y0.4726 
G01 Z0.0000 F10.00 
G01 X0.9495 Y0.4774 F20.00 
G01 X0.9486 Y0.4821 
G01 X0.9467 Y0.4866 
G01 X0.9440 Y0.4906 
G01 X0.9406 Y0.4940 
G01 X0.9366 Y0.4967 
G01 X0.9321 Y0.4986 
G01 X0.9274 Y0.4995 
G01 X0.0226 Y0.4995 
G01 X0.0179 Y0.4986 
G01 X0.0134 Y0.4967 
G01 X0.0094 Y0.4940 
G01 X0.0060 Y0.4906 
G01 X0.0033 Y0.4866 
G01 X0.0014 Y0.4821 
G01 X0.0005 Y0.4774 
G01 X0.0005 Y0.0226 
G01 X0.0014 Y0.0179 
G01 X0.0033 Y0.0134 
G01 X0.0060 Y0.0094 
G01 X0.0094 Y0.0060 
G01 X0.0134 Y0.0033 
G01 X0.0179 Y0.0014 
G01 X0.0226 Y0.0005 
G01 X0.9274 Y0.0005 
G01 X0.9321 Y0.0014 
G01 X0.9366 Y0.0033 
G01 X0.9406 Y0.0060 
G01 X0.9440 Y0.0094 
G01 X0.9467 Y0.0134 
G01 X0.9486 Y0.0179 
G01 X0.9495 Y0.0226 
G01 X0.9495 Y0.0274 
G01 X0.9495 Y0.4726 
G00 Z0.1000 
G00 X0.4386 Y0.0675 
G01 Z0.0000 F10.00 
G01 X0.6782 Y0.0675 F20.00 
G01 X0.6845 Y0.0687 
G01 X0.6904 Y0.0712 
G01 X0.6957 Y0.0748 
G01 X0.7008 Y0.0798 
G01 X0.7142 Y0.0798 
G01 X0.7190 Y0.0808 
G01 X0.7234 Y0.0826 
G01 X0.7250 Y0.0837 
G01 X0.7266 Y0.0826 
G01 X0.7310 Y0.0808 
G01 X0.7358 Y0.0798 
G01 X0.7642 Y0.0798 
G01 X0.7690 Y0.0808 
G01 X0.7734 Y0.0826 
G01 X0.7750 Y0.0837 
G01 X0.7766 Y0.0826 
G01 X0.7810 Y0.0808 
G01 X0.7858 Y0.0798 
G01 X0.8142 Y0.0798 
G01 X0.8190 Y0.0808 
G01 X0.8234 Y0.0826 
G01 X0.8250 Y0.0837 
G01 X0.8266 Y0.0826 
G01 X0.8310 Y0.0808 
G01 X0.8358 Y0.0798 
G01 X0.8642 Y0.0798 
G01 X0.8690 Y0.0808 
G01 X0.8734 Y0.0826 
G01 X0.8774 Y0.0853 
G01 X0.8808 Y0.0887 
G01 X0.8835 Y0.0927 
G01 X0.8854 Y0.0972 
G01 X0.8863 Y0.1019 
G01 X0.8863 Y0.1934 
G01 X0.8854 Y0.1981 
G01 X0.8835 Y0.2025 
G01 X0.8808 Y0.2066 
G01 X0.8774 Y0.2100 
G01 X0.8734 Y0.2127 
G01 X0.8690 Y0.2145 
G01 X0.8642 Y0.2154 
G01 X0.8358 Y0.2154 
G01 X0.8310 Y0.2145 
G01 X0.8294 Y0.2138 
G01 X0.8288 Y0.2154 
G01 X0.8252 Y0.2207 
G01 X0.8207 Y0.2252 
G01 X0.8035 Y0.2425 
G01 X0.8282 Y0.2425 
G01 X0.8345 Y0.2437 
G01 X0.8404 Y0.2462 
G01 X0.8457 Y0.2498 
G01 X0.8707 Y0.2748 
G01 X0.8752 Y0.2793 
G01 X0.8788 Y0.2846 
G01 X0.8813 Y0.2905 
G01 X0.8823 Y0.2955 
G01 X0.8835 Y0.2974 
G01 X0.8854 Y0.3019 
G01 X0.8863 Y0.3066 
G01 X0.8863 Y0.3981 
G01 X0.8854 Y0.4028 
G01 X0.8835 Y0.4073 
G01 X0.8808 Y0.4113 
G01 X0.8774 Y0.4147 
G01 X0.8734 Y0.4174 
G01 X0.8690 Y0.4192 
G01 X0.8642 Y0.4202 
G01 X0.8358 Y0.4202 
G01 X0.8310 Y0.4192 
G01 X0.8266 Y0.4174 
G01 X0.8250 Y0.4163 
G01 X0.8234 Y0.4174 
G01 X0.8190 Y0.4192 
G01 X0.8142 Y0.4202 
G01 X0.7858 Y0.4202 
G01 X0.7810 Y0.4192 
G01 X0.7766 Y0.4174 
G01 X0.7750 Y0.4163 
G01 X0.7734 Y0.4174 
G01 X0.7690 Y0.4192 
G01 X0.7642 Y0.4202 
G01 X0.7358 Y0.4202 
G01 X0.7310 Y0.4192 
G01 X0.7273 Y0.4177 
G01 X0.7252 Y0.4207 
G01 X0.7207 Y0.4252 
G01 X0.7005 Y0.4455 
G01 X0.8955 Y0.4455 
G01 X0.8955 Y0.0545 
G01 X0.4256 Y0.0545 
G01 X0.4386 Y0.0675 
G00 Z0.1000 
G00 X0.0545 Y0.4455 
G01 Z0.0000 F10.00 
G01 X0.3786 Y0.4455 F20.00 
G01 X0.3737 Y0.4430 
G01 X0.3673 Y0.4383 
G01 X0.3617 Y0.4327 
G01 X0.3615 Y0.4325 
G01 X0.2468 Y0.4325 
G01 X0.2405 Y0.4313 
G01 X0.2346 Y0.4288 
G01 X0.2293 Y0.4252 
G01 X0.1793 Y0.3752 
G01 X0.1748 Y0.3707 
G01 X0.1745 Y0.3704 
G01 X0.1727 Y0.3695 
G01 X0.1661 Y0.3647 
G01 X0.1603 Y0.3589 
G01 X0.1555 Y0.3523 
G01 X0.1518 Y0.3450 
G01 X0.1493 Y0.3372 
G01 X0.1480 Y0.3291 
G01 X0.1480 Y0.3209 
G01 X0.1493 Y0.3128 
G01 X0.1518 Y0.3050 
G01 X0.1555 Y0.2977 
G01 X0.1603 Y0.2911 
G01 X0.1661 Y0.2853 
G01 X0.1727 Y0.2805 
G01 X0.1800 Y0.2768 
G01 X0.1806 Y0.2766 
G01 X0.1748 Y0.2707 
G01 X0.1745 Y0.2704 
G01 X0.1727 Y0.2695 
G01 X0.1661 Y0.2647 
G01 X0.1603 Y0.2589 
G01 X0.1555 Y0.2523 
G01 X0.1518 Y0.2450 
G01 X0.1493 Y0.2372 
G01 X0.1480 Y0.2291 
G01 X0.1480 Y0.2209 
G01 X0.1493 Y0.2128 
G01 X0.1518 Y0.2050 
G01 X0.1555 Y0.1977 
G01 X0.1603 Y0.1911 
G01 X0.1661 Y0.1853 
G01 X0.1727 Y0.1805 
G01 X0.1800 Y0.1768 
G01 X0.1878 Y0.1743 
G01 X0.1925 Y0.1735 
G01 X0.1925 Y0.1218 
G01 X0.1937 Y0.1155 
G01 X0.1962 Y0.1096 
G01 X0.1998 Y0.1043 
G01 X0.2248 Y0.0793 
G01 X0.2293 Y0.0748 
G01 X0.2346 Y0.0712 
G01 X0.2405 Y0.0687 
G01 X0.2468 Y0.0675 
G01 X0.3614 Y0.0675 
G01 X0.3744 Y0.0545 
G01 X0.0545 Y0.0545 
G01 X0.0545 Y0.4455 
G00 Z0.1000 
G00 X0.2575 Y0.1385 
G01 Z0.0000 F10.00 
G01 X0.2575 Y0.1450 F20.00 
G01 X0.2603 Y0.1411 
G01 X0.2661 Y0.1353 
G01 X0.2700 Y0.1325 
G01 X0.2635 Y0.1325 
G01 X0.2575 Y0.1385 
G00 Z0.1000 
G00 X0.4208 Y0.1502 
G01 Z0.0000 F10.00 
G01 X0.4071 Y0.1502 F20.00 
G01 X0.4118 Y0.1510 
G01 X0.4193 Y0.1534 
G01 X0.4263 Y0.1570 
G01 X0.4327 Y0.1617 
G01 X0.4383 Y0.1673 
G01 X0.4385 Y0.1675 
G01 X0.4901 Y0.1675 
G01 X0.4901 Y0.1325 
G01 X0.4386 Y0.1325 
G01 X0.4208 Y0.1502 
G00 Z0.1000 
G00 X0.4383 Y0.2327 
G01 Z0.0000 F10.00 
G01 X0.4327 Y0.2383 F20.00 
G01 X0.4263 Y0.2430 
G01 X0.4193 Y0.2466 
G01 X0.4118 Y0.2490 
G01 X0.4055 Y0.2500 
G01 X0.4118 Y0.2510 
G01 X0.4193 Y0.2534 
G01 X0.4263 Y0.2570 
G01 X0.4327 Y0.2617 
G01 X0.4383 Y0.2673 
G01 X0.4430 Y0.2737 
G01 X0.4466 Y0.2807 
G01 X0.4490 Y0.2882 
G01 X0.4498 Y0.2935 
G01 X0.4509 Y0.2928 
G01 X0.4554 Y0.2909 
G01 X0.4601 Y0.2900 
G01 X0.4903 Y0.2900 
G01 X0.4901 Y0.2890 
G01 X0.4901 Y0.2325 
G01 X0.4385 Y0.2325 
G01 X0.4383 Y0.2327 
G00 Z0.1000 
G00 X0.3520 Y0.2709 
G01 Z0.0000 F10.00 
G01 X0.3520 Y0.2791 F20.00 
G01 X0.3507 Y0.2872 
G01 X0.3482 Y0.2950 
G01 X0.3445 Y0.3023 
G01 X0.3397 Y0.3089 
G01 X0.3339 Y0.3147 
G01 X0.3300 Y0.3175 
G01 X0.3529 Y0.3175 
G01 X0.3510 Y0.3118 
G01 X0.3498 Y0.3040 
G01 X0.3498 Y0.2960 
G01 X0.3510 Y0.2882 
G01 X0.3534 Y0.2807 
G01 X0.3570 Y0.2737 
G01 X0.3617 Y0.2673 
G01 X0.3673 Y0.2617 
G01 X0.3737 Y0.2570 
G01 X0.3807 Y0.2534 
G01 X0.3882 Y0.2510 
G01 X0.3945 Y0.2500 
G01 X0.3882 Y0.2490 
G01 X0.3807 Y0.2466 
G01 X0.3737 Y0.2430 
G01 X0.3673 Y0.2383 
G01 X0.3617 Y0.2327 
G01 X0.3570 Y0.2263 
G01 X0.3534 Y0.2193 
G01 X0.3510 Y0.2118 
G01 X0.3498 Y0.2040 
G01 X0.3498 Y0.1960 
G01 X0.3510 Y0.1882 
G01 X0.3534 Y0.1807 
G01 X0.3570 Y0.1737 
G01 X0.3617 Y0.1673 
G01 X0.3673 Y0.1617 
G01 X0.3737 Y0.1570 
G01 X0.3807 Y0.1534 
G01 X0.3882 Y0.1510 
G01 X0.3929 Y0.1502 
G01 X0.3792 Y0.1502 
G01 X0.3614 Y0.1325 
G01 X0.3300 Y0.1325 
G01 X0.3339 Y0.1353 
G01 X0.3397 Y0.1411 
G01 X0.3445 Y0.1477 
G01 X0.3482 Y0.1550 
G01 X0.3507 Y0.1628 
G01 X0.3520 Y0.1709 
G01 X0.3520 Y0.1791 
G01 X0.3507 Y0.1872 
G01 X0.3482 Y0.1950 
G01 X0.3445 Y0.2023 
G01 X0.3397 Y0.2089 
G01 X0.3339 Y0.2147 
G01 X0.3273 Y0.2195 
G01 X0.3200 Y0.2232 
G01 X0.3194 Y0.2234 
G01 X0.3252 Y0.2293 
G01 X0.3255 Y0.2296 
G01 X0.3273 Y0.2305 
G01 X0.3339 Y0.2353 
G01 X0.3397 Y0.2411 
G01 X0.3445 Y0.2477 
G01 X0.3482 Y0.2550 
G01 X0.3507 Y0.2628 
G01 X0.3520 Y0.2709 
G00 Z0.1000 
G00 X0.2518 Y0.2550 
G01 Z0.0000 F10.00 
G01 X0.2543 Y0.2502 F20.00 
G01 X0.2484 Y0.2444 
G01 X0.2482 Y0.2450 
G01 X0.2457 Y0.2498 
G01 X0.2516 Y0.2556 
G01 X0.2518 Y0.2550 
G00 Z0.1000 
G00 X0.2482 Y0.3450 
G01 Z0.0000 F10.00 
G01 X0.2457 Y0.3498 F20.00 
G01 X0.2635 Y0.3675 
G01 X0.2715 Y0.3675 
G01 X0.2484 Y0.3444 
G01 X0.2482 Y0.3450 
G00 Z0.1000 
G00 X0.6155 Y0.2563 
G01 Z0.0000 F10.00 
G01 X0.6099 Y0.2539 F20.00 
G01 X0.6099 Y0.2691 
G01 X0.6216 Y0.2575 
G01 X0.6155 Y0.2563 
G00 Z0.1000 
G00 X0.6620 Y0.3121 
G01 Z0.0000 F10.00 
G01 X0.6620 Y0.3879 F20.00 
G01 X0.6611 Y0.3925 
G01 X0.6615 Y0.3925 
G01 X0.6637 Y0.3903 
G01 X0.6637 Y0.3075 
G01 X0.6635 Y0.3075 
G01 X0.6615 Y0.3095 
G01 X0.6620 Y0.3121 
G00 Z0.1000 
G00 X0.6637 Y0.1347 
G01 Z0.0000 F10.00 
G01 X0.6615 Y0.1325 F20.00 
G01 X0.6099 Y0.1325 
G01 X0.6099 Y0.1689 
G01 X0.6154 Y0.1712 
G01 X0.6207 Y0.1748 
G01 X0.6252 Y0.1793 
G01 X0.6385 Y0.1925 
G01 X0.6637 Y0.1925 
G01 X0.6637 Y0.1347 
G00 Z0.1000 
G00 X0.9545 Y0.4721 
G01 Z0.0000 F10.00 
G01 X0.9545 Y0.4779 F20.00 
G01 X0.9534 Y0.4836 
G01 X0.9511 Y0.4890 
G01 X0.9479 Y0.4938 
G01 X0.9438 Y0.4979 
G01 X0.9390 Y0.5011 
G01 X0.9336 Y0.5034 
G01 X0.9279 Y0.5045 
G01 X0.0221 Y0.5045 
G01 X0.0164 Y0.5034 
G01 X0.0110 Y0.5011 
G01 X0.0062 Y0.4979 
G01 X0.0021 Y0.4938 
G01 X-0.0011 Y0.4890 
G01 X-0.0034 Y0.4836 
G01 X-0.0045 Y0.4779 
G01 X-0.0045 Y0.0221 
G01 X-0.0034 Y0.0164 
G01 X-0.0011 Y0.0110 
G01 X0.0021 Y0.0062 
G01 X0.0062 Y0.0021 
G01 X0.0110 Y-0.0011 
G01 X0.0164 Y-0.0034 
G01 X0.0221 Y-0.0045 
G01 X0.9279 Y-0.0045 
G01 X0.9336 Y-0.0034 
G01 X0.9390 Y-0.0011 
G01 X0.9438 Y0.0021 
G01 X0.9479 Y0.0062 
G01 X0.9511 Y0.0110 
G01 X0.9534 Y0.0164 
G01 X0.9545 Y0.0221 
G01 X0.9545 Y0.0279 
G01 X0.9545 Y0.4721 
G00 Z0.1000 
G00 X0.4406 Y0.0625 
G01 Z0.0000 F10.00 
G01 X0.6787 Y0.0625 F20.00 
G01 X0.6859 Y0.0639 
G01 X0.6928 Y0.0668 
G01 X0.6989 Y0.0709 
G01 X0.7029 Y0.0748 
G01 X0.7147 Y0.0748 
G01 X0.7204 Y0.0760 
G01 X0.7250 Y0.0779 
G01 X0.7296 Y0.0760 
G01 X0.7353 Y0.0748 
G01 X0.7647 Y0.0748 
G01 X0.7704 Y0.0760 
G01 X0.7750 Y0.0779 
G01 X0.7796 Y0.0760 
G01 X0.7853 Y0.0748 
G01 X0.8147 Y0.0748 
G01 X0.8204 Y0.0760 
G01 X0.8250 Y0.0779 
G01 X0.8296 Y0.0760 
G01 X0.8353 Y0.0748 
G01 X0.8647 Y0.0748 
G01 X0.8704 Y0.0760 
G01 X0.8758 Y0.0782 
G01 X0.8806 Y0.0814 
G01 X0.8847 Y0.0855 
G01 X0.8880 Y0.0904 
G01 X0.8902 Y0.0957 
G01 X0.8905 Y0.0973 
G01 X0.8905 Y0.0595 
G01 X0.4376 Y0.0595 
G01 X0.4406 Y0.0625 
G00 Z0.1000 
G00 X0.0595 Y0.4405 
G01 Z0.0000 F10.00 
G01 X0.3624 Y0.4405 F20.00 
G01 X0.3594 Y0.4375 
G01 X0.2463 Y0.4375 
G01 X0.2391 Y0.4361 
G01 X0.2322 Y0.4332 
G01 X0.2261 Y0.4291 
G01 X0.1761 Y0.3791 
G01 X0.1713 Y0.3744 
G01 X0.1701 Y0.3738 
G01 X0.1629 Y0.3685 
G01 X0.1565 Y0.3621 
G01 X0.1512 Y0.3549 
G01 X0.1472 Y0.3469 
G01 X0.1444 Y0.3383 
G01 X0.1430 Y0.3295 
G01 X0.1430 Y0.3205 
G01 X0.1444 Y0.3117 
G01 X0.1472 Y0.3031 
G01 X0.1512 Y0.2951 
G01 X0.1565 Y0.2879 
G01 X0.1629 Y0.2815 
G01 X0.1701 Y0.2762 
G01 X0.1722 Y0.2752 
G01 X0.1713 Y0.2744 
G01 X0.1701 Y0.2738 
G01 X0.1629 Y0.2685 
G01 X0.1565 Y0.2621 
G01 X0.1512 Y0.2549 
G01 X0.1472 Y0.2469 
G01 X0.1444 Y0.2383 
G01 X0.1430 Y0.2295 
G01 X0.1430 Y0.2205 
G01 X0.1444 Y0.2117 
G01 X0.1472 Y0.2031 
G01 X0.1512 Y0.1951 
G01 X0.1565 Y0.1879 
G01 X0.1629 Y0.1815 
G01 X0.1701 Y0.1762 
G01 X0.1781 Y0.1722 
G01 X0.1867 Y0.1694 
G01 X0.1875 Y0.1693 
G01 X0.1875 Y0.1213 
G01 X0.1889 Y0.1141 
G01 X0.1918 Y0.1072 
G01 X0.1959 Y0.1011 
G01 X0.2209 Y0.0761 
G01 X0.2261 Y0.0709 
G01 X0.2322 Y0.0668 
G01 X0.2391 Y0.0639 
G01 X0.2463 Y0.0625 
G01 X0.3594 Y0.0625 
G01 X0.3624 Y0.0595 
G01 X0.0595 Y0.0595 
G01 X0.0595 Y0.4405 
G00 Z0.1000 
G00 X0.8905 Y0.4027 
G01 Z0.0000 F10.00 
G01 X0.8902 Y0.4043 F20.00 
G01 X0.8880 Y0.4096 
G01 X0.8847 Y0.4145 
G01 X0.8806 Y0.4186 
G01 X0.8758 Y0.4218 
G01 X0.8704 Y0.4240 
G01 X0.8647 Y0.4252 
G01 X0.8353 Y0.4252 
G01 X0.8296 Y0.4240 
G01 X0.8250 Y0.4221 
G01 X0.8204 Y0.4240 
G01 X0.8147 Y0.4252 
G01 X0.7853 Y0.4252 
G01 X0.7796 Y0.4240 
G01 X0.7750 Y0.4221 
G01 X0.7704 Y0.4240 
G01 X0.7647 Y0.4252 
G01 X0.7353 Y0.4252 
G01 X0.7296 Y0.4240 
G01 X0.7292 Y0.4239 
G01 X0.7239 Y0.4291 
G01 X0.7125 Y0.4405 
G01 X0.8905 Y0.4405 
G01 X0.8905 Y0.4027 
G00 Z0.1000 
G00 X0.3299 Y0.2262 
G01 Z0.0000 F10.00 
G01 X0.3371 Y0.2315 F20.00 
G01 X0.3435 Y0.2379 
G01 X0.3488 Y0.2451 
G01 X0.3528 Y0.2531 
G01 X0.3556 Y0.2617 
G01 X0.3563 Y0.2661 
G01 X0.3579 Y0.2640 
G01 X0.3640 Y0.2579 
G01 X0.3710 Y0.2527 
G01 X0.3764 Y0.2500 
G01 X0.3710 Y0.2473 
G01 X0.3640 Y0.2421 
G01 X0.3579 Y0.2360 
G01 X0.3527 Y0.2290 
G01 X0.3488 Y0.2212 
G01 X0.3461 Y0.2129 
G01 X0.3455 Y0.2093 
G01 X0.3435 Y0.2121 
G01 X0.3371 Y0.2185 
G01 X0.3299 Y0.2238 
G01 X0.3278 Y0.2248 
G01 X0.3287 Y0.2256 
G01 X0.3299 Y0.2262 
G00 Z0.1000 
G00 X0.3455 Y0.3093 
G01 Z0.0000 F10.00 
G01 X0.3435 Y0.3121 F20.00 
G01 X0.3431 Y0.3125 
G01 X0.3460 Y0.3125 
G01 X0.3455 Y0.3093 
G00 Z0.1000 
G00 X0.3435 Y0.1379 
G01 Z0.0000 F10.00 
G01 X0.3488 Y0.1451 F20.00 
G01 X0.3528 Y0.1531 
G01 X0.3556 Y0.1617 
G01 X0.3563 Y0.1661 
G01 X0.3579 Y0.1640 
G01 X0.3640 Y0.1579 
G01 X0.3710 Y0.1527 
G01 X0.3734 Y0.1515 
G01 X0.3594 Y0.1375 
G01 X0.3431 Y0.1375 
G01 X0.3435 Y0.1379 
G00 Z0.1000 
G00 X0.8902 Y0.1995 
G01 Z0.0000 F10.00 
G01 X0.8880 Y0.2049 F20.00 
G01 X0.8847 Y0.2097 
G01 X0.8806 Y0.2139 
G01 X0.8758 Y0.2171 
G01 X0.8704 Y0.2193 
G01 X0.8647 Y0.2204 
G01 X0.8353 Y0.2204 
G01 X0.8319 Y0.2198 
G01 X0.8291 Y0.2239 
G01 X0.8239 Y0.2291 
G01 X0.8155 Y0.2375 
G01 X0.8287 Y0.2375 
G01 X0.8359 Y0.2389 
G01 X0.8428 Y0.2418 
G01 X0.8489 Y0.2459 
G01 X0.8739 Y0.2709 
G01 X0.8791 Y0.2761 
G01 X0.8832 Y0.2822 
G01 X0.8861 Y0.2891 
G01 X0.8870 Y0.2936 
G01 X0.8880 Y0.2951 
G01 X0.8902 Y0.3005 
G01 X0.8905 Y0.3021 
G01 X0.8905 Y0.1979 
G01 X0.8902 Y0.1995 
G00 Z0.1000 
G00 X0.6587 Y0.1375 
G01 Z0.0000 F10.00 
G01 X0.6149 Y0.1375 F20.00 
G01 X0.6149 Y0.1656 
G01 X0.6178 Y0.1668 
G01 X0.6239 Y0.1709 
G01 X0.6291 Y0.1761 
G01 X0.6405 Y0.1875 
G01 X0.6587 Y0.1875 
G01 X0.6587 Y0.1375 
G00 Z0.1000 
G00 X0.4360 Y0.2421 
G01 Z0.0000 F10.00 
G01 X0.4290 Y0.2473 F20.00 
G01 X0.4236 Y0.2500 
G01 X0.4290 Y0.2527 
G01 X0.4360 Y0.2579 
G01 X0.4421 Y0.2640 
G01 X0.4473 Y0.2710 
G01 X0.4512 Y0.2788 
G01 X0.4536 Y0.2863 
G01 X0.4539 Y0.2861 
G01 X0.4596 Y0.2850 
G01 X0.4851 Y0.2850 
G01 X0.4851 Y0.2375 
G01 X0.4406 Y0.2375 
G01 X0.4360 Y0.2421 
G00 Z0.1000 
G00 X0.4266 Y0.1515 
G01 Z0.0000 F10.00 
G01 X0.4290 Y0.1527 F20.00 
G01 X0.4360 Y0.1579 
G01 X0.4406 Y0.1625 
G01 X0.4851 Y0.1625 
G01 X0.4851 Y0.1375 
G01 X0.4406 Y0.1375 
G01 X0.4266 Y0.1515 
G00 Z0.1000 
G00 X0.9595 Y0.4716 
G01 Z0.0000 F10.00 
G01 X0.9595 Y0.4784 F20.00 
G01 X0.9582 Y0.4851 
G01 X0.9556 Y0.4913 
G01 X0.9518 Y0.4970 
G01 X0.9470 Y0.5018 
G01 X0.9413 Y0.5056 
G01 X0.9351 Y0.5082 
G01 X0.9284 Y0.5095 
G01 X0.0216 Y0.5095 
G01 X0.0149 Y0.5082 
G01 X0.0087 Y0.5056 
G01 X0.0030 Y0.5018 
G01 X-0.0018 Y0.4970 
G01 X-0.0056 Y0.4913 
G01 X-0.0082 Y0.4851 
G01 X-0.0095 Y0.4784 
G01 X-0.0095 Y0.0216 
G01 X-0.0082 Y0.0149 
G01 X-0.0056 Y0.0087 
G01 X-0.0018 Y0.0030 
G01 X0.0030 Y-0.0018 
G01 X0.0087 Y-0.0056 
G01 X0.0149 Y-0.0082 
G01 X0.0216 Y-0.0095 
G01 X0.9284 Y-0.0095 
G01 X0.9351 Y-0.0082 
G01 X0.9413 Y-0.0056 
G01 X0.9470 Y-0.0018 
G01 X0.9518 Y0.0030 
G01 X0.9556 Y0.0087 
G01 X0.9582 Y0.0149 
G01 X0.9595 Y0.0216 
G01 X0.9595 Y0.0284 
G01 X0.9595 Y0.4716 
G00 Z0.1000 
G00 X0.7027 Y0.0676 
G01 Z0.0000 F10.00 
G01 X0.7049 Y0.0698 F20.00 
G01 X0.7152 Y0.0698 
G01 X0.7219 Y0.0712 
G01 X0.7250 Y0.0725 
G01 X0.7281 Y0.0712 
G01 X0.7348 Y0.0698 
G01 X0.7652 Y0.0698 
G01 X0.7719 Y0.0712 
G01 X0.7750 Y0.0725 
G01 X0.7781 Y0.0712 
G01 X0.7848 Y0.0698 
G01 X0.8152 Y0.0698 
G01 X0.8219 Y0.0712 
G01 X0.8250 Y0.0725 
G01 X0.8281 Y0.0712 
G01 X0.8348 Y0.0698 
G01 X0.8652 Y0.0698 
G01 X0.8719 Y0.0712 
G01 X0.8782 Y0.0738 
G01 X0.8838 Y0.0775 
G01 X0.8855 Y0.0792 
G01 X0.8855 Y0.0645 
G01 X0.6984 Y0.0645 
G01 X0.7027 Y0.0676 
G00 Z0.1000 
G00 X0.0645 Y0.4355 
G01 Z0.0000 F10.00 
G01 X0.2266 Y0.4355 F20.00 
G01 X0.2223 Y0.4324 
G01 X0.1723 Y0.3824 
G01 X0.1684 Y0.3785 
G01 X0.1675 Y0.3780 
G01 X0.1596 Y0.3723 
G01 X0.1527 Y0.3654 
G01 X0.1470 Y0.3575 
G01 X0.1425 Y0.3488 
G01 X0.1395 Y0.3395 
G01 X0.1380 Y0.3299 
G01 X0.1380 Y0.3201 
G01 X0.1395 Y0.3105 
G01 X0.1425 Y0.3012 
G01 X0.1470 Y0.2925 
G01 X0.1527 Y0.2846 
G01 X0.1596 Y0.2777 
G01 X0.1633 Y0.2750 
G01 X0.1596 Y0.2723 
G01 X0.1527 Y0.2654 
G01 X0.1470 Y0.2575 
G01 X0.1425 Y0.2488 
G01 X0.1395 Y0.2395 
G01 X0.1380 Y0.2299 
G01 X0.1380 Y0.2201 
G01 X0.1395 Y0.2105 
G01 X0.1425 Y0.2012 
G01 X0.1470 Y0.1925 
G01 X0.1527 Y0.1846 
G01 X0.1596 Y0.1777 
G01 X0.1675 Y0.1720 
G01 X0.1762 Y0.1675 
G01 X0.1825 Y0.1655 
G01 X0.1825 Y0.1217 
G01 X0.1835 Y0.1150 
G01 X0.1856 Y0.1087 
G01 X0.1887 Y0.1027 
G01 X0.1926 Y0.0973 
G01 X0.2176 Y0.0723 
G01 X0.2223 Y0.0676 
G01 X0.2266 Y0.0645 
G01 X0.0645 Y0.0645 
G01 X0.0645 Y0.4355 
G00 Z0.1000 
G00 X0.8855 Y0.4208 
G01 Z0.0000 F10.00 
G01 X0.8838 Y0.4225 F20.00 
G01 X0.8782 Y0.4262 
G01 X0.8719 Y0.4288 
G01 X0.8652 Y0.4302 
G01 X0.8348 Y0.4302 
G01 X0.8281 Y0.4288 
G01 X0.8250 Y0.4275 
G01 X0.8219 Y0.4288 
G01 X0.8152 Y0.4302 
G01 X0.7848 Y0.4302 
G01 X0.7781 Y0.4288 
G01 X0.7750 Y0.4275 
G01 X0.7719 Y0.4288 
G01 X0.7652 Y0.4302 
G01 X0.7348 Y0.4302 
G01 X0.7307 Y0.4294 
G01 X0.7277 Y0.4324 
G01 X0.7246 Y0.4355 
G01 X0.8855 Y0.4355 
G01 X0.8855 Y0.4208 
G00 Z0.1000 
G00 X0.4392 Y0.2460 
G01 Z0.0000 F10.00 
G01 X0.4337 Y0.2500 F20.00 
G01 X0.4392 Y0.2540 
G01 X0.4460 Y0.2608 
G01 X0.4515 Y0.2684 
G01 X0.4558 Y0.2769 
G01 X0.4570 Y0.2804 
G01 X0.4591 Y0.2800 
G01 X0.4801 Y0.2800 
G01 X0.4801 Y0.2425 
G01 X0.4427 Y0.2425 
G01 X0.4392 Y0.2460 
G00 Z0.1000 
G00 X0.4346 Y0.1506 
G01 Z0.0000 F10.00 
G01 X0.4392 Y0.1540 F20.00 
G01 X0.4427 Y0.1575 
G01 X0.4801 Y0.1575 
G01 X0.4801 Y0.1425 
G01 X0.4427 Y0.1425 
G01 X0.4346 Y0.1506 
G00 Z0.1000 
G00 X0.8838 Y0.2177 
G01 Z0.0000 F10.00 
G01 X0.8782 Y0.2215 F20.00 
G01 X0.8719 Y0.2241 
G01 X0.8652 Y0.2254 
G01 X0.8348 Y0.2254 
G01 X0.8341 Y0.2253 
G01 X0.8324 Y0.2277 
G01 X0.8277 Y0.2324 
G01 X0.8283 Y0.2325 
G01 X0.8350 Y0.2335 
G01 X0.8413 Y0.2356 
G01 X0.8473 Y0.2387 
G01 X0.8527 Y0.2426 
G01 X0.8777 Y0.2676 
G01 X0.8824 Y0.2723 
G01 X0.8855 Y0.2766 
G01 X0.8855 Y0.2160 
G01 X0.8838 Y0.2177 
G00 Z0.1000 
G00 X0.6537 Y0.1425 
G01 Z0.0000 F10.00 
G01 X0.6199 Y0.1425 F20.00 
G01 X0.6199 Y0.1625 
G01 X0.6223 Y0.1637 
G01 X0.6277 Y0.1676 
G01 X0.6324 Y0.1723 
G01 X0.6426 Y0.1825 
G01 X0.6537 Y0.1825 
G01 X0.6537 Y0.1425 
G00 Z0.1000 
G00 X0.3530 Y0.1425 
G01 Z0.0000 F10.00 
G01 X0.3575 Y0.1512 F20.00 
G01 X0.3590 Y0.1558 
G01 X0.3608 Y0.1540 
G01 X0.3654 Y0.1506 
G01 X0.3573 Y0.1425 
G01 X0.3530 Y0.1425 
G00 Z0.1000 
G00 X0.3404 Y0.2277 
G01 Z0.0000 F10.00 
G01 X0.3473 Y0.2346 F20.00 
G01 X0.3530 Y0.2425 
G01 X0.3575 Y0.2512 
G01 X0.3590 Y0.2558 
G01 X0.3608 Y0.2540 
G01 X0.3663 Y0.2500 
G01 X0.3608 Y0.2460 
G01 X0.3540 Y0.2392 
G01 X0.3485 Y0.2316 
G01 X0.3442 Y0.2231 
G01 X0.3430 Y0.2196 
G01 X0.3404 Y0.2223 
G01 X0.3367 Y0.2250 
G01 X0.3404 Y0.2277 
G00 Z0.1000 
G00 X0.9645 Y0.4711 
G01 Z0.0000 F10.00 
G01 X0.9645 Y0.4789 F20.00 
G01 X0.9630 Y0.4865 
G01 X0.9600 Y0.4937 
G01 X0.9557 Y0.5002 
G01 X0.9502 Y0.5057 
G01 X0.9437 Y0.5100 
G01 X0.9365 Y0.5130 
G01 X0.9289 Y0.5145 
G01 X0.0211 Y0.5145 
G01 X0.0135 Y0.5130 
G01 X0.0063 Y0.5100 
G01 X-0.0002 Y0.5057 
G01 X-0.0057 Y0.5002 
G01 X-0.0100 Y0.4937 
G01 X-0.0130 Y0.4865 
G01 X-0.0145 Y0.4789 
G01 X-0.0145 Y0.0211 
G01 X-0.0130 Y0.0135 
G01 X-0.0100 Y0.0063 
G01 X-0.0057 Y-0.0002 
G01 X-0.0002 Y-0.0057 
G01 X0.0063 Y-0.0100 
G01 X0.0135 Y-0.0130 
G01 X0.0211 Y-0.0145 
G01 X0.9289 Y-0.0145 
G01 X0.9365 Y-0.0130 
G01 X0.9437 Y-0.0100 
G01 X0.9502 Y-0.0057 
G01 X0.9557 Y-0.0002 
G01 X0.9600 Y0.0063 
G01 X0.9630 Y0.0135 
G01 X0.9645 Y0.0211 
G01 X0.9645 Y0.0289 
G01 X0.9645 Y0.4711 
G00 Z0.1000 
G00 X0.0695 Y0.4305 
G01 Z0.0000 F10.00 
G01 X0.2133 Y0.4305 F20.00 
G01 X0.1691 Y0.3862 
G01 X0.1650 Y0.3821 
G01 X0.1627 Y0.3808 
G01 X0.1557 Y0.3755 
G01 X0.1495 Y0.3693 
G01 X0.1442 Y0.3623 
G01 X0.1398 Y0.3547 
G01 X0.1364 Y0.3466 
G01 X0.1341 Y0.3381 
G01 X0.1330 Y0.3294 
G01 X0.1330 Y0.3206 
G01 X0.1341 Y0.3119 
G01 X0.1364 Y0.3034 
G01 X0.1398 Y0.2953 
G01 X0.1442 Y0.2877 
G01 X0.1495 Y0.2807 
G01 X0.1552 Y0.2750 
G01 X0.1495 Y0.2693 
G01 X0.1442 Y0.2623 
G01 X0.1398 Y0.2547 
G01 X0.1364 Y0.2466 
G01 X0.1341 Y0.2381 
G01 X0.1330 Y0.2294 
G01 X0.1330 Y0.2206 
G01 X0.1341 Y0.2119 
G01 X0.1364 Y0.2034 
G01 X0.1398 Y0.1953 
G01 X0.1442 Y0.1877 
G01 X0.1495 Y0.1807 
G01 X0.1557 Y0.1745 
G01 X0.1627 Y0.1692 
G01 X0.1703 Y0.1648 
G01 X0.1775 Y0.1618 
G01 X0.1775 Y0.1213 
G01 X0.1787 Y0.1139 
G01 X0.1810 Y0.1068 
G01 X0.1844 Y0.1001 
G01 X0.1888 Y0.0941 
G01 X0.2133 Y0.0695 
G01 X0.0695 Y0.0695 
G01 X0.0695 Y0.4305 
G00 Z0.1000 
G00 X0.6487 Y0.1475 
G01 Z0.0000 F10.00 
G01 X0.6249 Y0.1475 F20.00 
G01 X0.6249 Y0.1594 
G01 X0.6309 Y0.1638 
G01 X0.6362 Y0.1691 
G01 X0.6447 Y0.1775 
G01 X0.6487 Y0.1775 
G01 X0.6487 Y0.1475 
G00 Z0.1000 
G00 X0.8733 Y0.2289 
G01 Z0.0000 F10.00 
G01 X0.8657 Y0.2304 F20.00 
G01 X0.8416 Y0.2304 
G01 X0.8432 Y0.2310 
G01 X0.8499 Y0.2344 
G01 X0.8559 Y0.2388 
G01 X0.8805 Y0.2633 
G01 X0.8805 Y0.2260 
G01 X0.8733 Y0.2289 
G00 Z0.1000 
G00 X0.4431 Y0.2492 
G01 Z0.0000 F10.00 
G01 X0.4420 Y0.2500 F20.00 
G01 X0.4431 Y0.2508 
G01 X0.4492 Y0.2569 
G01 X0.4544 Y0.2637 
G01 X0.4586 Y0.2711 
G01 X0.4603 Y0.2750 
G01 X0.4751 Y0.2750 
G01 X0.4751 Y0.2475 
G01 X0.4448 Y0.2475 
G01 X0.4431 Y0.2492 
G00 Z0.1000 
G00 X0.4422 Y0.1501 
G01 Z0.0000 F10.00 
G01 X0.4431 Y0.1508 F20.00 
G01 X0.4448 Y0.1525 
G01 X0.4751 Y0.1525 
G01 X0.4751 Y0.1475 
G01 X0.4448 Y0.1475 
G01 X0.4422 Y0.1501 
G00 Z0.1000 
G00 X0.9695 Y0.4715 
G01 Z0.0000 F10.00 
G01 X0.9695 Y0.4785 F20.00 
G01 X0.9684 Y0.4854 
G01 X0.9662 Y0.4921 
G01 X0.9631 Y0.4983 
G01 X0.9589 Y0.5040 
G01 X0.9540 Y0.5089 
G01 X0.9483 Y0.5131 
G01 X0.9421 Y0.5162 
G01 X0.9354 Y0.5184 
G01 X0.9285 Y0.5195 
G01 X0.0215 Y0.5195 
G01 X0.0146 Y0.5184 
G01 X0.0079 Y0.5162 
G01 X0.0017 Y0.5131 
G01 X-0.0040 Y0.5089 
G01 X-0.0089 Y0.5040 
G01 X-0.0131 Y0.4983 
G01 X-0.0162 Y0.4921 
G01 X-0.0184 Y0.4854 
G01 X-0.0195 Y0.4785 
G01 X-0.0195 Y0.0215 
G01 X-0.0184 Y0.0146 
G01 X-0.0162 Y0.0079 
G01 X-0.0131 Y0.0017 
G01 X-0.0089 Y-0.0040 
G01 X-0.0040 Y-0.0089 
G01 X0.0017 Y-0.0131 
G01 X0.0079 Y-0.0162 
G01 X0.0146 Y-0.0184 
G01 X0.0215 Y-0.0195 
G01 X0.9285 Y-0.0195 
G01 X0.9354 Y-0.0184 
G01 X0.9421 Y-0.0162 
G01 X0.9483 Y-0.0131 
G01 X0.9540 Y-0.0089 
G01 X0.9589 Y-0.0040 
G01 X0.9631 Y0.0017 
G01 X0.9662 Y0.0079 
G01 X0.9684 Y0.0146 
G01 X0.9695 Y0.0215 
G01 X0.9695 Y0.0285 
G01 X0.9695 Y0.4715 
G00 Z0.1000 
G00 X0.0745 Y0.4255 
G01 Z0.0000 F10.00 
G01 X0.2013 Y0.4255 F20.00 
G01 X0.1658 Y0.3900 
G01 X0.1619 Y0.3861 
G01 X0.1599 Y0.3850 
G01 X0.1524 Y0.3792 
G01 X0.1458 Y0.3726 
G01 X0.1400 Y0.3651 
G01 X0.1353 Y0.3569 
G01 X0.1317 Y0.3482 
G01 X0.1292 Y0.3391 
G01 X0.1280 Y0.3297 
G01 X0.1280 Y0.3203 
G01 X0.1292 Y0.3109 
G01 X0.1317 Y0.3018 
G01 X0.1353 Y0.2931 
G01 X0.1400 Y0.2849 
G01 X0.1458 Y0.2774 
G01 X0.1482 Y0.2750 
G01 X0.1458 Y0.2726 
G01 X0.1400 Y0.2651 
G01 X0.1353 Y0.2569 
G01 X0.1317 Y0.2482 
G01 X0.1292 Y0.2391 
G01 X0.1280 Y0.2297 
G01 X0.1280 Y0.2203 
G01 X0.1292 Y0.2109 
G01 X0.1317 Y0.2018 
G01 X0.1353 Y0.1931 
G01 X0.1400 Y0.1849 
G01 X0.1458 Y0.1774 
G01 X0.1524 Y0.1708 
G01 X0.1599 Y0.1650 
G01 X0.1681 Y0.1603 
G01 X0.1725 Y0.1585 
G01 X0.1725 Y0.1209 
G01 X0.1738 Y0.1127 
G01 X0.1763 Y0.1048 
G01 X0.1801 Y0.0975 
G01 X0.1850 Y0.0908 
G01 X0.2013 Y0.0745 
G01 X0.0745 Y0.0745 
G01 X0.0745 Y0.4255 
G00 Z0.1000 
G00 X0.8722 Y0.2343 
G01 Z0.0000 F10.00 
G01 X0.8653 Y0.2354 F20.00 
G01 X0.8597 Y0.2354 
G01 X0.8755 Y0.2513 
G01 X0.8755 Y0.2333 
G01 X0.8722 Y0.2343 
G00 Z0.1000 
G00 X0.6437 Y0.1525 
G01 Z0.0000 F10.00 
G01 X0.6299 Y0.1525 F20.00 
G01 X0.6299 Y0.1569 
G01 X0.6342 Y0.1600 
G01 X0.6400 Y0.1658 
G01 X0.6437 Y0.1694 
G01 X0.6437 Y0.1525 
G00 Z0.1000 
G00 X0.4529 Y0.2536 
G01 Z0.0000 F10.00 
G01 X0.4585 Y0.2609 F20.00 
G01 X0.4631 Y0.2689 
G01 X0.4636 Y0.2700 
G01 X0.4701 Y0.2700 
G01 X0.4701 Y0.2525 
G01 X0.4518 Y0.2525 
G01 X0.4529 Y0.2536 
G00 Z0.1000 
G00 X0.9745 Y0.4711 
G01 Z0.0000 F10.00 
G01 X0.9745 Y0.4789 F20.00 
G01 X0.9733 Y0.4866 
G01 X0.9709 Y0.4940 
G01 X0.9673 Y0.5009 
G01 X0.9628 Y0.5072 
G01 X0.9572 Y0.5128 
G01 X0.9509 Y0.5173 
G01 X0.9440 Y0.5209 
G01 X0.9366 Y0.5233 
G01 X0.9289 Y0.5245 
G01 X0.0211 Y0.5245 
G01 X0.0134 Y0.5233 
G01 X0.0060 Y0.5209 
G01 X-0.0009 Y0.5173 
G01 X-0.0072 Y0.5128 
G01 X-0.0128 Y0.5072 
G01 X-0.0173 Y0.5009 
G01 X-0.0209 Y0.4940 
G01 X-0.0233 Y0.4866 
G01 X-0.0245 Y0.4789 
G01 X-0.0245 Y0.0211 
G01 X-0.0233 Y0.0134 
G01 X-0.0209 Y0.0060 
G01 X-0.0173 Y-0.0009 
G01 X-0.0128 Y-0.0072 
G01 X-0.0072 Y-0.0128 
G01 X-0.0009 Y-0.0173 
G01 X0.0060 Y-0.0209 
G01 X0.0134 Y-0.0233 
G01 X0.0211 Y-0.0245 
G01 X0.9289 Y-0.0245 
G01 X0.9366 Y-0.0233 
G01 X0.9440 Y-0.0209 
G01 X0.9509 Y-0.0173 
G01 X0.9572 Y-0.0128 
G01 X0.9628 Y-0.0072 
G01 X0.9673 Y-0.0009 
G01 X0.9709 Y0.0060 
G01 X0.9733 Y0.0134 
G01 X0.9745 Y0.0211 
G01 X0.9745 Y0.0289 
G01 X0.9745 Y0.4711 
G00 Z0.1000 
G00 Z0.100000
G00 X0.2000 Y0.3250 
G01 Z-0.0100 F10.00 
G01 Z0.100000
(R0.1000  P1.000000)
(G00 Z0.100000)
G00 X0.3000 Y0.2750 
G01 Z-0.010000
G01 Z0.100000
(G00 Z0.100000)
G00 X0.2000 Y0.2250 
G01 Z-0.010000
G01 Z0.100000
(G00 Z0.100000)
G00 X0.3000 Y0.1750 
G01 Z-0.010000
G01 Z0.100000
(G00 Z0.100000)
G00 X0.1000 Y0.4500 
G01 Z-0.010000
G01 Z0.100000
(G00 Z0.100000)
G00 X0.1000 Y0.0500 
G01 Z-0.010000
G01 Z0.100000
(G00 Z0.100000)
G00 X0.4000 Y0.2000 
G01 Z-0.010000
G01 Z0.100000
(G00 Z0.100000)
G00 X0.4000 Y0.4000 
G01 Z-0.010000
G01 Z0.100000
(G00 Z0.100000)
G00 X0.4000 Y0.3000 
G01 Z-0.010000
G01 Z0.100000
(G00 Z0.100000)
G00 X0.4000 Y0.1000 
G01 Z-0.010000
G01 Z0.100000
(G00 Z0.100000)
M05
M02
