(.../Programs/Tech/pcbgcode/pcb-gcode.ulp)
(Copyright 2005 - 2012 by John Johnson)
(See readme.txt for licensing terms.)
(This file generated from the board:)
(.../Work-in-progress/Eagle/ow_switch2.brd)
(Current profile is .../pcbgcode/profiles/generic.pp  )
(This file generated 3/12/2015 8:17:56 PM)
(Settings from pcb-machine.h)
(  Tool Size)
(0.0070 )
(Z Axis Settings)
(  High     Up        Down     Drill)
(0.5000 	0.1000 	0.0000 	-0.0100 )
(spindle on time = 3.0000)
(milling depth = -0.0100)
(text depth = -0.0100)
(tool change at 0.5000 0.6000 1.0000 )
(feed rate xy = F20.00 )
(feed rate z  = F10.00 )
(Settings from pcb-defaults.h)
(isolate min = 0.0010)
(isolate max = 0.0400)
(isolate step = 0.0050)
(Generated top outlines, )
(Unit of measure: inch)
(Inch Mode)
G20
(Absolute Coordinates)
G90
G00 X0.0000 Y0.0000 
M03
G04 P3.000000
G00 Z0.1000 
G00 X0.0095 Y0.0345 
G01 Z0.0000 F10.00 
G01 X0.0095 Y0.4155 F20.00 
G01 X0.0153 Y0.4155 
G01 X0.0160 Y0.4108 
G01 X0.0189 Y0.4018 
G01 X0.0233 Y0.3933 
G01 X0.0289 Y0.3856 
G01 X0.0356 Y0.3789 
G01 X0.0433 Y0.3733 
G01 X0.0518 Y0.3689 
G01 X0.0608 Y0.3660 
G01 X0.0702 Y0.3645 
G01 X0.0798 Y0.3645 
G01 X0.0892 Y0.3660 
G01 X0.0982 Y0.3689 
G01 X0.1067 Y0.3733 
G01 X0.1144 Y0.3789 
G01 X0.1211 Y0.3856 
G01 X0.1267 Y0.3933 
G01 X0.1311 Y0.4018 
G01 X0.1340 Y0.4108 
G01 X0.1347 Y0.4155 
G01 X1.7905 Y0.4155 
G01 X1.7905 Y0.0345 
G01 X0.1347 Y0.0345 
G01 X0.1340 Y0.0392 
G01 X0.1311 Y0.0482 
G01 X0.1267 Y0.0567 
G01 X0.1211 Y0.0644 
G01 X0.1144 Y0.0711 
G01 X0.1067 Y0.0767 
G01 X0.0982 Y0.0811 
G01 X0.0892 Y0.0840 
G01 X0.0798 Y0.0855 
G01 X0.0702 Y0.0855 
G01 X0.0608 Y0.0840 
G01 X0.0518 Y0.0811 
G01 X0.0433 Y0.0767 
G01 X0.0356 Y0.0711 
G01 X0.0289 Y0.0644 
G01 X0.0233 Y0.0567 
G01 X0.0189 Y0.0482 
G01 X0.0160 Y0.0392 
G01 X0.0153 Y0.0345 
G01 X0.0095 Y0.0345 
G00 Z0.1000 
G00 X1.6392 Y0.3632 
G01 Z0.0000 F10.00 
G01 X1.5608 Y0.3632 F20.00 
G01 X1.5532 Y0.3616 
G01 X1.5459 Y0.3587 
G01 X1.5394 Y0.3543 
G01 X1.5339 Y0.3488 
G01 X1.5317 Y0.3455 
G01 X1.4496 Y0.3455 
G01 X1.4464 Y0.3487 
G01 X1.4414 Y0.3520 
G01 X1.4359 Y0.3543 
G01 X1.4300 Y0.3555 
G01 X1.3720 Y0.3555 
G01 X1.3661 Y0.3543 
G01 X1.3606 Y0.3520 
G01 X1.3556 Y0.3487 
G01 X1.3513 Y0.3444 
G01 X1.3480 Y0.3394 
G01 X1.3457 Y0.3339 
G01 X1.3445 Y0.3280 
G01 X1.3445 Y0.3220 
G01 X1.3457 Y0.3161 
G01 X1.3480 Y0.3106 
G01 X1.3513 Y0.3056 
G01 X1.3556 Y0.3013 
G01 X1.3606 Y0.2980 
G01 X1.3661 Y0.2957 
G01 X1.3720 Y0.2945 
G01 X1.4300 Y0.2945 
G01 X1.4359 Y0.2957 
G01 X1.4414 Y0.2980 
G01 X1.4464 Y0.3013 
G01 X1.4496 Y0.3045 
G01 X1.5296 Y0.3045 
G01 X1.5339 Y0.2981 
G01 X1.5394 Y0.2925 
G01 X1.5459 Y0.2882 
G01 X1.5532 Y0.2852 
G01 X1.5608 Y0.2837 
G01 X1.6392 Y0.2837 
G01 X1.6468 Y0.2852 
G01 X1.6541 Y0.2882 
G01 X1.6606 Y0.2925 
G01 X1.6661 Y0.2981 
G01 X1.6705 Y0.3046 
G01 X1.6735 Y0.3118 
G01 X1.6750 Y0.3195 
G01 X1.6750 Y0.3273 
G01 X1.6735 Y0.3350 
G01 X1.6705 Y0.3423 
G01 X1.6661 Y0.3488 
G01 X1.6606 Y0.3543 
G01 X1.6541 Y0.3587 
G01 X1.6468 Y0.3616 
G01 X1.6392 Y0.3632 
G00 Z0.1000 
G00 X0.8950 Y0.1364 
G01 Z0.0000 F10.00 
G01 X0.8950 Y0.1227 F20.00 
G01 X0.8875 Y0.1302 
G01 X0.8875 Y0.2698 
G01 X0.8950 Y0.2773 
G01 X0.8950 Y0.2636 
G01 X0.8957 Y0.2620 
G01 X0.8969 Y0.2607 
G01 X0.8986 Y0.2600 
G01 X0.9634 Y0.2600 
G01 X0.9650 Y0.2607 
G01 X0.9663 Y0.2620 
G01 X0.9670 Y0.2636 
G01 X0.9670 Y0.3364 
G01 X0.9663 Y0.3380 
G01 X0.9650 Y0.3393 
G01 X0.9634 Y0.3400 
G01 X0.8986 Y0.3400 
G01 X0.8969 Y0.3393 
G01 X0.8957 Y0.3380 
G01 X0.8950 Y0.3364 
G01 X0.8950 Y0.3115 
G01 X0.8923 Y0.3100 
G01 X0.8673 Y0.2850 
G01 X0.8650 Y0.2827 
G01 X0.8634 Y0.2798 
G01 X0.8625 Y0.2766 
G01 X0.8625 Y0.1234 
G01 X0.8634 Y0.1202 
G01 X0.8650 Y0.1173 
G01 X0.8900 Y0.0923 
G01 X0.8923 Y0.0900 
G01 X0.8950 Y0.0885 
G01 X0.8950 Y0.0636 
G01 X0.8957 Y0.0620 
G01 X0.8969 Y0.0607 
G01 X0.8986 Y0.0600 
G01 X0.9634 Y0.0600 
G01 X0.9650 Y0.0607 
G01 X0.9663 Y0.0620 
G01 X0.9670 Y0.0636 
G01 X0.9670 Y0.1364 
G01 X0.9663 Y0.1380 
G01 X0.9650 Y0.1393 
G01 X0.9634 Y0.1400 
G01 X0.8986 Y0.1400 
G01 X0.8969 Y0.1393 
G01 X0.8957 Y0.1380 
G01 X0.8950 Y0.1364 
G00 Z0.1000 
G00 X0.7830 Y0.1364 
G01 Z0.0000 F10.00 
G01 X0.7830 Y0.0636 F20.00 
G01 X0.7837 Y0.0620 
G01 X0.7850 Y0.0607 
G01 X0.7866 Y0.0600 
G01 X0.8514 Y0.0600 
G01 X0.8531 Y0.0607 
G01 X0.8543 Y0.0620 
G01 X0.8550 Y0.0636 
G01 X0.8550 Y0.1364 
G01 X0.8543 Y0.1380 
G01 X0.8531 Y0.1393 
G01 X0.8514 Y0.1400 
G01 X0.8315 Y0.1400 
G01 X0.8315 Y0.1600 
G01 X0.8514 Y0.1600 
G01 X0.8531 Y0.1607 
G01 X0.8543 Y0.1620 
G01 X0.8550 Y0.1636 
G01 X0.8550 Y0.2364 
G01 X0.8543 Y0.2380 
G01 X0.8531 Y0.2393 
G01 X0.8514 Y0.2400 
G01 X0.7866 Y0.2400 
G01 X0.7850 Y0.2393 
G01 X0.7837 Y0.2380 
G01 X0.7830 Y0.2364 
G01 X0.7830 Y0.2125 
G01 X0.6984 Y0.2125 
G01 X0.6952 Y0.2116 
G01 X0.6923 Y0.2100 
G01 X0.6673 Y0.1850 
G01 X0.6650 Y0.1827 
G01 X0.6634 Y0.1798 
G01 X0.6625 Y0.1766 
G01 X0.6625 Y0.1704 
G01 X0.6623 Y0.1704 
G01 X0.6606 Y0.1698 
G01 X0.6594 Y0.1685 
G01 X0.6587 Y0.1668 
G01 X0.6587 Y0.0784 
G01 X0.6594 Y0.0768 
G01 X0.6606 Y0.0755 
G01 X0.6623 Y0.0748 
G01 X0.6877 Y0.0748 
G01 X0.6894 Y0.0755 
G01 X0.6906 Y0.0768 
G01 X0.6913 Y0.0784 
G01 X0.6913 Y0.1668 
G01 X0.6906 Y0.1685 
G01 X0.6894 Y0.1698 
G01 X0.6880 Y0.1703 
G01 X0.7052 Y0.1875 
G01 X0.7830 Y0.1875 
G01 X0.7830 Y0.1636 
G01 X0.7837 Y0.1620 
G01 X0.7850 Y0.1607 
G01 X0.7866 Y0.1600 
G01 X0.8065 Y0.1600 
G01 X0.8065 Y0.1400 
G01 X0.7866 Y0.1400 
G01 X0.7850 Y0.1393 
G01 X0.7837 Y0.1380 
G01 X0.7830 Y0.1364 
G00 Z0.1000 
G00 X1.4300 Y0.1555 
G01 Z0.0000 F10.00 
G01 X1.3720 Y0.1555 F20.00 
G01 X1.3661 Y0.1543 
G01 X1.3606 Y0.1520 
G01 X1.3556 Y0.1487 
G01 X1.3513 Y0.1444 
G01 X1.3480 Y0.1394 
G01 X1.3457 Y0.1339 
G01 X1.3445 Y0.1280 
G01 X1.3445 Y0.1220 
G01 X1.3457 Y0.1161 
G01 X1.3480 Y0.1106 
G01 X1.3513 Y0.1056 
G01 X1.3556 Y0.1013 
G01 X1.3606 Y0.0980 
G01 X1.3661 Y0.0957 
G01 X1.3720 Y0.0945 
G01 X1.4300 Y0.0945 
G01 X1.4359 Y0.0957 
G01 X1.4414 Y0.0980 
G01 X1.4464 Y0.1013 
G01 X1.4496 Y0.1045 
G01 X1.5317 Y0.1045 
G01 X1.5339 Y0.1012 
G01 X1.5394 Y0.0957 
G01 X1.5459 Y0.0913 
G01 X1.5532 Y0.0884 
G01 X1.5608 Y0.0868 
G01 X1.6392 Y0.0868 
G01 X1.6468 Y0.0884 
G01 X1.6541 Y0.0913 
G01 X1.6606 Y0.0957 
G01 X1.6661 Y0.1012 
G01 X1.6705 Y0.1077 
G01 X1.6735 Y0.1150 
G01 X1.6750 Y0.1227 
G01 X1.6750 Y0.1305 
G01 X1.6735 Y0.1382 
G01 X1.6705 Y0.1454 
G01 X1.6661 Y0.1519 
G01 X1.6606 Y0.1575 
G01 X1.6541 Y0.1618 
G01 X1.6468 Y0.1648 
G01 X1.6392 Y0.1663 
G01 X1.5608 Y0.1663 
G01 X1.5532 Y0.1648 
G01 X1.5459 Y0.1618 
G01 X1.5394 Y0.1575 
G01 X1.5339 Y0.1519 
G01 X1.5296 Y0.1455 
G01 X1.4496 Y0.1455 
G01 X1.4464 Y0.1487 
G01 X1.4414 Y0.1520 
G01 X1.4359 Y0.1543 
G01 X1.4300 Y0.1555 
G00 Z0.1000 
G00 X1.0200 Y0.0945 
G01 Z0.0000 F10.00 
G01 X1.0780 Y0.0945 F20.00 
G01 X1.0839 Y0.0957 
G01 X1.0894 Y0.0980 
G01 X1.0944 Y0.1013 
G01 X1.0987 Y0.1056 
G01 X1.1020 Y0.1106 
G01 X1.1043 Y0.1161 
G01 X1.1055 Y0.1220 
G01 X1.1055 Y0.1280 
G01 X1.1043 Y0.1339 
G01 X1.1020 Y0.1394 
G01 X1.0987 Y0.1444 
G01 X1.0944 Y0.1487 
G01 X1.0894 Y0.1520 
G01 X1.0839 Y0.1543 
G01 X1.0780 Y0.1555 
G01 X1.0200 Y0.1555 
G01 X1.0141 Y0.1543 
G01 X1.0086 Y0.1520 
G01 X1.0036 Y0.1487 
G01 X0.9993 Y0.1444 
G01 X0.9960 Y0.1394 
G01 X0.9937 Y0.1339 
G01 X0.9925 Y0.1280 
G01 X0.9925 Y0.1220 
G01 X0.9937 Y0.1161 
G01 X0.9960 Y0.1106 
G01 X0.9993 Y0.1056 
G01 X1.0036 Y0.1013 
G01 X1.0086 Y0.0980 
G01 X1.0141 Y0.0957 
G01 X1.0200 Y0.0945 
G00 Z0.1000 
G00 X1.4300 Y0.2555 
G01 Z0.0000 F10.00 
G01 X1.3720 Y0.2555 F20.00 
G01 X1.3661 Y0.2543 
G01 X1.3606 Y0.2520 
G01 X1.3556 Y0.2487 
G01 X1.3513 Y0.2444 
G01 X1.3480 Y0.2394 
G01 X1.3457 Y0.2339 
G01 X1.3445 Y0.2280 
G01 X1.3445 Y0.2220 
G01 X1.3457 Y0.2161 
G01 X1.3480 Y0.2106 
G01 X1.3513 Y0.2056 
G01 X1.3556 Y0.2013 
G01 X1.3606 Y0.1980 
G01 X1.3661 Y0.1957 
G01 X1.3720 Y0.1945 
G01 X1.4300 Y0.1945 
G01 X1.4359 Y0.1957 
G01 X1.4414 Y0.1980 
G01 X1.4464 Y0.2013 
G01 X1.4507 Y0.2056 
G01 X1.4540 Y0.2106 
G01 X1.4563 Y0.2161 
G01 X1.4575 Y0.2220 
G01 X1.4575 Y0.2280 
G01 X1.4563 Y0.2339 
G01 X1.4540 Y0.2394 
G01 X1.4507 Y0.2444 
G01 X1.4464 Y0.2487 
G01 X1.4414 Y0.2520 
G01 X1.4359 Y0.2543 
G01 X1.4300 Y0.2555 
G00 Z0.1000 
G00 X1.0200 Y0.1945 
G01 Z0.0000 F10.00 
G01 X1.0780 Y0.1945 F20.00 
G01 X1.0839 Y0.1957 
G01 X1.0894 Y0.1980 
G01 X1.0944 Y0.2013 
G01 X1.0987 Y0.2056 
G01 X1.1020 Y0.2106 
G01 X1.1043 Y0.2161 
G01 X1.1055 Y0.2220 
G01 X1.1055 Y0.2280 
G01 X1.1043 Y0.2339 
G01 X1.1020 Y0.2394 
G01 X1.0987 Y0.2444 
G01 X1.0944 Y0.2487 
G01 X1.0894 Y0.2520 
G01 X1.0839 Y0.2543 
G01 X1.0780 Y0.2555 
G01 X1.0200 Y0.2555 
G01 X1.0141 Y0.2543 
G01 X1.0086 Y0.2520 
G01 X1.0036 Y0.2487 
G01 X0.9993 Y0.2444 
G01 X0.9960 Y0.2394 
G01 X0.9947 Y0.2364 
G01 X0.9923 Y0.2350 
G01 X0.9900 Y0.2327 
G01 X0.9698 Y0.2125 
G01 X0.9670 Y0.2125 
G01 X0.9670 Y0.2364 
G01 X0.9663 Y0.2380 
G01 X0.9650 Y0.2393 
G01 X0.9634 Y0.2400 
G01 X0.8986 Y0.2400 
G01 X0.8969 Y0.2393 
G01 X0.8957 Y0.2380 
G01 X0.8950 Y0.2364 
G01 X0.8950 Y0.1636 
G01 X0.8957 Y0.1620 
G01 X0.8969 Y0.1607 
G01 X0.8986 Y0.1600 
G01 X0.9634 Y0.1600 
G01 X0.9650 Y0.1607 
G01 X0.9663 Y0.1620 
G01 X0.9670 Y0.1636 
G01 X0.9670 Y0.1875 
G01 X0.9766 Y0.1875 
G01 X0.9798 Y0.1884 
G01 X0.9827 Y0.1900 
G01 X0.9989 Y0.2062 
G01 X0.9993 Y0.2056 
G01 X1.0036 Y0.2013 
G01 X1.0086 Y0.1980 
G01 X1.0141 Y0.1957 
G01 X1.0200 Y0.1945 
G00 Z0.1000 
G00 X1.0200 Y0.2945 
G01 Z0.0000 F10.00 
G01 X1.0780 Y0.2945 F20.00 
G01 X1.0839 Y0.2957 
G01 X1.0894 Y0.2980 
G01 X1.0944 Y0.3013 
G01 X1.0987 Y0.3056 
G01 X1.1020 Y0.3106 
G01 X1.1043 Y0.3161 
G01 X1.1055 Y0.3220 
G01 X1.1055 Y0.3280 
G01 X1.1043 Y0.3339 
G01 X1.1020 Y0.3394 
G01 X1.0987 Y0.3444 
G01 X1.0944 Y0.3487 
G01 X1.0894 Y0.3520 
G01 X1.0839 Y0.3543 
G01 X1.0780 Y0.3555 
G01 X1.0200 Y0.3555 
G01 X1.0141 Y0.3543 
G01 X1.0136 Y0.3541 
G01 X0.9850 Y0.3827 
G01 X0.9827 Y0.3850 
G01 X0.9798 Y0.3866 
G01 X0.9766 Y0.3875 
G01 X0.8924 Y0.3875 
G01 X0.8892 Y0.3866 
G01 X0.8863 Y0.3850 
G01 X0.8840 Y0.3827 
G01 X0.8413 Y0.3400 
G01 X0.7866 Y0.3400 
G01 X0.7850 Y0.3393 
G01 X0.7837 Y0.3380 
G01 X0.7830 Y0.3364 
G01 X0.7830 Y0.3007 
G01 X0.7198 Y0.2375 
G01 X0.6734 Y0.2375 
G01 X0.6702 Y0.2366 
G01 X0.6673 Y0.2350 
G01 X0.6173 Y0.1850 
G01 X0.6150 Y0.1827 
G01 X0.6134 Y0.1798 
G01 X0.6125 Y0.1766 
G01 X0.6125 Y0.1704 
G01 X0.6123 Y0.1704 
G01 X0.6106 Y0.1698 
G01 X0.6094 Y0.1685 
G01 X0.6087 Y0.1668 
G01 X0.6087 Y0.0784 
G01 X0.6094 Y0.0768 
G01 X0.6106 Y0.0755 
G01 X0.6123 Y0.0748 
G01 X0.6377 Y0.0748 
G01 X0.6394 Y0.0755 
G01 X0.6406 Y0.0768 
G01 X0.6413 Y0.0784 
G01 X0.6413 Y0.1668 
G01 X0.6406 Y0.1685 
G01 X0.6394 Y0.1698 
G01 X0.6380 Y0.1703 
G01 X0.6802 Y0.2125 
G01 X0.7266 Y0.2125 
G01 X0.7298 Y0.2134 
G01 X0.7327 Y0.2150 
G01 X0.7350 Y0.2173 
G01 X0.7830 Y0.2653 
G01 X0.7830 Y0.2636 
G01 X0.7837 Y0.2620 
G01 X0.7850 Y0.2607 
G01 X0.7866 Y0.2600 
G01 X0.8514 Y0.2600 
G01 X0.8531 Y0.2607 
G01 X0.8543 Y0.2620 
G01 X0.8550 Y0.2636 
G01 X0.8550 Y0.3183 
G01 X0.8992 Y0.3625 
G01 X0.9698 Y0.3625 
G01 X0.9951 Y0.3373 
G01 X0.9937 Y0.3339 
G01 X0.9925 Y0.3280 
G01 X0.9925 Y0.3220 
G01 X0.9937 Y0.3161 
G01 X0.9960 Y0.3106 
G01 X0.9993 Y0.3056 
G01 X1.0036 Y0.3013 
G01 X1.0086 Y0.2980 
G01 X1.0141 Y0.2957 
G01 X1.0200 Y0.2945 
G00 Z0.1000 
G00 X0.3070 Y0.1468 
G01 Z0.0000 F10.00 
G01 X0.3070 Y0.1532 F20.00 
G01 X0.3058 Y0.1593 
G01 X0.3034 Y0.1652 
G01 X0.2999 Y0.1704 
G01 X0.2954 Y0.1749 
G01 X0.2902 Y0.1784 
G01 X0.2843 Y0.1808 
G01 X0.2782 Y0.1820 
G01 X0.2718 Y0.1820 
G01 X0.2657 Y0.1808 
G01 X0.2598 Y0.1784 
G01 X0.2546 Y0.1749 
G01 X0.2501 Y0.1704 
G01 X0.2466 Y0.1652 
G01 X0.2442 Y0.1593 
G01 X0.2430 Y0.1532 
G01 X0.2430 Y0.1468 
G01 X0.2442 Y0.1407 
G01 X0.2466 Y0.1348 
G01 X0.2501 Y0.1296 
G01 X0.2546 Y0.1251 
G01 X0.2598 Y0.1216 
G01 X0.2657 Y0.1192 
G01 X0.2718 Y0.1180 
G01 X0.2782 Y0.1180 
G01 X0.2843 Y0.1192 
G01 X0.2902 Y0.1216 
G01 X0.2954 Y0.1251 
G01 X0.2999 Y0.1296 
G01 X0.3034 Y0.1348 
G01 X0.3058 Y0.1407 
G01 X0.3070 Y0.1468 
G00 Z0.1000 
G00 X0.3070 Y0.2468 
G01 Z0.0000 F10.00 
G01 X0.3070 Y0.2532 F20.00 
G01 X0.3058 Y0.2593 
G01 X0.3034 Y0.2652 
G01 X0.2999 Y0.2704 
G01 X0.2954 Y0.2749 
G01 X0.2902 Y0.2784 
G01 X0.2843 Y0.2808 
G01 X0.2782 Y0.2820 
G01 X0.2718 Y0.2820 
G01 X0.2657 Y0.2808 
G01 X0.2598 Y0.2784 
G01 X0.2546 Y0.2749 
G01 X0.2501 Y0.2704 
G01 X0.2466 Y0.2652 
G01 X0.2442 Y0.2593 
G01 X0.2430 Y0.2532 
G01 X0.2430 Y0.2468 
G01 X0.2442 Y0.2407 
G01 X0.2466 Y0.2348 
G01 X0.2501 Y0.2296 
G01 X0.2546 Y0.2251 
G01 X0.2598 Y0.2216 
G01 X0.2657 Y0.2192 
G01 X0.2718 Y0.2180 
G01 X0.2782 Y0.2180 
G01 X0.2843 Y0.2192 
G01 X0.2870 Y0.2203 
G01 X0.2923 Y0.2150 
G01 X0.2952 Y0.2134 
G01 X0.2984 Y0.2125 
G01 X0.3625 Y0.2125 
G01 X0.3625 Y0.2059 
G01 X0.3387 Y0.2059 
G01 X0.3370 Y0.2052 
G01 X0.3358 Y0.2039 
G01 X0.3351 Y0.2023 
G01 X0.3351 Y0.1375 
G01 X0.3358 Y0.1358 
G01 X0.3370 Y0.1346 
G01 X0.3387 Y0.1339 
G01 X0.4113 Y0.1339 
G01 X0.4130 Y0.1346 
G01 X0.4142 Y0.1358 
G01 X0.4149 Y0.1375 
G01 X0.4149 Y0.2023 
G01 X0.4142 Y0.2039 
G01 X0.4130 Y0.2052 
G01 X0.4113 Y0.2059 
G01 X0.3875 Y0.2059 
G01 X0.3875 Y0.2125 
G01 X0.5198 Y0.2125 
G01 X0.5620 Y0.1703 
G01 X0.5606 Y0.1698 
G01 X0.5594 Y0.1685 
G01 X0.5587 Y0.1668 
G01 X0.5587 Y0.0784 
G01 X0.5594 Y0.0768 
G01 X0.5606 Y0.0755 
G01 X0.5623 Y0.0748 
G01 X0.5877 Y0.0748 
G01 X0.5894 Y0.0755 
G01 X0.5906 Y0.0768 
G01 X0.5913 Y0.0784 
G01 X0.5913 Y0.1668 
G01 X0.5906 Y0.1685 
G01 X0.5894 Y0.1698 
G01 X0.5877 Y0.1704 
G01 X0.5875 Y0.1704 
G01 X0.5875 Y0.1766 
G01 X0.5866 Y0.1798 
G01 X0.5850 Y0.1827 
G01 X0.5827 Y0.1850 
G01 X0.5350 Y0.2327 
G01 X0.5327 Y0.2350 
G01 X0.5298 Y0.2366 
G01 X0.5266 Y0.2375 
G01 X0.3052 Y0.2375 
G01 X0.3047 Y0.2380 
G01 X0.3058 Y0.2407 
G01 X0.3070 Y0.2468 
G00 Z0.1000 
G00 X0.4386 Y0.1330 
G01 Z0.0000 F10.00 
G01 X0.4625 Y0.1330 F20.00 
G01 X0.4625 Y0.1302 
G01 X0.4448 Y0.1125 
G01 X0.2052 Y0.1125 
G01 X0.1875 Y0.1302 
G01 X0.1875 Y0.1705 
G01 X0.1902 Y0.1716 
G01 X0.1954 Y0.1751 
G01 X0.1999 Y0.1796 
G01 X0.2034 Y0.1848 
G01 X0.2058 Y0.1907 
G01 X0.2070 Y0.1968 
G01 X0.2070 Y0.2032 
G01 X0.2058 Y0.2093 
G01 X0.2034 Y0.2152 
G01 X0.1999 Y0.2204 
G01 X0.1954 Y0.2249 
G01 X0.1902 Y0.2284 
G01 X0.1843 Y0.2308 
G01 X0.1782 Y0.2320 
G01 X0.1718 Y0.2320 
G01 X0.1657 Y0.2308 
G01 X0.1598 Y0.2284 
G01 X0.1546 Y0.2249 
G01 X0.1501 Y0.2204 
G01 X0.1466 Y0.2152 
G01 X0.1442 Y0.2093 
G01 X0.1430 Y0.2032 
G01 X0.1430 Y0.1968 
G01 X0.1442 Y0.1907 
G01 X0.1466 Y0.1848 
G01 X0.1501 Y0.1796 
G01 X0.1546 Y0.1751 
G01 X0.1598 Y0.1716 
G01 X0.1625 Y0.1705 
G01 X0.1625 Y0.1234 
G01 X0.1634 Y0.1202 
G01 X0.1650 Y0.1173 
G01 X0.1673 Y0.1150 
G01 X0.1923 Y0.0900 
G01 X0.1952 Y0.0884 
G01 X0.1984 Y0.0875 
G01 X0.4516 Y0.0875 
G01 X0.4548 Y0.0884 
G01 X0.4577 Y0.0900 
G01 X0.4600 Y0.0923 
G01 X0.4827 Y0.1150 
G01 X0.4850 Y0.1173 
G01 X0.4866 Y0.1202 
G01 X0.4875 Y0.1234 
G01 X0.4875 Y0.1330 
G01 X0.5114 Y0.1330 
G01 X0.5130 Y0.1337 
G01 X0.5143 Y0.1350 
G01 X0.5150 Y0.1366 
G01 X0.5150 Y0.2014 
G01 X0.5143 Y0.2031 
G01 X0.5130 Y0.2043 
G01 X0.5114 Y0.2050 
G01 X0.4386 Y0.2050 
G01 X0.4370 Y0.2043 
G01 X0.4357 Y0.2031 
G01 X0.4350 Y0.2014 
G01 X0.4350 Y0.1366 
G01 X0.4357 Y0.1350 
G01 X0.4370 Y0.1337 
G01 X0.4386 Y0.1330 
G00 Z0.1000 
G00 X0.4113 Y0.3161 
G01 Z0.0000 F10.00 
G01 X0.3875 Y0.3161 F20.00 
G01 X0.3875 Y0.3375 
G01 X0.5587 Y0.3375 
G01 X0.5587 Y0.2832 
G01 X0.5594 Y0.2815 
G01 X0.5606 Y0.2802 
G01 X0.5623 Y0.2796 
G01 X0.5877 Y0.2796 
G01 X0.5894 Y0.2802 
G01 X0.5906 Y0.2815 
G01 X0.5913 Y0.2832 
G01 X0.5913 Y0.3716 
G01 X0.5906 Y0.3732 
G01 X0.5894 Y0.3745 
G01 X0.5877 Y0.3752 
G01 X0.5623 Y0.3752 
G01 X0.5606 Y0.3745 
G01 X0.5594 Y0.3732 
G01 X0.5587 Y0.3716 
G01 X0.5587 Y0.3625 
G01 X0.1984 Y0.3625 
G01 X0.1952 Y0.3616 
G01 X0.1923 Y0.3600 
G01 X0.1900 Y0.3577 
G01 X0.1650 Y0.3327 
G01 X0.1634 Y0.3298 
G01 X0.1598 Y0.3284 
G01 X0.1546 Y0.3249 
G01 X0.1501 Y0.3204 
G01 X0.1466 Y0.3152 
G01 X0.1442 Y0.3093 
G01 X0.1430 Y0.3032 
G01 X0.1430 Y0.2968 
G01 X0.1442 Y0.2907 
G01 X0.1466 Y0.2848 
G01 X0.1501 Y0.2796 
G01 X0.1546 Y0.2751 
G01 X0.1598 Y0.2716 
G01 X0.1657 Y0.2692 
G01 X0.1718 Y0.2680 
G01 X0.1782 Y0.2680 
G01 X0.1843 Y0.2692 
G01 X0.1902 Y0.2716 
G01 X0.1954 Y0.2751 
G01 X0.1999 Y0.2796 
G01 X0.2034 Y0.2848 
G01 X0.2058 Y0.2907 
G01 X0.2070 Y0.2968 
G01 X0.2070 Y0.3032 
G01 X0.2058 Y0.3093 
G01 X0.2034 Y0.3152 
G01 X0.1999 Y0.3204 
G01 X0.1954 Y0.3249 
G01 X0.1937 Y0.3260 
G01 X0.2052 Y0.3375 
G01 X0.3625 Y0.3375 
G01 X0.3625 Y0.3161 
G01 X0.3387 Y0.3161 
G01 X0.3370 Y0.3154 
G01 X0.3358 Y0.3142 
G01 X0.3351 Y0.3125 
G01 X0.3351 Y0.2477 
G01 X0.3358 Y0.2461 
G01 X0.3370 Y0.2448 
G01 X0.3387 Y0.2441 
G01 X0.4113 Y0.2441 
G01 X0.4130 Y0.2448 
G01 X0.4142 Y0.2461 
G01 X0.4149 Y0.2477 
G01 X0.4149 Y0.3125 
G01 X0.4142 Y0.3142 
G01 X0.4130 Y0.3154 
G01 X0.4113 Y0.3161 
G00 Z0.1000 
G00 X0.7413 Y0.2832 
G01 Z0.0000 F10.00 
G01 X0.7413 Y0.3716 F20.00 
G01 X0.7406 Y0.3732 
G01 X0.7394 Y0.3745 
G01 X0.7377 Y0.3752 
G01 X0.7123 Y0.3752 
G01 X0.7106 Y0.3745 
G01 X0.7094 Y0.3732 
G01 X0.7087 Y0.3716 
G01 X0.7087 Y0.2832 
G01 X0.7094 Y0.2815 
G01 X0.7106 Y0.2802 
G01 X0.7120 Y0.2797 
G01 X0.6948 Y0.2625 
G01 X0.5552 Y0.2625 
G01 X0.5267 Y0.2910 
G01 X0.5238 Y0.2926 
G01 X0.5207 Y0.2935 
G01 X0.5150 Y0.2935 
G01 X0.5150 Y0.3134 
G01 X0.5143 Y0.3150 
G01 X0.5130 Y0.3163 
G01 X0.5114 Y0.3170 
G01 X0.4386 Y0.3170 
G01 X0.4370 Y0.3163 
G01 X0.4357 Y0.3150 
G01 X0.4350 Y0.3134 
G01 X0.4350 Y0.2486 
G01 X0.4357 Y0.2469 
G01 X0.4370 Y0.2457 
G01 X0.4386 Y0.2450 
G01 X0.5114 Y0.2450 
G01 X0.5130 Y0.2457 
G01 X0.5143 Y0.2469 
G01 X0.5150 Y0.2486 
G01 X0.5150 Y0.2673 
G01 X0.5400 Y0.2423 
G01 X0.5423 Y0.2400 
G01 X0.5452 Y0.2384 
G01 X0.5484 Y0.2375 
G01 X0.7016 Y0.2375 
G01 X0.7048 Y0.2384 
G01 X0.7077 Y0.2400 
G01 X0.7350 Y0.2673 
G01 X0.7366 Y0.2702 
G01 X0.7375 Y0.2734 
G01 X0.7375 Y0.2796 
G01 X0.7377 Y0.2796 
G01 X0.7394 Y0.2802 
G01 X0.7406 Y0.2815 
G01 X0.7413 Y0.2832 
G00 Z0.1000 
G00 X0.6913 Y0.2832 
G01 Z0.0000 F10.00 
G01 X0.6913 Y0.3716 F20.00 
G01 X0.6906 Y0.3732 
G01 X0.6894 Y0.3745 
G01 X0.6877 Y0.3752 
G01 X0.6623 Y0.3752 
G01 X0.6606 Y0.3745 
G01 X0.6594 Y0.3732 
G01 X0.6587 Y0.3716 
G01 X0.6587 Y0.2832 
G01 X0.6594 Y0.2815 
G01 X0.6606 Y0.2802 
G01 X0.6623 Y0.2796 
G01 X0.6877 Y0.2796 
G01 X0.6894 Y0.2802 
G01 X0.6906 Y0.2815 
G01 X0.6913 Y0.2832 
G00 Z0.1000 
G00 X0.7413 Y0.0784 
G01 Z0.0000 F10.00 
G01 X0.7413 Y0.1668 F20.00 
G01 X0.7406 Y0.1685 
G01 X0.7394 Y0.1698 
G01 X0.7377 Y0.1704 
G01 X0.7123 Y0.1704 
G01 X0.7106 Y0.1698 
G01 X0.7094 Y0.1685 
G01 X0.7087 Y0.1668 
G01 X0.7087 Y0.0784 
G01 X0.7094 Y0.0768 
G01 X0.7106 Y0.0755 
G01 X0.7123 Y0.0748 
G01 X0.7377 Y0.0748 
G01 X0.7394 Y0.0755 
G01 X0.7406 Y0.0768 
G01 X0.7413 Y0.0784 
G00 Z0.1000 
G00 X0.6413 Y0.2832 
G01 Z0.0000 F10.00 
G01 X0.6413 Y0.3716 F20.00 
G01 X0.6406 Y0.3732 
G01 X0.6394 Y0.3745 
G01 X0.6377 Y0.3752 
G01 X0.6123 Y0.3752 
G01 X0.6106 Y0.3745 
G01 X0.6094 Y0.3732 
G01 X0.6087 Y0.3716 
G01 X0.6087 Y0.2832 
G01 X0.6094 Y0.2815 
G01 X0.6106 Y0.2802 
G01 X0.6123 Y0.2796 
G01 X0.6377 Y0.2796 
G01 X0.6394 Y0.2802 
G01 X0.6406 Y0.2815 
G01 X0.6413 Y0.2832 
G00 Z0.1000 
G00 X0.1087 Y0.4044 
G01 Z0.0000 F10.00 
G01 X0.1050 Y0.3993 F20.00 
G01 X0.1007 Y0.3950 
G01 X0.0956 Y0.3913 
G01 X0.0901 Y0.3885 
G01 X0.0842 Y0.3866 
G01 X0.0781 Y0.3856 
G01 X0.0719 Y0.3856 
G01 X0.0658 Y0.3866 
G01 X0.0599 Y0.3885 
G01 X0.0544 Y0.3913 
G01 X0.0493 Y0.3950 
G01 X0.0450 Y0.3993 
G01 X0.0413 Y0.4044 
G01 X0.0385 Y0.4099 
G01 X0.0367 Y0.4155 
G01 X0.0524 Y0.4155 
G01 X0.0533 Y0.4134 
G01 X0.0560 Y0.4094 
G01 X0.0594 Y0.4060 
G01 X0.0634 Y0.4033 
G01 X0.0679 Y0.4014 
G01 X0.0726 Y0.4005 
G01 X0.0774 Y0.4005 
G01 X0.0821 Y0.4014 
G01 X0.0866 Y0.4033 
G01 X0.0906 Y0.4060 
G01 X0.0940 Y0.4094 
G01 X0.0967 Y0.4134 
G01 X0.0976 Y0.4155 
G01 X0.1133 Y0.4155 
G01 X0.1115 Y0.4099 
G01 X0.1087 Y0.4044 
G00 Z0.1000 
G00 X0.0367 Y0.0345 
G01 Z0.0000 F10.00 
G01 X0.0385 Y0.0401 F20.00 
G01 X0.0413 Y0.0456 
G01 X0.0450 Y0.0507 
G01 X0.0493 Y0.0550 
G01 X0.0544 Y0.0587 
G01 X0.0599 Y0.0615 
G01 X0.0658 Y0.0634 
G01 X0.0719 Y0.0644 
G01 X0.0781 Y0.0644 
G01 X0.0842 Y0.0634 
G01 X0.0901 Y0.0615 
G01 X0.0956 Y0.0587 
G01 X0.1007 Y0.0550 
G01 X0.1050 Y0.0507 
G01 X0.1087 Y0.0456 
G01 X0.1115 Y0.0401 
G01 X0.1133 Y0.0345 
G01 X0.0976 Y0.0345 
G01 X0.0967 Y0.0366 
G01 X0.0940 Y0.0406 
G01 X0.0906 Y0.0440 
G01 X0.0866 Y0.0467 
G01 X0.0821 Y0.0486 
G01 X0.0774 Y0.0495 
G01 X0.0726 Y0.0495 
G01 X0.0679 Y0.0486 
G01 X0.0634 Y0.0467 
G01 X0.0594 Y0.0440 
G01 X0.0560 Y0.0406 
G01 X0.0533 Y0.0366 
G01 X0.0524 Y0.0345 
G01 X0.0367 Y0.0345 
G00 Z0.1000 
G00 X0.0438 Y0.0395 
G01 Z0.0000 F10.00 
G01 X0.0451 Y0.0423 F20.00 
G01 X0.0480 Y0.0465 
G01 X0.0515 Y0.0503 
G01 X0.0556 Y0.0535 
G01 X0.0600 Y0.0561 
G01 X0.0648 Y0.0580 
G01 X0.0699 Y0.0591 
G01 X0.0750 Y0.0595 
G01 X0.0801 Y0.0591 
G01 X0.0852 Y0.0580 
G01 X0.0900 Y0.0561 
G01 X0.0944 Y0.0535 
G01 X0.0985 Y0.0503 
G01 X0.1020 Y0.0465 
G01 X0.1049 Y0.0422 
G01 X0.1062 Y0.0395 
G01 X0.1008 Y0.0395 
G01 X0.0979 Y0.0438 
G01 X0.0938 Y0.0479 
G01 X0.0890 Y0.0511 
G01 X0.0836 Y0.0534 
G01 X0.0779 Y0.0545 
G01 X0.0721 Y0.0545 
G01 X0.0664 Y0.0534 
G01 X0.0610 Y0.0511 
G01 X0.0562 Y0.0479 
G01 X0.0521 Y0.0438 
G01 X0.0492 Y0.0395 
G01 X0.0438 Y0.0395 
G00 Z0.1000 
G00 X0.8524 Y0.1550 
G01 Z0.0000 F10.00 
G01 X0.8559 Y0.1565 F20.00 
G01 X0.8575 Y0.1581 
G01 X0.8575 Y0.1419 
G01 X0.8559 Y0.1435 
G01 X0.8524 Y0.1450 
G01 X0.8365 Y0.1450 
G01 X0.8365 Y0.1550 
G01 X0.8524 Y0.1550 
G00 Z0.1000 
G00 X0.7821 Y0.2565 
G01 Z0.0000 F10.00 
G01 X0.7856 Y0.2550 F20.00 
G01 X0.8524 Y0.2550 
G01 X0.8559 Y0.2565 
G01 X0.8575 Y0.2581 
G01 X0.8575 Y0.2419 
G01 X0.8559 Y0.2435 
G01 X0.8524 Y0.2450 
G01 X0.7856 Y0.2450 
G01 X0.7821 Y0.2435 
G01 X0.7795 Y0.2409 
G01 X0.7780 Y0.2374 
G01 X0.7780 Y0.2175 
G01 X0.7422 Y0.2175 
G01 X0.7817 Y0.2569 
G01 X0.7821 Y0.2565 
G00 Z0.1000 
G00 X1.7855 Y0.4105 
G01 Z0.0000 F10.00 
G01 X1.7855 Y0.0395 F20.00 
G01 X0.1391 Y0.0395 
G01 X0.1390 Y0.0396 
G01 X0.1361 Y0.0490 
G01 X0.1319 Y0.0578 
G01 X0.1264 Y0.0660 
G01 X0.1197 Y0.0731 
G01 X0.1120 Y0.0793 
G01 X0.1035 Y0.0842 
G01 X0.0944 Y0.0878 
G01 X0.0848 Y0.0899 
G01 X0.0750 Y0.0907 
G01 X0.0652 Y0.0899 
G01 X0.0556 Y0.0878 
G01 X0.0465 Y0.0842 
G01 X0.0380 Y0.0793 
G01 X0.0303 Y0.0731 
G01 X0.0236 Y0.0660 
G01 X0.0181 Y0.0578 
G01 X0.0145 Y0.0503 
G01 X0.0145 Y0.3997 
G01 X0.0181 Y0.3922 
G01 X0.0236 Y0.3840 
G01 X0.0303 Y0.3769 
G01 X0.0380 Y0.3707 
G01 X0.0465 Y0.3658 
G01 X0.0556 Y0.3622 
G01 X0.0652 Y0.3600 
G01 X0.0750 Y0.3593 
G01 X0.0848 Y0.3600 
G01 X0.0944 Y0.3622 
G01 X0.1035 Y0.3658 
G01 X0.1120 Y0.3707 
G01 X0.1197 Y0.3769 
G01 X0.1264 Y0.3840 
G01 X0.1319 Y0.3922 
G01 X0.1361 Y0.4010 
G01 X0.1390 Y0.4104 
G01 X0.1391 Y0.4105 
G01 X1.7855 Y0.4105 
G00 Z0.1000 
G00 X1.6388 Y0.3682 
G01 Z0.0000 F10.00 
G01 X1.5612 Y0.3682 F20.00 
G01 X1.5543 Y0.3671 
G01 X1.5476 Y0.3649 
G01 X1.5413 Y0.3617 
G01 X1.5356 Y0.3576 
G01 X1.5306 Y0.3526 
G01 X1.5291 Y0.3505 
G01 X1.4517 Y0.3505 
G01 X1.4496 Y0.3526 
G01 X1.4438 Y0.3565 
G01 X1.4374 Y0.3591 
G01 X1.4305 Y0.3605 
G01 X1.3715 Y0.3605 
G01 X1.3646 Y0.3591 
G01 X1.3582 Y0.3565 
G01 X1.3524 Y0.3526 
G01 X1.3474 Y0.3476 
G01 X1.3435 Y0.3418 
G01 X1.3409 Y0.3354 
G01 X1.3395 Y0.3285 
G01 X1.3395 Y0.3215 
G01 X1.3409 Y0.3146 
G01 X1.3435 Y0.3082 
G01 X1.3474 Y0.3024 
G01 X1.3524 Y0.2974 
G01 X1.3582 Y0.2935 
G01 X1.3646 Y0.2909 
G01 X1.3715 Y0.2895 
G01 X1.4305 Y0.2895 
G01 X1.4374 Y0.2909 
G01 X1.4438 Y0.2935 
G01 X1.4496 Y0.2974 
G01 X1.4517 Y0.2995 
G01 X1.5268 Y0.2995 
G01 X1.5306 Y0.2943 
G01 X1.5356 Y0.2893 
G01 X1.5413 Y0.2852 
G01 X1.5476 Y0.2820 
G01 X1.5543 Y0.2798 
G01 X1.5612 Y0.2787 
G01 X1.6388 Y0.2787 
G01 X1.6457 Y0.2798 
G01 X1.6524 Y0.2820 
G01 X1.6587 Y0.2852 
G01 X1.6644 Y0.2893 
G01 X1.6694 Y0.2943 
G01 X1.6735 Y0.3000 
G01 X1.6767 Y0.3062 
G01 X1.6789 Y0.3129 
G01 X1.6800 Y0.3199 
G01 X1.6800 Y0.3269 
G01 X1.6789 Y0.3339 
G01 X1.6767 Y0.3406 
G01 X1.6735 Y0.3469 
G01 X1.6694 Y0.3526 
G01 X1.6644 Y0.3576 
G01 X1.6587 Y0.3617 
G01 X1.6524 Y0.3649 
G01 X1.6457 Y0.3671 
G01 X1.6388 Y0.3682 
G00 Z0.1000 
G00 X1.4305 Y0.1605 
G01 Z0.0000 F10.00 
G01 X1.3715 Y0.1605 F20.00 
G01 X1.3646 Y0.1591 
G01 X1.3582 Y0.1565 
G01 X1.3524 Y0.1526 
G01 X1.3474 Y0.1476 
G01 X1.3435 Y0.1418 
G01 X1.3409 Y0.1354 
G01 X1.3395 Y0.1285 
G01 X1.3395 Y0.1215 
G01 X1.3409 Y0.1146 
G01 X1.3435 Y0.1082 
G01 X1.3474 Y0.1024 
G01 X1.3524 Y0.0974 
G01 X1.3582 Y0.0935 
G01 X1.3646 Y0.0909 
G01 X1.3715 Y0.0895 
G01 X1.4305 Y0.0895 
G01 X1.4374 Y0.0909 
G01 X1.4438 Y0.0935 
G01 X1.4496 Y0.0974 
G01 X1.4517 Y0.0995 
G01 X1.5291 Y0.0995 
G01 X1.5306 Y0.0974 
G01 X1.5356 Y0.0924 
G01 X1.5413 Y0.0883 
G01 X1.5476 Y0.0851 
G01 X1.5543 Y0.0829 
G01 X1.5612 Y0.0818 
G01 X1.6388 Y0.0818 
G01 X1.6457 Y0.0829 
G01 X1.6524 Y0.0851 
G01 X1.6587 Y0.0883 
G01 X1.6644 Y0.0924 
G01 X1.6694 Y0.0974 
G01 X1.6735 Y0.1031 
G01 X1.6767 Y0.1094 
G01 X1.6789 Y0.1161 
G01 X1.6800 Y0.1231 
G01 X1.6800 Y0.1301 
G01 X1.6789 Y0.1371 
G01 X1.6767 Y0.1438 
G01 X1.6735 Y0.1500 
G01 X1.6694 Y0.1557 
G01 X1.6644 Y0.1607 
G01 X1.6587 Y0.1648 
G01 X1.6524 Y0.1680 
G01 X1.6457 Y0.1702 
G01 X1.6388 Y0.1713 
G01 X1.5612 Y0.1713 
G01 X1.5543 Y0.1702 
G01 X1.5476 Y0.1680 
G01 X1.5413 Y0.1648 
G01 X1.5356 Y0.1607 
G01 X1.5306 Y0.1557 
G01 X1.5268 Y0.1505 
G01 X1.4517 Y0.1505 
G01 X1.4496 Y0.1526 
G01 X1.4438 Y0.1565 
G01 X1.4374 Y0.1591 
G01 X1.4305 Y0.1605 
G00 Z0.1000 
G00 X1.0195 Y0.0895 
G01 Z0.0000 F10.00 
G01 X1.0785 Y0.0895 F20.00 
G01 X1.0854 Y0.0909 
G01 X1.0918 Y0.0935 
G01 X1.0976 Y0.0974 
G01 X1.1026 Y0.1024 
G01 X1.1065 Y0.1082 
G01 X1.1091 Y0.1146 
G01 X1.1105 Y0.1215 
G01 X1.1105 Y0.1285 
G01 X1.1091 Y0.1354 
G01 X1.1065 Y0.1418 
G01 X1.1026 Y0.1476 
G01 X1.0976 Y0.1526 
G01 X1.0918 Y0.1565 
G01 X1.0854 Y0.1591 
G01 X1.0785 Y0.1605 
G01 X1.0195 Y0.1605 
G01 X1.0126 Y0.1591 
G01 X1.0062 Y0.1565 
G01 X1.0004 Y0.1526 
G01 X0.9954 Y0.1476 
G01 X0.9915 Y0.1418 
G01 X0.9889 Y0.1354 
G01 X0.9875 Y0.1285 
G01 X0.9875 Y0.1215 
G01 X0.9889 Y0.1146 
G01 X0.9915 Y0.1082 
G01 X0.9954 Y0.1024 
G01 X1.0004 Y0.0974 
G01 X1.0062 Y0.0935 
G01 X1.0126 Y0.0909 
G01 X1.0195 Y0.0895 
G00 Z0.1000 
G00 X1.4305 Y0.2605 
G01 Z0.0000 F10.00 
G01 X1.3715 Y0.2605 F20.00 
G01 X1.3646 Y0.2591 
G01 X1.3582 Y0.2565 
G01 X1.3524 Y0.2526 
G01 X1.3474 Y0.2476 
G01 X1.3435 Y0.2418 
G01 X1.3409 Y0.2354 
G01 X1.3395 Y0.2285 
G01 X1.3395 Y0.2215 
G01 X1.3409 Y0.2146 
G01 X1.3435 Y0.2082 
G01 X1.3474 Y0.2024 
G01 X1.3524 Y0.1974 
G01 X1.3582 Y0.1935 
G01 X1.3646 Y0.1909 
G01 X1.3715 Y0.1895 
G01 X1.4305 Y0.1895 
G01 X1.4374 Y0.1909 
G01 X1.4438 Y0.1935 
G01 X1.4496 Y0.1974 
G01 X1.4546 Y0.2024 
G01 X1.4585 Y0.2082 
G01 X1.4611 Y0.2146 
G01 X1.4625 Y0.2215 
G01 X1.4625 Y0.2285 
G01 X1.4611 Y0.2354 
G01 X1.4585 Y0.2418 
G01 X1.4546 Y0.2476 
G01 X1.4496 Y0.2526 
G01 X1.4438 Y0.2565 
G01 X1.4374 Y0.2591 
G01 X1.4305 Y0.2605 
G00 Z0.1000 
G00 X1.0195 Y0.2895 
G01 Z0.0000 F10.00 
G01 X1.0785 Y0.2895 F20.00 
G01 X1.0854 Y0.2909 
G01 X1.0918 Y0.2935 
G01 X1.0976 Y0.2974 
G01 X1.1026 Y0.3024 
G01 X1.1065 Y0.3082 
G01 X1.1091 Y0.3146 
G01 X1.1105 Y0.3215 
G01 X1.1105 Y0.3285 
G01 X1.1091 Y0.3354 
G01 X1.1065 Y0.3418 
G01 X1.1026 Y0.3476 
G01 X1.0976 Y0.3526 
G01 X1.0918 Y0.3565 
G01 X1.0854 Y0.3591 
G01 X1.0785 Y0.3605 
G01 X1.0195 Y0.3605 
G01 X1.0151 Y0.3596 
G01 X0.9890 Y0.3857 
G01 X0.9857 Y0.3890 
G01 X0.9818 Y0.3913 
G01 X0.9773 Y0.3925 
G01 X0.8917 Y0.3925 
G01 X0.8873 Y0.3913 
G01 X0.8833 Y0.3890 
G01 X0.8800 Y0.3857 
G01 X0.8393 Y0.3450 
G01 X0.7856 Y0.3450 
G01 X0.7821 Y0.3435 
G01 X0.7795 Y0.3409 
G01 X0.7780 Y0.3374 
G01 X0.7780 Y0.3028 
G01 X0.7178 Y0.2425 
G01 X0.7172 Y0.2425 
G01 X0.7390 Y0.2643 
G01 X0.7413 Y0.2682 
G01 X0.7425 Y0.2727 
G01 X0.7425 Y0.2763 
G01 X0.7449 Y0.2787 
G01 X0.7463 Y0.2822 
G01 X0.7463 Y0.3726 
G01 X0.7449 Y0.3761 
G01 X0.7422 Y0.3787 
G01 X0.7387 Y0.3802 
G01 X0.7113 Y0.3802 
G01 X0.7078 Y0.3787 
G01 X0.7051 Y0.3761 
G01 X0.7037 Y0.3726 
G01 X0.7037 Y0.2822 
G01 X0.7048 Y0.2795 
G01 X0.6928 Y0.2675 
G01 X0.5572 Y0.2675 
G01 X0.5298 Y0.2950 
G01 X0.5258 Y0.2973 
G01 X0.5213 Y0.2985 
G01 X0.5200 Y0.2985 
G01 X0.5200 Y0.3144 
G01 X0.5185 Y0.3179 
G01 X0.5159 Y0.3205 
G01 X0.5124 Y0.3220 
G01 X0.4376 Y0.3220 
G01 X0.4341 Y0.3205 
G01 X0.4315 Y0.3179 
G01 X0.4300 Y0.3144 
G01 X0.4300 Y0.2476 
G01 X0.4315 Y0.2441 
G01 X0.4331 Y0.2425 
G01 X0.4177 Y0.2425 
G01 X0.4185 Y0.2432 
G01 X0.4199 Y0.2467 
G01 X0.4199 Y0.3135 
G01 X0.4185 Y0.3170 
G01 X0.4158 Y0.3197 
G01 X0.4123 Y0.3211 
G01 X0.3925 Y0.3211 
G01 X0.3925 Y0.3325 
G01 X0.5537 Y0.3325 
G01 X0.5537 Y0.2822 
G01 X0.5551 Y0.2787 
G01 X0.5578 Y0.2760 
G01 X0.5613 Y0.2746 
G01 X0.5887 Y0.2746 
G01 X0.5922 Y0.2760 
G01 X0.5949 Y0.2787 
G01 X0.5963 Y0.2822 
G01 X0.5963 Y0.3726 
G01 X0.5949 Y0.3761 
G01 X0.5922 Y0.3787 
G01 X0.5887 Y0.3802 
G01 X0.5613 Y0.3802 
G01 X0.5578 Y0.3787 
G01 X0.5551 Y0.3761 
G01 X0.5537 Y0.3726 
G01 X0.5537 Y0.3675 
G01 X0.1977 Y0.3675 
G01 X0.1932 Y0.3663 
G01 X0.1893 Y0.3640 
G01 X0.1860 Y0.3607 
G01 X0.1610 Y0.3357 
G01 X0.1599 Y0.3338 
G01 X0.1575 Y0.3328 
G01 X0.1514 Y0.3287 
G01 X0.1463 Y0.3236 
G01 X0.1422 Y0.3175 
G01 X0.1394 Y0.3108 
G01 X0.1380 Y0.3036 
G01 X0.1380 Y0.2964 
G01 X0.1394 Y0.2892 
G01 X0.1422 Y0.2825 
G01 X0.1463 Y0.2764 
G01 X0.1514 Y0.2713 
G01 X0.1575 Y0.2672 
G01 X0.1642 Y0.2644 
G01 X0.1714 Y0.2630 
G01 X0.1786 Y0.2630 
G01 X0.1858 Y0.2644 
G01 X0.1925 Y0.2672 
G01 X0.1986 Y0.2713 
G01 X0.2037 Y0.2764 
G01 X0.2078 Y0.2825 
G01 X0.2106 Y0.2892 
G01 X0.2120 Y0.2964 
G01 X0.2120 Y0.3036 
G01 X0.2106 Y0.3108 
G01 X0.2078 Y0.3175 
G01 X0.2037 Y0.3236 
G01 X0.2010 Y0.3263 
G01 X0.2072 Y0.3325 
G01 X0.3575 Y0.3325 
G01 X0.3575 Y0.3211 
G01 X0.3377 Y0.3211 
G01 X0.3342 Y0.3197 
G01 X0.3315 Y0.3170 
G01 X0.3301 Y0.3135 
G01 X0.3301 Y0.2467 
G01 X0.3315 Y0.2432 
G01 X0.3323 Y0.2425 
G01 X0.3112 Y0.2425 
G01 X0.3120 Y0.2464 
G01 X0.3120 Y0.2536 
G01 X0.3106 Y0.2608 
G01 X0.3078 Y0.2675 
G01 X0.3037 Y0.2736 
G01 X0.2986 Y0.2787 
G01 X0.2925 Y0.2828 
G01 X0.2858 Y0.2856 
G01 X0.2786 Y0.2870 
G01 X0.2714 Y0.2870 
G01 X0.2642 Y0.2856 
G01 X0.2575 Y0.2828 
G01 X0.2514 Y0.2787 
G01 X0.2463 Y0.2736 
G01 X0.2422 Y0.2675 
G01 X0.2394 Y0.2608 
G01 X0.2380 Y0.2536 
G01 X0.2380 Y0.2464 
G01 X0.2394 Y0.2392 
G01 X0.2422 Y0.2325 
G01 X0.2463 Y0.2264 
G01 X0.2514 Y0.2213 
G01 X0.2575 Y0.2172 
G01 X0.2642 Y0.2144 
G01 X0.2714 Y0.2130 
G01 X0.2786 Y0.2130 
G01 X0.2858 Y0.2144 
G01 X0.2893 Y0.2110 
G01 X0.2932 Y0.2087 
G01 X0.2977 Y0.2075 
G01 X0.3323 Y0.2075 
G01 X0.3315 Y0.2068 
G01 X0.3301 Y0.2033 
G01 X0.3301 Y0.1365 
G01 X0.3315 Y0.1330 
G01 X0.3342 Y0.1303 
G01 X0.3377 Y0.1289 
G01 X0.4123 Y0.1289 
G01 X0.4158 Y0.1303 
G01 X0.4185 Y0.1330 
G01 X0.4199 Y0.1365 
G01 X0.4199 Y0.2033 
G01 X0.4185 Y0.2068 
G01 X0.4177 Y0.2075 
G01 X0.4331 Y0.2075 
G01 X0.4315 Y0.2059 
G01 X0.4300 Y0.2024 
G01 X0.4300 Y0.1356 
G01 X0.4315 Y0.1321 
G01 X0.4341 Y0.1295 
G01 X0.4376 Y0.1280 
G01 X0.4533 Y0.1280 
G01 X0.4428 Y0.1175 
G01 X0.2930 Y0.1175 
G01 X0.2986 Y0.1213 
G01 X0.3037 Y0.1264 
G01 X0.3078 Y0.1325 
G01 X0.3106 Y0.1392 
G01 X0.3120 Y0.1464 
G01 X0.3120 Y0.1536 
G01 X0.3106 Y0.1608 
G01 X0.3078 Y0.1675 
G01 X0.3037 Y0.1736 
G01 X0.2986 Y0.1787 
G01 X0.2925 Y0.1828 
G01 X0.2858 Y0.1856 
G01 X0.2786 Y0.1870 
G01 X0.2714 Y0.1870 
G01 X0.2642 Y0.1856 
G01 X0.2575 Y0.1828 
G01 X0.2514 Y0.1787 
G01 X0.2463 Y0.1736 
G01 X0.2422 Y0.1675 
G01 X0.2394 Y0.1608 
G01 X0.2380 Y0.1536 
G01 X0.2380 Y0.1464 
G01 X0.2394 Y0.1392 
G01 X0.2422 Y0.1325 
G01 X0.2463 Y0.1264 
G01 X0.2514 Y0.1213 
G01 X0.2570 Y0.1175 
G01 X0.2072 Y0.1175 
G01 X0.1925 Y0.1322 
G01 X0.1925 Y0.1672 
G01 X0.1986 Y0.1713 
G01 X0.2037 Y0.1764 
G01 X0.2078 Y0.1825 
G01 X0.2106 Y0.1892 
G01 X0.2120 Y0.1964 
G01 X0.2120 Y0.2036 
G01 X0.2106 Y0.2108 
G01 X0.2078 Y0.2175 
G01 X0.2037 Y0.2236 
G01 X0.1986 Y0.2287 
G01 X0.1925 Y0.2328 
G01 X0.1858 Y0.2356 
G01 X0.1786 Y0.2370 
G01 X0.1714 Y0.2370 
G01 X0.1642 Y0.2356 
G01 X0.1575 Y0.2328 
G01 X0.1514 Y0.2287 
G01 X0.1463 Y0.2236 
G01 X0.1422 Y0.2175 
G01 X0.1394 Y0.2108 
G01 X0.1380 Y0.2036 
G01 X0.1380 Y0.1964 
G01 X0.1394 Y0.1892 
G01 X0.1422 Y0.1825 
G01 X0.1463 Y0.1764 
G01 X0.1514 Y0.1713 
G01 X0.1575 Y0.1672 
G01 X0.1575 Y0.1227 
G01 X0.1587 Y0.1182 
G01 X0.1610 Y0.1143 
G01 X0.1643 Y0.1110 
G01 X0.1893 Y0.0860 
G01 X0.1932 Y0.0837 
G01 X0.1977 Y0.0825 
G01 X0.4523 Y0.0825 
G01 X0.4568 Y0.0837 
G01 X0.4607 Y0.0860 
G01 X0.4640 Y0.0893 
G01 X0.4857 Y0.1110 
G01 X0.4890 Y0.1143 
G01 X0.4913 Y0.1182 
G01 X0.4925 Y0.1227 
G01 X0.4925 Y0.1280 
G01 X0.5124 Y0.1280 
G01 X0.5159 Y0.1295 
G01 X0.5185 Y0.1321 
G01 X0.5200 Y0.1356 
G01 X0.5200 Y0.2024 
G01 X0.5185 Y0.2059 
G01 X0.5169 Y0.2075 
G01 X0.5178 Y0.2075 
G01 X0.5548 Y0.1705 
G01 X0.5537 Y0.1678 
G01 X0.5537 Y0.0774 
G01 X0.5551 Y0.0739 
G01 X0.5578 Y0.0713 
G01 X0.5613 Y0.0698 
G01 X0.5887 Y0.0698 
G01 X0.5922 Y0.0713 
G01 X0.5949 Y0.0739 
G01 X0.5963 Y0.0774 
G01 X0.5963 Y0.1678 
G01 X0.5949 Y0.1713 
G01 X0.5925 Y0.1737 
G01 X0.5925 Y0.1773 
G01 X0.5913 Y0.1818 
G01 X0.5890 Y0.1857 
G01 X0.5857 Y0.1890 
G01 X0.5390 Y0.2357 
G01 X0.5357 Y0.2390 
G01 X0.5318 Y0.2413 
G01 X0.5273 Y0.2425 
G01 X0.5169 Y0.2425 
G01 X0.5185 Y0.2441 
G01 X0.5200 Y0.2476 
G01 X0.5200 Y0.2553 
G01 X0.5360 Y0.2393 
G01 X0.5393 Y0.2360 
G01 X0.5432 Y0.2337 
G01 X0.5477 Y0.2325 
G01 X0.6578 Y0.2325 
G01 X0.6143 Y0.1890 
G01 X0.6110 Y0.1857 
G01 X0.6087 Y0.1818 
G01 X0.6075 Y0.1773 
G01 X0.6075 Y0.1737 
G01 X0.6051 Y0.1713 
G01 X0.6037 Y0.1678 
G01 X0.6037 Y0.0774 
G01 X0.6051 Y0.0739 
G01 X0.6078 Y0.0713 
G01 X0.6113 Y0.0698 
G01 X0.6387 Y0.0698 
G01 X0.6422 Y0.0713 
G01 X0.6449 Y0.0739 
G01 X0.6463 Y0.0774 
G01 X0.6463 Y0.1678 
G01 X0.6452 Y0.1705 
G01 X0.6822 Y0.2075 
G01 X0.6828 Y0.2075 
G01 X0.6643 Y0.1890 
G01 X0.6610 Y0.1857 
G01 X0.6587 Y0.1818 
G01 X0.6575 Y0.1773 
G01 X0.6575 Y0.1737 
G01 X0.6551 Y0.1713 
G01 X0.6537 Y0.1678 
G01 X0.6537 Y0.0774 
G01 X0.6551 Y0.0739 
G01 X0.6578 Y0.0713 
G01 X0.6613 Y0.0698 
G01 X0.6887 Y0.0698 
G01 X0.6922 Y0.0713 
G01 X0.6949 Y0.0739 
G01 X0.6963 Y0.0774 
G01 X0.6963 Y0.1678 
G01 X0.6952 Y0.1705 
G01 X0.7072 Y0.1825 
G01 X0.7780 Y0.1825 
G01 X0.7780 Y0.1626 
G01 X0.7795 Y0.1591 
G01 X0.7821 Y0.1565 
G01 X0.7856 Y0.1550 
G01 X0.8015 Y0.1550 
G01 X0.8015 Y0.1450 
G01 X0.7856 Y0.1450 
G01 X0.7821 Y0.1435 
G01 X0.7795 Y0.1409 
G01 X0.7780 Y0.1374 
G01 X0.7780 Y0.0626 
G01 X0.7795 Y0.0591 
G01 X0.7821 Y0.0565 
G01 X0.7856 Y0.0550 
G01 X0.8524 Y0.0550 
G01 X0.8559 Y0.0565 
G01 X0.8586 Y0.0591 
G01 X0.8600 Y0.0626 
G01 X0.8600 Y0.1160 
G01 X0.8610 Y0.1143 
G01 X0.8860 Y0.0893 
G01 X0.8893 Y0.0860 
G01 X0.8900 Y0.0856 
G01 X0.8900 Y0.0626 
G01 X0.8914 Y0.0591 
G01 X0.8941 Y0.0565 
G01 X0.8976 Y0.0550 
G01 X0.9644 Y0.0550 
G01 X0.9679 Y0.0565 
G01 X0.9705 Y0.0591 
G01 X0.9720 Y0.0626 
G01 X0.9720 Y0.1374 
G01 X0.9705 Y0.1409 
G01 X0.9679 Y0.1435 
G01 X0.9644 Y0.1450 
G01 X0.8976 Y0.1450 
G01 X0.8941 Y0.1435 
G01 X0.8925 Y0.1419 
G01 X0.8925 Y0.1581 
G01 X0.8941 Y0.1565 
G01 X0.8976 Y0.1550 
G01 X0.9644 Y0.1550 
G01 X0.9679 Y0.1565 
G01 X0.9705 Y0.1591 
G01 X0.9720 Y0.1626 
G01 X0.9720 Y0.1825 
G01 X0.9773 Y0.1825 
G01 X0.9818 Y0.1837 
G01 X0.9857 Y0.1860 
G01 X0.9988 Y0.1990 
G01 X1.0004 Y0.1974 
G01 X1.0062 Y0.1935 
G01 X1.0126 Y0.1909 
G01 X1.0195 Y0.1895 
G01 X1.0785 Y0.1895 
G01 X1.0854 Y0.1909 
G01 X1.0918 Y0.1935 
G01 X1.0976 Y0.1974 
G01 X1.1026 Y0.2024 
G01 X1.1065 Y0.2082 
G01 X1.1091 Y0.2146 
G01 X1.1105 Y0.2215 
G01 X1.1105 Y0.2285 
G01 X1.1091 Y0.2354 
G01 X1.1065 Y0.2418 
G01 X1.1026 Y0.2476 
G01 X1.0976 Y0.2526 
G01 X1.0918 Y0.2565 
G01 X1.0854 Y0.2591 
G01 X1.0785 Y0.2605 
G01 X1.0195 Y0.2605 
G01 X1.0126 Y0.2591 
G01 X1.0062 Y0.2565 
G01 X1.0004 Y0.2526 
G01 X0.9954 Y0.2476 
G01 X0.9915 Y0.2418 
G01 X0.9907 Y0.2399 
G01 X0.9893 Y0.2390 
G01 X0.9860 Y0.2357 
G01 X0.9720 Y0.2217 
G01 X0.9720 Y0.2374 
G01 X0.9705 Y0.2409 
G01 X0.9679 Y0.2435 
G01 X0.9644 Y0.2450 
G01 X0.8976 Y0.2450 
G01 X0.8941 Y0.2435 
G01 X0.8925 Y0.2419 
G01 X0.8925 Y0.2581 
G01 X0.8941 Y0.2565 
G01 X0.8976 Y0.2550 
G01 X0.9644 Y0.2550 
G01 X0.9679 Y0.2565 
G01 X0.9705 Y0.2591 
G01 X0.9720 Y0.2626 
G01 X0.9720 Y0.3374 
G01 X0.9705 Y0.3409 
G01 X0.9679 Y0.3435 
G01 X0.9644 Y0.3450 
G01 X0.8976 Y0.3450 
G01 X0.8941 Y0.3435 
G01 X0.8914 Y0.3409 
G01 X0.8900 Y0.3374 
G01 X0.8900 Y0.3144 
G01 X0.8893 Y0.3140 
G01 X0.8643 Y0.2890 
G01 X0.8610 Y0.2857 
G01 X0.8600 Y0.2840 
G01 X0.8600 Y0.3162 
G01 X0.9013 Y0.3575 
G01 X0.9678 Y0.3575 
G01 X0.9892 Y0.3361 
G01 X0.9889 Y0.3354 
G01 X0.9875 Y0.3285 
G01 X0.9875 Y0.3215 
G01 X0.9889 Y0.3146 
G01 X0.9915 Y0.3082 
G01 X0.9954 Y0.3024 
G01 X1.0004 Y0.2974 
G01 X1.0062 Y0.2935 
G01 X1.0126 Y0.2909 
G01 X1.0195 Y0.2895 
G00 Z0.1000 
G00 X0.6963 Y0.2822 
G01 Z0.0000 F10.00 
G01 X0.6963 Y0.3726 F20.00 
G01 X0.6949 Y0.3761 
G01 X0.6922 Y0.3787 
G01 X0.6887 Y0.3802 
G01 X0.6613 Y0.3802 
G01 X0.6578 Y0.3787 
G01 X0.6551 Y0.3761 
G01 X0.6537 Y0.3726 
G01 X0.6537 Y0.2822 
G01 X0.6551 Y0.2787 
G01 X0.6578 Y0.2760 
G01 X0.6613 Y0.2746 
G01 X0.6887 Y0.2746 
G01 X0.6922 Y0.2760 
G01 X0.6949 Y0.2787 
G01 X0.6963 Y0.2822 
G00 Z0.1000 
G00 X0.7463 Y0.0774 
G01 Z0.0000 F10.00 
G01 X0.7463 Y0.1678 F20.00 
G01 X0.7449 Y0.1713 
G01 X0.7422 Y0.1740 
G01 X0.7387 Y0.1754 
G01 X0.7113 Y0.1754 
G01 X0.7078 Y0.1740 
G01 X0.7051 Y0.1713 
G01 X0.7037 Y0.1678 
G01 X0.7037 Y0.0774 
G01 X0.7051 Y0.0739 
G01 X0.7078 Y0.0713 
G01 X0.7113 Y0.0698 
G01 X0.7387 Y0.0698 
G01 X0.7422 Y0.0713 
G01 X0.7449 Y0.0739 
G01 X0.7463 Y0.0774 
G00 Z0.1000 
G00 X0.6463 Y0.2822 
G01 Z0.0000 F10.00 
G01 X0.6463 Y0.3726 F20.00 
G01 X0.6449 Y0.3761 
G01 X0.6422 Y0.3787 
G01 X0.6387 Y0.3802 
G01 X0.6113 Y0.3802 
G01 X0.6078 Y0.3787 
G01 X0.6051 Y0.3761 
G01 X0.6037 Y0.3726 
G01 X0.6037 Y0.2822 
G01 X0.6051 Y0.2787 
G01 X0.6078 Y0.2760 
G01 X0.6113 Y0.2746 
G01 X0.6387 Y0.2746 
G01 X0.6422 Y0.2760 
G01 X0.6449 Y0.2787 
G01 X0.6463 Y0.2822 
G00 Z0.1000 
G00 X0.1062 Y0.4105 
G01 Z0.0000 F10.00 
G01 X0.1049 Y0.4078 F20.00 
G01 X0.1020 Y0.4035 
G01 X0.0985 Y0.3997 
G01 X0.0944 Y0.3965 
G01 X0.0900 Y0.3939 
G01 X0.0852 Y0.3920 
G01 X0.0801 Y0.3909 
G01 X0.0750 Y0.3905 
G01 X0.0699 Y0.3909 
G01 X0.0648 Y0.3920 
G01 X0.0600 Y0.3939 
G01 X0.0556 Y0.3965 
G01 X0.0515 Y0.3997 
G01 X0.0480 Y0.4035 
G01 X0.0451 Y0.4077 
G01 X0.0438 Y0.4105 
G01 X0.0492 Y0.4105 
G01 X0.0521 Y0.4062 
G01 X0.0562 Y0.4021 
G01 X0.0610 Y0.3989 
G01 X0.0664 Y0.3966 
G01 X0.0721 Y0.3955 
G01 X0.0779 Y0.3955 
G01 X0.0836 Y0.3966 
G01 X0.0890 Y0.3989 
G01 X0.0938 Y0.4021 
G01 X0.0979 Y0.4062 
G01 X0.1008 Y0.4105 
G01 X0.1062 Y0.4105 
G00 Z0.1000 
G00 X0.8524 Y0.1500 
G01 Z0.0000 F10.00 
G01 X0.8525 Y0.1500 F20.00 
G01 X0.8415 Y0.1500 
G01 X0.8524 Y0.1500 
G00 Z0.1000 
G00 X0.8850 Y0.3168 
G01 Z0.0000 F10.00 
G01 X0.8650 Y0.2968 F20.00 
G01 X0.8650 Y0.3142 
G01 X0.8850 Y0.3342 
G01 X0.8850 Y0.3168 
G00 Z0.1000 
G00 X0.9707 Y0.3475 
G01 Z0.0000 F10.00 
G01 X0.9681 Y0.3490 F20.00 
G01 X0.9644 Y0.3500 
G01 X0.9008 Y0.3500 
G01 X0.9033 Y0.3525 
G01 X0.9657 Y0.3525 
G01 X0.9707 Y0.3475 
G00 Z0.1000 
G00 X0.7856 Y0.2500 
G01 Z0.0000 F10.00 
G01 X0.8524 Y0.2500 F20.00 
G01 X0.8525 Y0.2500 
G01 X0.7856 Y0.2500 
G01 X0.7819 Y0.2490 
G01 X0.7793 Y0.2475 
G01 X0.7826 Y0.2508 
G01 X0.7856 Y0.2500 
G00 Z0.1000 
G00 X0.7740 Y0.2411 
G01 Z0.0000 F10.00 
G01 X0.7730 Y0.2374 F20.00 
G01 X0.7730 Y0.2225 
G01 X0.7543 Y0.2225 
G01 X0.7755 Y0.2437 
G01 X0.7740 Y0.2411 
G00 Z0.1000 
G00 X0.6016 Y0.1748 
G01 Z0.0000 F10.00 
G01 X0.6000 Y0.1721 F20.00 
G01 X0.5984 Y0.1748 
G01 X0.5975 Y0.1758 
G01 X0.5975 Y0.1780 
G01 X0.5960 Y0.1837 
G01 X0.5930 Y0.1888 
G01 X0.5888 Y0.1930 
G01 X0.5543 Y0.2275 
G01 X0.6457 Y0.2275 
G01 X0.6112 Y0.1930 
G01 X0.6070 Y0.1888 
G01 X0.6040 Y0.1837 
G01 X0.6025 Y0.1780 
G01 X0.6025 Y0.1758 
G01 X0.6016 Y0.1748 
G00 Z0.1000 
G00 X0.5250 Y0.3144 
G01 Z0.0000 F10.00 
G01 X0.5240 Y0.3181 F20.00 
G01 X0.5221 Y0.3214 
G01 X0.5194 Y0.3241 
G01 X0.5161 Y0.3260 
G01 X0.5124 Y0.3270 
G01 X0.4376 Y0.3270 
G01 X0.4339 Y0.3260 
G01 X0.4306 Y0.3241 
G01 X0.4279 Y0.3214 
G01 X0.4260 Y0.3181 
G01 X0.4250 Y0.3144 
G01 X0.4250 Y0.2476 
G01 X0.4249 Y0.3135 
G01 X0.4239 Y0.3172 
G01 X0.4220 Y0.3205 
G01 X0.4193 Y0.3232 
G01 X0.4160 Y0.3251 
G01 X0.4123 Y0.3261 
G01 X0.3975 Y0.3261 
G01 X0.3975 Y0.3275 
G01 X0.5487 Y0.3275 
G01 X0.5487 Y0.2831 
G01 X0.5328 Y0.2990 
G01 X0.5277 Y0.3020 
G01 X0.5250 Y0.3027 
G01 X0.5250 Y0.3144 
G00 Z0.1000 
G00 X0.5984 Y0.2752 
G01 Z0.0000 F10.00 
G01 X0.6000 Y0.2779 F20.00 
G01 X0.6016 Y0.2752 
G01 X0.6042 Y0.2725 
G01 X0.5958 Y0.2725 
G01 X0.5984 Y0.2752 
G00 Z0.1000 
G00 X0.6484 Y0.2752 
G01 Z0.0000 F10.00 
G01 X0.6500 Y0.2779 F20.00 
G01 X0.6516 Y0.2752 
G01 X0.6542 Y0.2725 
G01 X0.6458 Y0.2725 
G01 X0.6484 Y0.2752 
G00 Z0.1000 
G00 X1.7805 Y0.4055 
G01 Z0.0000 F10.00 
G01 X1.7805 Y0.0445 F20.00 
G01 X0.1428 Y0.0445 
G01 X0.1412 Y0.0497 
G01 X0.1370 Y0.0589 
G01 X0.1316 Y0.0674 
G01 X0.1250 Y0.0750 
G01 X0.1174 Y0.0816 
G01 X0.1089 Y0.0870 
G01 X0.0997 Y0.0912 
G01 X0.0900 Y0.0941 
G01 X0.0800 Y0.0955 
G01 X0.0700 Y0.0955 
G01 X0.0600 Y0.0941 
G01 X0.0503 Y0.0912 
G01 X0.0411 Y0.0870 
G01 X0.0326 Y0.0816 
G01 X0.0250 Y0.0750 
G01 X0.0195 Y0.0686 
G01 X0.0195 Y0.3814 
G01 X0.0250 Y0.3750 
G01 X0.0326 Y0.3684 
G01 X0.0411 Y0.3630 
G01 X0.0503 Y0.3588 
G01 X0.0600 Y0.3559 
G01 X0.0700 Y0.3545 
G01 X0.0800 Y0.3545 
G01 X0.0900 Y0.3559 
G01 X0.0997 Y0.3588 
G01 X0.1089 Y0.3630 
G01 X0.1174 Y0.3684 
G01 X0.1250 Y0.3750 
G01 X0.1316 Y0.3826 
G01 X0.1370 Y0.3911 
G01 X0.1412 Y0.4003 
G01 X0.1428 Y0.4055 
G01 X1.7805 Y0.4055 
G00 Z0.1000 
G00 X1.4310 Y0.2655 
G01 Z0.0000 F10.00 
G01 X1.3710 Y0.2655 F20.00 
G01 X1.3632 Y0.2639 
G01 X1.3558 Y0.2609 
G01 X1.3492 Y0.2565 
G01 X1.3435 Y0.2508 
G01 X1.3391 Y0.2442 
G01 X1.3361 Y0.2368 
G01 X1.3345 Y0.2290 
G01 X1.3345 Y0.2210 
G01 X1.3361 Y0.2132 
G01 X1.3391 Y0.2058 
G01 X1.3435 Y0.1992 
G01 X1.3492 Y0.1935 
G01 X1.3558 Y0.1891 
G01 X1.3632 Y0.1861 
G01 X1.3710 Y0.1845 
G01 X1.4310 Y0.1845 
G01 X1.4388 Y0.1861 
G01 X1.4462 Y0.1891 
G01 X1.4528 Y0.1935 
G01 X1.4585 Y0.1992 
G01 X1.4629 Y0.2058 
G01 X1.4659 Y0.2132 
G01 X1.4675 Y0.2210 
G01 X1.4675 Y0.2290 
G01 X1.4659 Y0.2368 
G01 X1.4629 Y0.2442 
G01 X1.4585 Y0.2508 
G01 X1.4528 Y0.2565 
G01 X1.4462 Y0.2609 
G01 X1.4388 Y0.2639 
G01 X1.4310 Y0.2655 
G00 Z0.1000 
G00 X1.4310 Y0.3655 
G01 Z0.0000 F10.00 
G01 X1.3710 Y0.3655 F20.00 
G01 X1.3632 Y0.3639 
G01 X1.3558 Y0.3609 
G01 X1.3492 Y0.3565 
G01 X1.3435 Y0.3508 
G01 X1.3391 Y0.3442 
G01 X1.3361 Y0.3368 
G01 X1.3345 Y0.3290 
G01 X1.3345 Y0.3210 
G01 X1.3361 Y0.3132 
G01 X1.3391 Y0.3058 
G01 X1.3435 Y0.2992 
G01 X1.3492 Y0.2935 
G01 X1.3558 Y0.2891 
G01 X1.3632 Y0.2861 
G01 X1.3710 Y0.2845 
G01 X1.4310 Y0.2845 
G01 X1.4388 Y0.2861 
G01 X1.4462 Y0.2891 
G01 X1.4528 Y0.2935 
G01 X1.4538 Y0.2945 
G01 X1.5243 Y0.2945 
G01 X1.5268 Y0.2910 
G01 X1.5323 Y0.2855 
G01 X1.5387 Y0.2809 
G01 X1.5457 Y0.2773 
G01 X1.5531 Y0.2749 
G01 X1.5608 Y0.2737 
G01 X1.6392 Y0.2737 
G01 X1.6469 Y0.2749 
G01 X1.6543 Y0.2773 
G01 X1.6613 Y0.2809 
G01 X1.6677 Y0.2855 
G01 X1.6732 Y0.2910 
G01 X1.6778 Y0.2974 
G01 X1.6814 Y0.3043 
G01 X1.6838 Y0.3118 
G01 X1.6850 Y0.3195 
G01 X1.6850 Y0.3273 
G01 X1.6838 Y0.3351 
G01 X1.6814 Y0.3425 
G01 X1.6778 Y0.3495 
G01 X1.6732 Y0.3558 
G01 X1.6677 Y0.3614 
G01 X1.6613 Y0.3660 
G01 X1.6543 Y0.3695 
G01 X1.6469 Y0.3720 
G01 X1.6392 Y0.3732 
G01 X1.5608 Y0.3732 
G01 X1.5531 Y0.3720 
G01 X1.5457 Y0.3695 
G01 X1.5387 Y0.3660 
G01 X1.5323 Y0.3614 
G01 X1.5268 Y0.3558 
G01 X1.5266 Y0.3555 
G01 X1.4538 Y0.3555 
G01 X1.4528 Y0.3565 
G01 X1.4462 Y0.3609 
G01 X1.4388 Y0.3639 
G01 X1.4310 Y0.3655 
G00 Z0.1000 
G00 X1.0190 Y0.0845 
G01 Z0.0000 F10.00 
G01 X1.0790 Y0.0845 F20.00 
G01 X1.0868 Y0.0861 
G01 X1.0942 Y0.0891 
G01 X1.1008 Y0.0935 
G01 X1.1065 Y0.0992 
G01 X1.1109 Y0.1058 
G01 X1.1139 Y0.1132 
G01 X1.1155 Y0.1210 
G01 X1.1155 Y0.1290 
G01 X1.1139 Y0.1368 
G01 X1.1109 Y0.1442 
G01 X1.1065 Y0.1508 
G01 X1.1008 Y0.1565 
G01 X1.0942 Y0.1609 
G01 X1.0868 Y0.1639 
G01 X1.0790 Y0.1655 
G01 X1.0190 Y0.1655 
G01 X1.0112 Y0.1639 
G01 X1.0038 Y0.1609 
G01 X0.9972 Y0.1565 
G01 X0.9915 Y0.1508 
G01 X0.9871 Y0.1442 
G01 X0.9841 Y0.1368 
G01 X0.9825 Y0.1290 
G01 X0.9825 Y0.1210 
G01 X0.9841 Y0.1132 
G01 X0.9871 Y0.1058 
G01 X0.9915 Y0.0992 
G01 X0.9972 Y0.0935 
G01 X1.0038 Y0.0891 
G01 X1.0112 Y0.0861 
G01 X1.0190 Y0.0845 
G00 Z0.1000 
G00 X0.8850 Y0.0626 
G01 Z0.0000 F10.00 
G01 X0.8860 Y0.0589 F20.00 
G01 X0.8879 Y0.0556 
G01 X0.8906 Y0.0529 
G01 X0.8939 Y0.0510 
G01 X0.8976 Y0.0500 
G01 X0.9644 Y0.0500 
G01 X0.9681 Y0.0510 
G01 X0.9714 Y0.0529 
G01 X0.9741 Y0.0556 
G01 X0.9760 Y0.0589 
G01 X0.9770 Y0.0626 
G01 X0.9770 Y0.1374 
G01 X0.9760 Y0.1411 
G01 X0.9741 Y0.1444 
G01 X0.9714 Y0.1471 
G01 X0.9681 Y0.1490 
G01 X0.9644 Y0.1500 
G01 X0.8976 Y0.1500 
G01 X0.9644 Y0.1500 
G01 X0.9681 Y0.1510 
G01 X0.9714 Y0.1529 
G01 X0.9741 Y0.1556 
G01 X0.9760 Y0.1589 
G01 X0.9770 Y0.1626 
G01 X0.9770 Y0.1775 
G01 X0.9780 Y0.1775 
G01 X0.9837 Y0.1790 
G01 X0.9888 Y0.1820 
G01 X0.9991 Y0.1923 
G01 X1.0038 Y0.1891 
G01 X1.0112 Y0.1861 
G01 X1.0190 Y0.1845 
G01 X1.0790 Y0.1845 
G01 X1.0868 Y0.1861 
G01 X1.0942 Y0.1891 
G01 X1.1008 Y0.1935 
G01 X1.1065 Y0.1992 
G01 X1.1109 Y0.2058 
G01 X1.1139 Y0.2132 
G01 X1.1155 Y0.2210 
G01 X1.1155 Y0.2290 
G01 X1.1139 Y0.2368 
G01 X1.1109 Y0.2442 
G01 X1.1065 Y0.2508 
G01 X1.1008 Y0.2565 
G01 X1.0942 Y0.2609 
G01 X1.0868 Y0.2639 
G01 X1.0790 Y0.2655 
G01 X1.0190 Y0.2655 
G01 X1.0112 Y0.2639 
G01 X1.0038 Y0.2609 
G01 X0.9972 Y0.2565 
G01 X0.9915 Y0.2508 
G01 X0.9871 Y0.2442 
G01 X0.9868 Y0.2433 
G01 X0.9862 Y0.2430 
G01 X0.9820 Y0.2388 
G01 X0.9770 Y0.2338 
G01 X0.9770 Y0.2374 
G01 X0.9760 Y0.2411 
G01 X0.9741 Y0.2444 
G01 X0.9714 Y0.2471 
G01 X0.9681 Y0.2490 
G01 X0.9644 Y0.2500 
G01 X0.8976 Y0.2500 
G01 X0.9644 Y0.2500 
G01 X0.9681 Y0.2510 
G01 X0.9714 Y0.2529 
G01 X0.9741 Y0.2556 
G01 X0.9760 Y0.2589 
G01 X0.9770 Y0.2626 
G01 X0.9770 Y0.3374 
G01 X0.9760 Y0.3411 
G01 X0.9745 Y0.3437 
G01 X0.9836 Y0.3346 
G01 X0.9825 Y0.3290 
G01 X0.9825 Y0.3210 
G01 X0.9841 Y0.3132 
G01 X0.9871 Y0.3058 
G01 X0.9915 Y0.2992 
G01 X0.9972 Y0.2935 
G01 X1.0038 Y0.2891 
G01 X1.0112 Y0.2861 
G01 X1.0190 Y0.2845 
G01 X1.0790 Y0.2845 
G01 X1.0868 Y0.2861 
G01 X1.0942 Y0.2891 
G01 X1.1008 Y0.2935 
G01 X1.1065 Y0.2992 
G01 X1.1109 Y0.3058 
G01 X1.1139 Y0.3132 
G01 X1.1155 Y0.3210 
G01 X1.1155 Y0.3290 
G01 X1.1139 Y0.3368 
G01 X1.1109 Y0.3442 
G01 X1.1065 Y0.3508 
G01 X1.1008 Y0.3565 
G01 X1.0942 Y0.3609 
G01 X1.0868 Y0.3639 
G01 X1.0790 Y0.3655 
G01 X1.0190 Y0.3655 
G01 X1.0168 Y0.3651 
G01 X0.9930 Y0.3888 
G01 X0.9888 Y0.3930 
G01 X0.9837 Y0.3960 
G01 X0.9780 Y0.3975 
G01 X0.8911 Y0.3975 
G01 X0.8853 Y0.3960 
G01 X0.8802 Y0.3930 
G01 X0.8760 Y0.3888 
G01 X0.8372 Y0.3500 
G01 X0.7856 Y0.3500 
G01 X0.7819 Y0.3490 
G01 X0.7786 Y0.3471 
G01 X0.7759 Y0.3444 
G01 X0.7740 Y0.3411 
G01 X0.7730 Y0.3374 
G01 X0.7730 Y0.3048 
G01 X0.7513 Y0.2831 
G01 X0.7513 Y0.3726 
G01 X0.7503 Y0.3763 
G01 X0.7484 Y0.3796 
G01 X0.7457 Y0.3823 
G01 X0.7424 Y0.3842 
G01 X0.7387 Y0.3852 
G01 X0.7113 Y0.3852 
G01 X0.7076 Y0.3842 
G01 X0.7043 Y0.3823 
G01 X0.7016 Y0.3796 
G01 X0.7000 Y0.3768 
G01 X0.6984 Y0.3796 
G01 X0.6957 Y0.3823 
G01 X0.6924 Y0.3842 
G01 X0.6887 Y0.3852 
G01 X0.6613 Y0.3852 
G01 X0.6576 Y0.3842 
G01 X0.6543 Y0.3823 
G01 X0.6516 Y0.3796 
G01 X0.6500 Y0.3768 
G01 X0.6484 Y0.3796 
G01 X0.6457 Y0.3823 
G01 X0.6424 Y0.3842 
G01 X0.6387 Y0.3852 
G01 X0.6113 Y0.3852 
G01 X0.6076 Y0.3842 
G01 X0.6043 Y0.3823 
G01 X0.6016 Y0.3796 
G01 X0.6000 Y0.3768 
G01 X0.5984 Y0.3796 
G01 X0.5957 Y0.3823 
G01 X0.5924 Y0.3842 
G01 X0.5887 Y0.3852 
G01 X0.5613 Y0.3852 
G01 X0.5576 Y0.3842 
G01 X0.5543 Y0.3823 
G01 X0.5516 Y0.3796 
G01 X0.5497 Y0.3763 
G01 X0.5487 Y0.3726 
G01 X0.1970 Y0.3725 
G01 X0.1913 Y0.3710 
G01 X0.1862 Y0.3680 
G01 X0.1820 Y0.3638 
G01 X0.1570 Y0.3388 
G01 X0.1563 Y0.3376 
G01 X0.1530 Y0.3359 
G01 X0.1476 Y0.3320 
G01 X0.1430 Y0.3274 
G01 X0.1391 Y0.3220 
G01 X0.1361 Y0.3161 
G01 X0.1340 Y0.3098 
G01 X0.1330 Y0.3033 
G01 X0.1330 Y0.2967 
G01 X0.1340 Y0.2902 
G01 X0.1361 Y0.2839 
G01 X0.1391 Y0.2780 
G01 X0.1430 Y0.2726 
G01 X0.1476 Y0.2680 
G01 X0.1530 Y0.2641 
G01 X0.1589 Y0.2611 
G01 X0.1652 Y0.2590 
G01 X0.1717 Y0.2580 
G01 X0.1783 Y0.2580 
G01 X0.1848 Y0.2590 
G01 X0.1911 Y0.2611 
G01 X0.1970 Y0.2641 
G01 X0.2024 Y0.2680 
G01 X0.2070 Y0.2726 
G01 X0.2109 Y0.2780 
G01 X0.2139 Y0.2839 
G01 X0.2160 Y0.2902 
G01 X0.2170 Y0.2967 
G01 X0.2170 Y0.3033 
G01 X0.2160 Y0.3098 
G01 X0.2139 Y0.3161 
G01 X0.2109 Y0.3220 
G01 X0.2079 Y0.3261 
G01 X0.2093 Y0.3275 
G01 X0.3525 Y0.3275 
G01 X0.3525 Y0.3261 
G01 X0.3377 Y0.3261 
G01 X0.3340 Y0.3251 
G01 X0.3307 Y0.3232 
G01 X0.3280 Y0.3205 
G01 X0.3261 Y0.3172 
G01 X0.3251 Y0.3135 
G01 X0.3251 Y0.2475 
G01 X0.3170 Y0.2475 
G01 X0.3170 Y0.2533 
G01 X0.3160 Y0.2598 
G01 X0.3139 Y0.2661 
G01 X0.3109 Y0.2720 
G01 X0.3070 Y0.2774 
G01 X0.3024 Y0.2820 
G01 X0.2970 Y0.2859 
G01 X0.2911 Y0.2889 
G01 X0.2848 Y0.2910 
G01 X0.2783 Y0.2920 
G01 X0.2717 Y0.2920 
G01 X0.2652 Y0.2910 
G01 X0.2589 Y0.2889 
G01 X0.2530 Y0.2859 
G01 X0.2476 Y0.2820 
G01 X0.2430 Y0.2774 
G01 X0.2391 Y0.2720 
G01 X0.2361 Y0.2661 
G01 X0.2340 Y0.2598 
G01 X0.2330 Y0.2533 
G01 X0.2330 Y0.2467 
G01 X0.2340 Y0.2402 
G01 X0.2361 Y0.2339 
G01 X0.2391 Y0.2280 
G01 X0.2430 Y0.2226 
G01 X0.2476 Y0.2180 
G01 X0.2530 Y0.2141 
G01 X0.2589 Y0.2111 
G01 X0.2652 Y0.2090 
G01 X0.2717 Y0.2080 
G01 X0.2783 Y0.2080 
G01 X0.2842 Y0.2089 
G01 X0.2862 Y0.2070 
G01 X0.2913 Y0.2040 
G01 X0.2970 Y0.2025 
G01 X0.3251 Y0.2025 
G01 X0.3251 Y0.1365 
G01 X0.3261 Y0.1328 
G01 X0.3280 Y0.1295 
G01 X0.3307 Y0.1268 
G01 X0.3340 Y0.1249 
G01 X0.3377 Y0.1239 
G01 X0.4123 Y0.1239 
G01 X0.4160 Y0.1249 
G01 X0.4193 Y0.1268 
G01 X0.4220 Y0.1295 
G01 X0.4239 Y0.1328 
G01 X0.4249 Y0.1365 
G01 X0.4249 Y0.2025 
G01 X0.4250 Y0.1356 
G01 X0.4260 Y0.1319 
G01 X0.4279 Y0.1286 
G01 X0.4306 Y0.1259 
G01 X0.4339 Y0.1240 
G01 X0.4376 Y0.1230 
G01 X0.4412 Y0.1230 
G01 X0.4407 Y0.1225 
G01 X0.3069 Y0.1225 
G01 X0.3070 Y0.1226 
G01 X0.3109 Y0.1280 
G01 X0.3139 Y0.1339 
G01 X0.3160 Y0.1402 
G01 X0.3170 Y0.1467 
G01 X0.3170 Y0.1533 
G01 X0.3160 Y0.1598 
G01 X0.3139 Y0.1661 
G01 X0.3109 Y0.1720 
G01 X0.3070 Y0.1774 
G01 X0.3024 Y0.1820 
G01 X0.2970 Y0.1859 
G01 X0.2911 Y0.1889 
G01 X0.2848 Y0.1910 
G01 X0.2783 Y0.1920 
G01 X0.2717 Y0.1920 
G01 X0.2652 Y0.1910 
G01 X0.2589 Y0.1889 
G01 X0.2530 Y0.1859 
G01 X0.2476 Y0.1820 
G01 X0.2430 Y0.1774 
G01 X0.2391 Y0.1720 
G01 X0.2361 Y0.1661 
G01 X0.2340 Y0.1598 
G01 X0.2330 Y0.1533 
G01 X0.2330 Y0.1467 
G01 X0.2340 Y0.1402 
G01 X0.2361 Y0.1339 
G01 X0.2391 Y0.1280 
G01 X0.2430 Y0.1226 
G01 X0.2431 Y0.1225 
G01 X0.2093 Y0.1225 
G01 X0.1975 Y0.1343 
G01 X0.1975 Y0.1644 
G01 X0.2024 Y0.1680 
G01 X0.2070 Y0.1726 
G01 X0.2109 Y0.1780 
G01 X0.2139 Y0.1839 
G01 X0.2160 Y0.1902 
G01 X0.2170 Y0.1967 
G01 X0.2170 Y0.2033 
G01 X0.2160 Y0.2098 
G01 X0.2139 Y0.2161 
G01 X0.2109 Y0.2220 
G01 X0.2070 Y0.2274 
G01 X0.2024 Y0.2320 
G01 X0.1970 Y0.2359 
G01 X0.1911 Y0.2389 
G01 X0.1848 Y0.2410 
G01 X0.1783 Y0.2420 
G01 X0.1717 Y0.2420 
G01 X0.1652 Y0.2410 
G01 X0.1589 Y0.2389 
G01 X0.1530 Y0.2359 
G01 X0.1476 Y0.2320 
G01 X0.1430 Y0.2274 
G01 X0.1391 Y0.2220 
G01 X0.1361 Y0.2161 
G01 X0.1340 Y0.2098 
G01 X0.1330 Y0.2033 
G01 X0.1330 Y0.1967 
G01 X0.1340 Y0.1902 
G01 X0.1361 Y0.1839 
G01 X0.1391 Y0.1780 
G01 X0.1430 Y0.1726 
G01 X0.1476 Y0.1680 
G01 X0.1525 Y0.1644 
G01 X0.1525 Y0.1220 
G01 X0.1540 Y0.1163 
G01 X0.1570 Y0.1112 
G01 X0.1612 Y0.1070 
G01 X0.1862 Y0.0820 
G01 X0.1913 Y0.0790 
G01 X0.1970 Y0.0775 
G01 X0.4530 Y0.0775 
G01 X0.4587 Y0.0790 
G01 X0.4638 Y0.0820 
G01 X0.4680 Y0.0862 
G01 X0.4888 Y0.1070 
G01 X0.4930 Y0.1112 
G01 X0.4960 Y0.1163 
G01 X0.4975 Y0.1220 
G01 X0.4975 Y0.1230 
G01 X0.5124 Y0.1230 
G01 X0.5161 Y0.1240 
G01 X0.5194 Y0.1259 
G01 X0.5221 Y0.1286 
G01 X0.5240 Y0.1319 
G01 X0.5250 Y0.1356 
G01 X0.5250 Y0.1932 
G01 X0.5490 Y0.1691 
G01 X0.5487 Y0.1679 
G01 X0.5487 Y0.0774 
G01 X0.5497 Y0.0737 
G01 X0.5516 Y0.0704 
G01 X0.5543 Y0.0677 
G01 X0.5576 Y0.0658 
G01 X0.5613 Y0.0648 
G01 X0.5887 Y0.0648 
G01 X0.5924 Y0.0658 
G01 X0.5957 Y0.0677 
G01 X0.5984 Y0.0704 
G01 X0.6000 Y0.0732 
G01 X0.6016 Y0.0704 
G01 X0.6043 Y0.0677 
G01 X0.6076 Y0.0658 
G01 X0.6113 Y0.0648 
G01 X0.6387 Y0.0648 
G01 X0.6424 Y0.0658 
G01 X0.6457 Y0.0677 
G01 X0.6484 Y0.0704 
G01 X0.6500 Y0.0732 
G01 X0.6516 Y0.0704 
G01 X0.6543 Y0.0677 
G01 X0.6576 Y0.0658 
G01 X0.6613 Y0.0648 
G01 X0.6887 Y0.0648 
G01 X0.6924 Y0.0658 
G01 X0.6957 Y0.0677 
G01 X0.6984 Y0.0704 
G01 X0.7000 Y0.0732 
G01 X0.7016 Y0.0704 
G01 X0.7043 Y0.0677 
G01 X0.7076 Y0.0658 
G01 X0.7113 Y0.0648 
G01 X0.7387 Y0.0648 
G01 X0.7424 Y0.0658 
G01 X0.7457 Y0.0677 
G01 X0.7484 Y0.0704 
G01 X0.7503 Y0.0737 
G01 X0.7513 Y0.0774 
G01 X0.7513 Y0.1679 
G01 X0.7503 Y0.1715 
G01 X0.7484 Y0.1748 
G01 X0.7458 Y0.1775 
G01 X0.7730 Y0.1775 
G01 X0.7730 Y0.1626 
G01 X0.7740 Y0.1589 
G01 X0.7759 Y0.1556 
G01 X0.7786 Y0.1529 
G01 X0.7819 Y0.1510 
G01 X0.7856 Y0.1500 
G01 X0.7965 Y0.1500 
G01 X0.7856 Y0.1500 
G01 X0.7819 Y0.1490 
G01 X0.7786 Y0.1471 
G01 X0.7759 Y0.1444 
G01 X0.7740 Y0.1411 
G01 X0.7730 Y0.1374 
G01 X0.7730 Y0.0626 
G01 X0.7740 Y0.0589 
G01 X0.7759 Y0.0556 
G01 X0.7786 Y0.0529 
G01 X0.7819 Y0.0510 
G01 X0.7856 Y0.0500 
G01 X0.8524 Y0.0500 
G01 X0.8561 Y0.0510 
G01 X0.8594 Y0.0529 
G01 X0.8621 Y0.0556 
G01 X0.8640 Y0.0589 
G01 X0.8650 Y0.0626 
G01 X0.8650 Y0.1032 
G01 X0.8820 Y0.0862 
G01 X0.8850 Y0.0832 
G01 X0.8850 Y0.0626 
G00 Z0.1000 
G00 X1.6392 Y0.1763 
G01 Z0.0000 F10.00 
G01 X1.5608 Y0.1763 F20.00 
G01 X1.5531 Y0.1751 
G01 X1.5457 Y0.1727 
G01 X1.5387 Y0.1691 
G01 X1.5323 Y0.1645 
G01 X1.5268 Y0.1590 
G01 X1.5243 Y0.1555 
G01 X1.4538 Y0.1555 
G01 X1.4528 Y0.1565 
G01 X1.4462 Y0.1609 
G01 X1.4388 Y0.1639 
G01 X1.4310 Y0.1655 
G01 X1.3710 Y0.1655 
G01 X1.3632 Y0.1639 
G01 X1.3558 Y0.1609 
G01 X1.3492 Y0.1565 
G01 X1.3435 Y0.1508 
G01 X1.3391 Y0.1442 
G01 X1.3361 Y0.1368 
G01 X1.3345 Y0.1290 
G01 X1.3345 Y0.1210 
G01 X1.3361 Y0.1132 
G01 X1.3391 Y0.1058 
G01 X1.3435 Y0.0992 
G01 X1.3492 Y0.0935 
G01 X1.3558 Y0.0891 
G01 X1.3632 Y0.0861 
G01 X1.3710 Y0.0845 
G01 X1.4310 Y0.0845 
G01 X1.4388 Y0.0861 
G01 X1.4462 Y0.0891 
G01 X1.4528 Y0.0935 
G01 X1.4538 Y0.0945 
G01 X1.5266 Y0.0945 
G01 X1.5268 Y0.0942 
G01 X1.5323 Y0.0886 
G01 X1.5387 Y0.0840 
G01 X1.5457 Y0.0805 
G01 X1.5531 Y0.0780 
G01 X1.5608 Y0.0768 
G01 X1.6392 Y0.0768 
G01 X1.6469 Y0.0780 
G01 X1.6543 Y0.0805 
G01 X1.6613 Y0.0840 
G01 X1.6677 Y0.0886 
G01 X1.6732 Y0.0942 
G01 X1.6778 Y0.1005 
G01 X1.6814 Y0.1075 
G01 X1.6838 Y0.1149 
G01 X1.6850 Y0.1227 
G01 X1.6850 Y0.1305 
G01 X1.6838 Y0.1382 
G01 X1.6814 Y0.1457 
G01 X1.6778 Y0.1526 
G01 X1.6732 Y0.1590 
G01 X1.6677 Y0.1645 
G01 X1.6613 Y0.1691 
G01 X1.6543 Y0.1727 
G01 X1.6469 Y0.1751 
G01 X1.6392 Y0.1763 
G00 Z0.1000 
G00 X0.8800 Y0.3189 
G01 Z0.0000 F10.00 
G01 X0.8700 Y0.3089 F20.00 
G01 X0.8700 Y0.3121 
G01 X0.8800 Y0.3221 
G01 X0.8800 Y0.3189 
G00 Z0.1000 
G00 X1.7755 Y0.4005 
G01 Z0.0000 F10.00 
G01 X1.7755 Y0.0495 F20.00 
G01 X0.9750 Y0.0495 
G01 X0.9781 Y0.0525 
G01 X0.9807 Y0.0570 
G01 X0.9820 Y0.0619 
G01 X0.9820 Y0.1053 
G01 X0.9841 Y0.1012 
G01 X0.9883 Y0.0954 
G01 X0.9934 Y0.0903 
G01 X0.9992 Y0.0861 
G01 X1.0055 Y0.0828 
G01 X1.0123 Y0.0806 
G01 X1.0194 Y0.0795 
G01 X1.0786 Y0.0795 
G01 X1.0857 Y0.0806 
G01 X1.0925 Y0.0828 
G01 X1.0988 Y0.0861 
G01 X1.1046 Y0.0903 
G01 X1.1097 Y0.0954 
G01 X1.1139 Y0.1012 
G01 X1.1172 Y0.1075 
G01 X1.1194 Y0.1143 
G01 X1.1205 Y0.1214 
G01 X1.1205 Y0.1286 
G01 X1.1194 Y0.1357 
G01 X1.1172 Y0.1425 
G01 X1.1139 Y0.1488 
G01 X1.1097 Y0.1546 
G01 X1.1046 Y0.1597 
G01 X1.0988 Y0.1639 
G01 X1.0925 Y0.1672 
G01 X1.0857 Y0.1694 
G01 X1.0786 Y0.1705 
G01 X1.0194 Y0.1705 
G01 X1.0123 Y0.1694 
G01 X1.0055 Y0.1672 
G01 X0.9992 Y0.1639 
G01 X0.9934 Y0.1597 
G01 X0.9883 Y0.1546 
G01 X0.9841 Y0.1488 
G01 X0.9808 Y0.1425 
G01 X0.9807 Y0.1430 
G01 X0.9781 Y0.1475 
G01 X0.9755 Y0.1500 
G01 X0.9781 Y0.1525 
G01 X0.9807 Y0.1570 
G01 X0.9820 Y0.1619 
G01 X0.9820 Y0.1733 
G01 X0.9830 Y0.1736 
G01 X0.9880 Y0.1756 
G01 X0.9925 Y0.1786 
G01 X0.9997 Y0.1858 
G01 X1.0055 Y0.1828 
G01 X1.0123 Y0.1806 
G01 X1.0194 Y0.1795 
G01 X1.0786 Y0.1795 
G01 X1.0857 Y0.1806 
G01 X1.0925 Y0.1828 
G01 X1.0988 Y0.1861 
G01 X1.1046 Y0.1903 
G01 X1.1097 Y0.1954 
G01 X1.1139 Y0.2012 
G01 X1.1172 Y0.2075 
G01 X1.1194 Y0.2143 
G01 X1.1205 Y0.2214 
G01 X1.1205 Y0.2286 
G01 X1.1194 Y0.2357 
G01 X1.1172 Y0.2425 
G01 X1.1139 Y0.2488 
G01 X1.1097 Y0.2546 
G01 X1.1046 Y0.2597 
G01 X1.0988 Y0.2639 
G01 X1.0925 Y0.2672 
G01 X1.0857 Y0.2694 
G01 X1.0786 Y0.2705 
G01 X1.0194 Y0.2705 
G01 X1.0123 Y0.2694 
G01 X1.0055 Y0.2672 
G01 X0.9992 Y0.2639 
G01 X0.9934 Y0.2597 
G01 X0.9883 Y0.2546 
G01 X0.9841 Y0.2488 
G01 X0.9830 Y0.2467 
G01 X0.9825 Y0.2464 
G01 X0.9801 Y0.2440 
G01 X0.9781 Y0.2475 
G01 X0.9755 Y0.2500 
G01 X0.9781 Y0.2525 
G01 X0.9807 Y0.2570 
G01 X0.9820 Y0.2619 
G01 X0.9820 Y0.3053 
G01 X0.9841 Y0.3012 
G01 X0.9883 Y0.2954 
G01 X0.9934 Y0.2903 
G01 X0.9992 Y0.2861 
G01 X1.0055 Y0.2828 
G01 X1.0123 Y0.2806 
G01 X1.0194 Y0.2795 
G01 X1.0786 Y0.2795 
G01 X1.0857 Y0.2806 
G01 X1.0925 Y0.2828 
G01 X1.0988 Y0.2861 
G01 X1.1046 Y0.2903 
G01 X1.1097 Y0.2954 
G01 X1.1139 Y0.3012 
G01 X1.1172 Y0.3075 
G01 X1.1194 Y0.3143 
G01 X1.1205 Y0.3214 
G01 X1.1205 Y0.3286 
G01 X1.1194 Y0.3357 
G01 X1.1172 Y0.3425 
G01 X1.1139 Y0.3488 
G01 X1.1097 Y0.3546 
G01 X1.1046 Y0.3597 
G01 X1.0988 Y0.3639 
G01 X1.0925 Y0.3672 
G01 X1.0857 Y0.3694 
G01 X1.0786 Y0.3705 
G01 X1.0194 Y0.3705 
G01 X1.0185 Y0.3704 
G01 X0.9964 Y0.3925 
G01 X0.9925 Y0.3964 
G01 X0.9880 Y0.3994 
G01 X0.9853 Y0.4005 
G01 X1.7755 Y0.4005 
G00 Z0.1000 
G00 X1.4306 Y0.1705 
G01 Z0.0000 F10.00 
G01 X1.3714 Y0.1705 F20.00 
G01 X1.3643 Y0.1694 
G01 X1.3575 Y0.1672 
G01 X1.3512 Y0.1639 
G01 X1.3454 Y0.1597 
G01 X1.3403 Y0.1546 
G01 X1.3361 Y0.1488 
G01 X1.3328 Y0.1425 
G01 X1.3306 Y0.1357 
G01 X1.3295 Y0.1286 
G01 X1.3295 Y0.1214 
G01 X1.3306 Y0.1143 
G01 X1.3328 Y0.1075 
G01 X1.3361 Y0.1012 
G01 X1.3403 Y0.0954 
G01 X1.3454 Y0.0903 
G01 X1.3512 Y0.0861 
G01 X1.3575 Y0.0828 
G01 X1.3643 Y0.0806 
G01 X1.3714 Y0.0795 
G01 X1.4306 Y0.0795 
G01 X1.4377 Y0.0806 
G01 X1.4445 Y0.0828 
G01 X1.4508 Y0.0861 
G01 X1.4555 Y0.0895 
G01 X1.5244 Y0.0895 
G01 X1.5291 Y0.0848 
G01 X1.5361 Y0.0797 
G01 X1.5437 Y0.0758 
G01 X1.5519 Y0.0732 
G01 X1.5604 Y0.0718 
G01 X1.6396 Y0.0718 
G01 X1.6481 Y0.0732 
G01 X1.6563 Y0.0758 
G01 X1.6639 Y0.0797 
G01 X1.6709 Y0.0848 
G01 X1.6770 Y0.0909 
G01 X1.6821 Y0.0979 
G01 X1.6860 Y0.1056 
G01 X1.6887 Y0.1138 
G01 X1.6900 Y0.1223 
G01 X1.6900 Y0.1309 
G01 X1.6887 Y0.1394 
G01 X1.6860 Y0.1476 
G01 X1.6821 Y0.1553 
G01 X1.6770 Y0.1622 
G01 X1.6709 Y0.1683 
G01 X1.6639 Y0.1734 
G01 X1.6563 Y0.1773 
G01 X1.6481 Y0.1800 
G01 X1.6396 Y0.1813 
G01 X1.5604 Y0.1813 
G01 X1.5519 Y0.1800 
G01 X1.5437 Y0.1773 
G01 X1.5361 Y0.1734 
G01 X1.5291 Y0.1683 
G01 X1.5230 Y0.1622 
G01 X1.5217 Y0.1605 
G01 X1.4555 Y0.1605 
G01 X1.4508 Y0.1639 
G01 X1.4445 Y0.1672 
G01 X1.4377 Y0.1694 
G01 X1.4306 Y0.1705 
G00 Z0.1000 
G00 X1.4306 Y0.2705 
G01 Z0.0000 F10.00 
G01 X1.3714 Y0.2705 F20.00 
G01 X1.3643 Y0.2694 
G01 X1.3575 Y0.2672 
G01 X1.3512 Y0.2639 
G01 X1.3454 Y0.2597 
G01 X1.3403 Y0.2546 
G01 X1.3361 Y0.2488 
G01 X1.3328 Y0.2425 
G01 X1.3306 Y0.2357 
G01 X1.3295 Y0.2286 
G01 X1.3295 Y0.2214 
G01 X1.3306 Y0.2143 
G01 X1.3328 Y0.2075 
G01 X1.3361 Y0.2012 
G01 X1.3403 Y0.1954 
G01 X1.3454 Y0.1903 
G01 X1.3512 Y0.1861 
G01 X1.3575 Y0.1828 
G01 X1.3643 Y0.1806 
G01 X1.3714 Y0.1795 
G01 X1.4306 Y0.1795 
G01 X1.4377 Y0.1806 
G01 X1.4445 Y0.1828 
G01 X1.4508 Y0.1861 
G01 X1.4566 Y0.1903 
G01 X1.4617 Y0.1954 
G01 X1.4659 Y0.2012 
G01 X1.4692 Y0.2075 
G01 X1.4714 Y0.2143 
G01 X1.4725 Y0.2214 
G01 X1.4725 Y0.2286 
G01 X1.4714 Y0.2357 
G01 X1.4692 Y0.2425 
G01 X1.4659 Y0.2488 
G01 X1.4617 Y0.2546 
G01 X1.4566 Y0.2597 
G01 X1.4508 Y0.2639 
G01 X1.4445 Y0.2672 
G01 X1.4377 Y0.2694 
G01 X1.4306 Y0.2705 
G00 Z0.1000 
G00 X1.6396 Y0.3782 
G01 Z0.0000 F10.00 
G01 X1.5604 Y0.3782 F20.00 
G01 X1.5519 Y0.3768 
G01 X1.5437 Y0.3742 
G01 X1.5361 Y0.3703 
G01 X1.5291 Y0.3652 
G01 X1.5244 Y0.3605 
G01 X1.4555 Y0.3605 
G01 X1.4508 Y0.3639 
G01 X1.4445 Y0.3672 
G01 X1.4377 Y0.3694 
G01 X1.4306 Y0.3705 
G01 X1.3714 Y0.3705 
G01 X1.3643 Y0.3694 
G01 X1.3575 Y0.3672 
G01 X1.3512 Y0.3639 
G01 X1.3454 Y0.3597 
G01 X1.3403 Y0.3546 
G01 X1.3361 Y0.3488 
G01 X1.3328 Y0.3425 
G01 X1.3306 Y0.3357 
G01 X1.3295 Y0.3286 
G01 X1.3295 Y0.3214 
G01 X1.3306 Y0.3143 
G01 X1.3328 Y0.3075 
G01 X1.3361 Y0.3012 
G01 X1.3403 Y0.2954 
G01 X1.3454 Y0.2903 
G01 X1.3512 Y0.2861 
G01 X1.3575 Y0.2828 
G01 X1.3643 Y0.2806 
G01 X1.3714 Y0.2795 
G01 X1.4306 Y0.2795 
G01 X1.4377 Y0.2806 
G01 X1.4445 Y0.2828 
G01 X1.4508 Y0.2861 
G01 X1.4555 Y0.2895 
G01 X1.5217 Y0.2895 
G01 X1.5230 Y0.2878 
G01 X1.5291 Y0.2817 
G01 X1.5361 Y0.2766 
G01 X1.5437 Y0.2727 
G01 X1.5519 Y0.2700 
G01 X1.5604 Y0.2687 
G01 X1.6396 Y0.2687 
G01 X1.6481 Y0.2700 
G01 X1.6563 Y0.2727 
G01 X1.6639 Y0.2766 
G01 X1.6709 Y0.2817 
G01 X1.6770 Y0.2878 
G01 X1.6821 Y0.2947 
G01 X1.6860 Y0.3024 
G01 X1.6887 Y0.3106 
G01 X1.6900 Y0.3191 
G01 X1.6900 Y0.3277 
G01 X1.6887 Y0.3362 
G01 X1.6860 Y0.3444 
G01 X1.6821 Y0.3521 
G01 X1.6770 Y0.3591 
G01 X1.6709 Y0.3652 
G01 X1.6639 Y0.3703 
G01 X1.6563 Y0.3742 
G01 X1.6481 Y0.3768 
G01 X1.6396 Y0.3782 
G00 Z0.1000 
G00 X0.2220 Y0.1963 
G01 Z0.0000 F10.00 
G01 X0.2220 Y0.2037 F20.00 
G01 X0.2208 Y0.2110 
G01 X0.2186 Y0.2180 
G01 X0.2152 Y0.2246 
G01 X0.2108 Y0.2306 
G01 X0.2056 Y0.2358 
G01 X0.1996 Y0.2402 
G01 X0.1930 Y0.2436 
G01 X0.1860 Y0.2458 
G01 X0.1787 Y0.2470 
G01 X0.1713 Y0.2470 
G01 X0.1640 Y0.2458 
G01 X0.1570 Y0.2436 
G01 X0.1504 Y0.2402 
G01 X0.1444 Y0.2358 
G01 X0.1392 Y0.2306 
G01 X0.1348 Y0.2246 
G01 X0.1314 Y0.2180 
G01 X0.1292 Y0.2110 
G01 X0.1280 Y0.2037 
G01 X0.1280 Y0.1963 
G01 X0.1292 Y0.1890 
G01 X0.1314 Y0.1820 
G01 X0.1348 Y0.1754 
G01 X0.1392 Y0.1694 
G01 X0.1444 Y0.1642 
G01 X0.1475 Y0.1619 
G01 X0.1475 Y0.1223 
G01 X0.1486 Y0.1170 
G01 X0.1506 Y0.1120 
G01 X0.1536 Y0.1075 
G01 X0.1575 Y0.1036 
G01 X0.1825 Y0.0786 
G01 X0.1870 Y0.0756 
G01 X0.1920 Y0.0736 
G01 X0.1973 Y0.0725 
G01 X0.4527 Y0.0725 
G01 X0.4580 Y0.0736 
G01 X0.4630 Y0.0756 
G01 X0.4675 Y0.0786 
G01 X0.4714 Y0.0825 
G01 X0.4925 Y0.1036 
G01 X0.4964 Y0.1075 
G01 X0.4994 Y0.1120 
G01 X0.5014 Y0.1170 
G01 X0.5017 Y0.1180 
G01 X0.5131 Y0.1180 
G01 X0.5180 Y0.1193 
G01 X0.5225 Y0.1219 
G01 X0.5261 Y0.1255 
G01 X0.5287 Y0.1300 
G01 X0.5300 Y0.1350 
G01 X0.5300 Y0.1811 
G01 X0.5437 Y0.1674 
G01 X0.5437 Y0.0768 
G01 X0.5450 Y0.0718 
G01 X0.5476 Y0.0674 
G01 X0.5512 Y0.0637 
G01 X0.5557 Y0.0612 
G01 X0.5606 Y0.0598 
G01 X0.5894 Y0.0598 
G01 X0.5943 Y0.0612 
G01 X0.5988 Y0.0637 
G01 X0.6000 Y0.0649 
G01 X0.6012 Y0.0637 
G01 X0.6057 Y0.0612 
G01 X0.6106 Y0.0598 
G01 X0.6394 Y0.0598 
G01 X0.6443 Y0.0612 
G01 X0.6488 Y0.0637 
G01 X0.6500 Y0.0649 
G01 X0.6512 Y0.0637 
G01 X0.6557 Y0.0612 
G01 X0.6606 Y0.0598 
G01 X0.6894 Y0.0598 
G01 X0.6943 Y0.0612 
G01 X0.6988 Y0.0637 
G01 X0.7000 Y0.0649 
G01 X0.7012 Y0.0637 
G01 X0.7057 Y0.0612 
G01 X0.7106 Y0.0598 
G01 X0.7394 Y0.0598 
G01 X0.7443 Y0.0612 
G01 X0.7488 Y0.0637 
G01 X0.7524 Y0.0674 
G01 X0.7550 Y0.0718 
G01 X0.7563 Y0.0768 
G01 X0.7563 Y0.1685 
G01 X0.7552 Y0.1725 
G01 X0.7680 Y0.1725 
G01 X0.7680 Y0.1619 
G01 X0.7693 Y0.1570 
G01 X0.7719 Y0.1525 
G01 X0.7745 Y0.1500 
G01 X0.7719 Y0.1475 
G01 X0.7693 Y0.1430 
G01 X0.7680 Y0.1381 
G01 X0.7680 Y0.0619 
G01 X0.7693 Y0.0570 
G01 X0.7719 Y0.0525 
G01 X0.7750 Y0.0495 
G01 X0.1465 Y0.0495 
G01 X0.1459 Y0.0515 
G01 X0.1414 Y0.0613 
G01 X0.1356 Y0.0704 
G01 X0.1285 Y0.0785 
G01 X0.1204 Y0.0856 
G01 X0.1113 Y0.0914 
G01 X0.1015 Y0.0959 
G01 X0.0911 Y0.0990 
G01 X0.0804 Y0.1005 
G01 X0.0696 Y0.1005 
G01 X0.0589 Y0.0990 
G01 X0.0485 Y0.0959 
G01 X0.0387 Y0.0914 
G01 X0.0296 Y0.0856 
G01 X0.0245 Y0.0811 
G01 X0.0245 Y0.3689 
G01 X0.0296 Y0.3644 
G01 X0.0387 Y0.3586 
G01 X0.0485 Y0.3541 
G01 X0.0589 Y0.3510 
G01 X0.0696 Y0.3495 
G01 X0.0804 Y0.3495 
G01 X0.0911 Y0.3510 
G01 X0.1015 Y0.3541 
G01 X0.1113 Y0.3586 
G01 X0.1204 Y0.3644 
G01 X0.1285 Y0.3715 
G01 X0.1356 Y0.3796 
G01 X0.1414 Y0.3887 
G01 X0.1459 Y0.3985 
G01 X0.1465 Y0.4005 
G01 X0.8837 Y0.4005 
G01 X0.8810 Y0.3994 
G01 X0.8765 Y0.3964 
G01 X0.8727 Y0.3925 
G01 X0.8351 Y0.3550 
G01 X0.7850 Y0.3550 
G01 X0.7800 Y0.3537 
G01 X0.7755 Y0.3511 
G01 X0.7719 Y0.3475 
G01 X0.7693 Y0.3430 
G01 X0.7680 Y0.3381 
G01 X0.7680 Y0.3069 
G01 X0.7563 Y0.2952 
G01 X0.7563 Y0.3732 
G01 X0.7550 Y0.3782 
G01 X0.7524 Y0.3826 
G01 X0.7488 Y0.3863 
G01 X0.7443 Y0.3888 
G01 X0.7394 Y0.3902 
G01 X0.7106 Y0.3902 
G01 X0.7057 Y0.3888 
G01 X0.7012 Y0.3863 
G01 X0.7000 Y0.3851 
G01 X0.6988 Y0.3863 
G01 X0.6943 Y0.3888 
G01 X0.6894 Y0.3902 
G01 X0.6606 Y0.3902 
G01 X0.6557 Y0.3888 
G01 X0.6512 Y0.3863 
G01 X0.6500 Y0.3851 
G01 X0.6488 Y0.3863 
G01 X0.6443 Y0.3888 
G01 X0.6394 Y0.3902 
G01 X0.6106 Y0.3902 
G01 X0.6057 Y0.3888 
G01 X0.6012 Y0.3863 
G01 X0.6000 Y0.3851 
G01 X0.5988 Y0.3863 
G01 X0.5943 Y0.3888 
G01 X0.5894 Y0.3902 
G01 X0.5606 Y0.3902 
G01 X0.5557 Y0.3888 
G01 X0.5512 Y0.3863 
G01 X0.5476 Y0.3826 
G01 X0.5450 Y0.3782 
G01 X0.5448 Y0.3775 
G01 X0.1973 Y0.3775 
G01 X0.1920 Y0.3764 
G01 X0.1870 Y0.3744 
G01 X0.1825 Y0.3714 
G01 X0.1786 Y0.3675 
G01 X0.1536 Y0.3425 
G01 X0.1530 Y0.3415 
G01 X0.1504 Y0.3402 
G01 X0.1444 Y0.3358 
G01 X0.1392 Y0.3306 
G01 X0.1348 Y0.3246 
G01 X0.1314 Y0.3180 
G01 X0.1292 Y0.3110 
G01 X0.1280 Y0.3037 
G01 X0.1280 Y0.2963 
G01 X0.1292 Y0.2890 
G01 X0.1314 Y0.2820 
G01 X0.1348 Y0.2754 
G01 X0.1392 Y0.2694 
G01 X0.1444 Y0.2642 
G01 X0.1504 Y0.2598 
G01 X0.1570 Y0.2564 
G01 X0.1640 Y0.2542 
G01 X0.1713 Y0.2530 
G01 X0.1787 Y0.2530 
G01 X0.1860 Y0.2542 
G01 X0.1930 Y0.2564 
G01 X0.1996 Y0.2598 
G01 X0.2056 Y0.2642 
G01 X0.2108 Y0.2694 
G01 X0.2152 Y0.2754 
G01 X0.2186 Y0.2820 
G01 X0.2208 Y0.2890 
G01 X0.2220 Y0.2963 
G01 X0.2220 Y0.3037 
G01 X0.2208 Y0.3110 
G01 X0.2186 Y0.3180 
G01 X0.2163 Y0.3225 
G01 X0.3233 Y0.3225 
G01 X0.3214 Y0.3191 
G01 X0.3201 Y0.3142 
G01 X0.3201 Y0.2634 
G01 X0.3186 Y0.2680 
G01 X0.3152 Y0.2746 
G01 X0.3108 Y0.2806 
G01 X0.3056 Y0.2858 
G01 X0.2996 Y0.2902 
G01 X0.2930 Y0.2936 
G01 X0.2860 Y0.2958 
G01 X0.2787 Y0.2970 
G01 X0.2713 Y0.2970 
G01 X0.2640 Y0.2958 
G01 X0.2570 Y0.2936 
G01 X0.2504 Y0.2902 
G01 X0.2444 Y0.2858 
G01 X0.2392 Y0.2806 
G01 X0.2348 Y0.2746 
G01 X0.2314 Y0.2680 
G01 X0.2292 Y0.2610 
G01 X0.2280 Y0.2537 
G01 X0.2280 Y0.2463 
G01 X0.2292 Y0.2390 
G01 X0.2314 Y0.2320 
G01 X0.2348 Y0.2254 
G01 X0.2392 Y0.2194 
G01 X0.2444 Y0.2142 
G01 X0.2504 Y0.2098 
G01 X0.2570 Y0.2064 
G01 X0.2640 Y0.2042 
G01 X0.2713 Y0.2030 
G01 X0.2787 Y0.2030 
G01 X0.2825 Y0.2036 
G01 X0.2870 Y0.2006 
G01 X0.2920 Y0.1986 
G01 X0.2973 Y0.1975 
G01 X0.3201 Y0.1975 
G01 X0.3201 Y0.1634 
G01 X0.3186 Y0.1680 
G01 X0.3152 Y0.1746 
G01 X0.3108 Y0.1806 
G01 X0.3056 Y0.1858 
G01 X0.2996 Y0.1902 
G01 X0.2930 Y0.1936 
G01 X0.2860 Y0.1958 
G01 X0.2787 Y0.1970 
G01 X0.2713 Y0.1970 
G01 X0.2640 Y0.1958 
G01 X0.2570 Y0.1936 
G01 X0.2504 Y0.1902 
G01 X0.2444 Y0.1858 
G01 X0.2392 Y0.1806 
G01 X0.2348 Y0.1746 
G01 X0.2314 Y0.1680 
G01 X0.2292 Y0.1610 
G01 X0.2280 Y0.1537 
G01 X0.2280 Y0.1463 
G01 X0.2292 Y0.1390 
G01 X0.2314 Y0.1320 
G01 X0.2337 Y0.1275 
G01 X0.2114 Y0.1275 
G01 X0.2025 Y0.1364 
G01 X0.2025 Y0.1619 
G01 X0.2056 Y0.1642 
G01 X0.2108 Y0.1694 
G01 X0.2152 Y0.1754 
G01 X0.2186 Y0.1820 
G01 X0.2208 Y0.1890 
G01 X0.2220 Y0.1963 
G00 Z0.1000 
G00 X0.7680 Y0.2275 
G01 Z0.0000 F10.00 
G01 X0.7664 Y0.2275 F20.00 
G01 X0.7680 Y0.2291 
G01 X0.7680 Y0.2275 
G00 Z0.1000 
G00 X0.5994 Y0.1880 
G01 Z0.0000 F10.00 
G01 X0.5964 Y0.1925 F20.00 
G01 X0.5925 Y0.1964 
G01 X0.5664 Y0.2225 
G01 X0.6336 Y0.2225 
G01 X0.6075 Y0.1964 
G01 X0.6036 Y0.1925 
G01 X0.6006 Y0.1880 
G01 X0.6000 Y0.1865 
G01 X0.5994 Y0.1880 
G00 Z0.1000 
G00 X0.8800 Y0.0619 
G01 Z0.0000 F10.00 
G01 X0.8813 Y0.0570 F20.00 
G01 X0.8839 Y0.0525 
G01 X0.8869 Y0.0495 
G01 X0.8631 Y0.0495 
G01 X0.8661 Y0.0525 
G01 X0.8687 Y0.0570 
G01 X0.8700 Y0.0619 
G01 X0.8700 Y0.0911 
G01 X0.8786 Y0.0825 
G01 X0.8800 Y0.0811 
G01 X0.8800 Y0.0619 
G00 Z0.1000 
G00 X0.3186 Y0.1320 
G01 Z0.0000 F10.00 
G01 X0.3201 Y0.1366 F20.00 
G01 X0.3201 Y0.1358 
G01 X0.3214 Y0.1309 
G01 X0.3233 Y0.1275 
G01 X0.3163 Y0.1275 
G01 X0.3186 Y0.1320 
G00 Z0.1000 
G00 X0.5300 Y0.3150 
G01 Z0.0000 F10.00 
G01 X0.5287 Y0.3200 F20.00 
G01 X0.5272 Y0.3225 
G01 X0.5437 Y0.3225 
G01 X0.5437 Y0.2952 
G01 X0.5365 Y0.3023 
G01 X0.5320 Y0.3054 
G01 X0.5300 Y0.3062 
G01 X0.5300 Y0.3150 
G00 Z0.1000 
G00 X0.5350 Y0.3149 
G01 Z0.0000 F10.00 
G01 X0.5345 Y0.3175 F20.00 
G01 X0.5387 Y0.3175 
G01 X0.5387 Y0.3069 
G01 X0.5350 Y0.3094 
G01 X0.5350 Y0.3149 
G00 Z0.1000 
G00 X1.7705 Y0.3955 
G01 Z0.0000 F10.00 
G01 X1.7705 Y0.0545 F20.00 
G01 X0.9849 Y0.0545 
G01 X0.9860 Y0.0574 
G01 X0.9870 Y0.0621 
G01 X0.9870 Y0.0896 
G01 X0.9901 Y0.0865 
G01 X0.9965 Y0.0818 
G01 X1.0036 Y0.0782 
G01 X1.0112 Y0.0757 
G01 X1.0190 Y0.0745 
G01 X1.0790 Y0.0745 
G01 X1.0868 Y0.0757 
G01 X1.0944 Y0.0782 
G01 X1.1015 Y0.0818 
G01 X1.1079 Y0.0865 
G01 X1.1135 Y0.0921 
G01 X1.1182 Y0.0985 
G01 X1.1218 Y0.1056 
G01 X1.1243 Y0.1132 
G01 X1.1255 Y0.1210 
G01 X1.1255 Y0.1290 
G01 X1.1243 Y0.1368 
G01 X1.1218 Y0.1444 
G01 X1.1182 Y0.1515 
G01 X1.1135 Y0.1579 
G01 X1.1079 Y0.1635 
G01 X1.1015 Y0.1682 
G01 X1.0944 Y0.1718 
G01 X1.0868 Y0.1743 
G01 X1.0821 Y0.1750 
G01 X1.0868 Y0.1757 
G01 X1.0944 Y0.1782 
G01 X1.1015 Y0.1818 
G01 X1.1079 Y0.1865 
G01 X1.1135 Y0.1921 
G01 X1.1182 Y0.1985 
G01 X1.1218 Y0.2056 
G01 X1.1243 Y0.2132 
G01 X1.1255 Y0.2210 
G01 X1.1255 Y0.2290 
G01 X1.1243 Y0.2368 
G01 X1.1218 Y0.2444 
G01 X1.1182 Y0.2515 
G01 X1.1135 Y0.2579 
G01 X1.1079 Y0.2635 
G01 X1.1015 Y0.2682 
G01 X1.0944 Y0.2718 
G01 X1.0868 Y0.2743 
G01 X1.0821 Y0.2750 
G01 X1.0868 Y0.2757 
G01 X1.0944 Y0.2782 
G01 X1.1015 Y0.2818 
G01 X1.1079 Y0.2865 
G01 X1.1135 Y0.2921 
G01 X1.1182 Y0.2985 
G01 X1.1218 Y0.3056 
G01 X1.1243 Y0.3132 
G01 X1.1255 Y0.3210 
G01 X1.1255 Y0.3290 
G01 X1.1243 Y0.3368 
G01 X1.1218 Y0.3444 
G01 X1.1182 Y0.3515 
G01 X1.1135 Y0.3579 
G01 X1.1079 Y0.3635 
G01 X1.1015 Y0.3682 
G01 X1.0944 Y0.3718 
G01 X1.0868 Y0.3743 
G01 X1.0790 Y0.3755 
G01 X1.0205 Y0.3755 
G01 X1.0005 Y0.3955 
G01 X1.7705 Y0.3955 
G00 Z0.1000 
G00 X1.6400 Y0.1863 
G01 Z0.0000 F10.00 
G01 X1.5600 Y0.1863 F20.00 
G01 X1.5508 Y0.1849 
G01 X1.5418 Y0.1819 
G01 X1.5334 Y0.1777 
G01 X1.5258 Y0.1721 
G01 X1.5192 Y0.1655 
G01 X1.4572 Y0.1655 
G01 X1.4535 Y0.1682 
G01 X1.4464 Y0.1718 
G01 X1.4388 Y0.1743 
G01 X1.4341 Y0.1750 
G01 X1.4388 Y0.1757 
G01 X1.4464 Y0.1782 
G01 X1.4535 Y0.1818 
G01 X1.4599 Y0.1865 
G01 X1.4655 Y0.1921 
G01 X1.4702 Y0.1985 
G01 X1.4738 Y0.2056 
G01 X1.4763 Y0.2132 
G01 X1.4775 Y0.2210 
G01 X1.4775 Y0.2290 
G01 X1.4763 Y0.2368 
G01 X1.4738 Y0.2444 
G01 X1.4702 Y0.2515 
G01 X1.4655 Y0.2579 
G01 X1.4599 Y0.2635 
G01 X1.4535 Y0.2682 
G01 X1.4464 Y0.2718 
G01 X1.4388 Y0.2743 
G01 X1.4341 Y0.2750 
G01 X1.4388 Y0.2757 
G01 X1.4464 Y0.2782 
G01 X1.4535 Y0.2818 
G01 X1.4572 Y0.2845 
G01 X1.5192 Y0.2845 
G01 X1.5258 Y0.2779 
G01 X1.5334 Y0.2723 
G01 X1.5418 Y0.2681 
G01 X1.5508 Y0.2651 
G01 X1.5600 Y0.2637 
G01 X1.6400 Y0.2637 
G01 X1.6492 Y0.2651 
G01 X1.6582 Y0.2681 
G01 X1.6666 Y0.2723 
G01 X1.6742 Y0.2779 
G01 X1.6808 Y0.2845 
G01 X1.6864 Y0.2921 
G01 X1.6906 Y0.3005 
G01 X1.6935 Y0.3094 
G01 X1.6950 Y0.3187 
G01 X1.6950 Y0.3281 
G01 X1.6935 Y0.3374 
G01 X1.6906 Y0.3464 
G01 X1.6864 Y0.3547 
G01 X1.6808 Y0.3623 
G01 X1.6742 Y0.3690 
G01 X1.6666 Y0.3745 
G01 X1.6582 Y0.3788 
G01 X1.6492 Y0.3817 
G01 X1.6400 Y0.3832 
G01 X1.5600 Y0.3832 
G01 X1.5508 Y0.3817 
G01 X1.5418 Y0.3788 
G01 X1.5334 Y0.3745 
G01 X1.5258 Y0.3690 
G01 X1.5223 Y0.3655 
G01 X1.4572 Y0.3655 
G01 X1.4535 Y0.3682 
G01 X1.4464 Y0.3718 
G01 X1.4388 Y0.3743 
G01 X1.4310 Y0.3755 
G01 X1.3710 Y0.3755 
G01 X1.3632 Y0.3743 
G01 X1.3556 Y0.3718 
G01 X1.3485 Y0.3682 
G01 X1.3421 Y0.3635 
G01 X1.3365 Y0.3579 
G01 X1.3318 Y0.3515 
G01 X1.3282 Y0.3444 
G01 X1.3257 Y0.3368 
G01 X1.3245 Y0.3290 
G01 X1.3245 Y0.3210 
G01 X1.3257 Y0.3132 
G01 X1.3282 Y0.3056 
G01 X1.3318 Y0.2985 
G01 X1.3365 Y0.2921 
G01 X1.3421 Y0.2865 
G01 X1.3485 Y0.2818 
G01 X1.3556 Y0.2782 
G01 X1.3632 Y0.2757 
G01 X1.3679 Y0.2750 
G01 X1.3632 Y0.2743 
G01 X1.3556 Y0.2718 
G01 X1.3485 Y0.2682 
G01 X1.3421 Y0.2635 
G01 X1.3365 Y0.2579 
G01 X1.3318 Y0.2515 
G01 X1.3282 Y0.2444 
G01 X1.3257 Y0.2368 
G01 X1.3245 Y0.2290 
G01 X1.3245 Y0.2210 
G01 X1.3257 Y0.2132 
G01 X1.3282 Y0.2056 
G01 X1.3318 Y0.1985 
G01 X1.3365 Y0.1921 
G01 X1.3421 Y0.1865 
G01 X1.3485 Y0.1818 
G01 X1.3556 Y0.1782 
G01 X1.3632 Y0.1757 
G01 X1.3679 Y0.1750 
G01 X1.3632 Y0.1743 
G01 X1.3556 Y0.1718 
G01 X1.3485 Y0.1682 
G01 X1.3421 Y0.1635 
G01 X1.3365 Y0.1579 
G01 X1.3318 Y0.1515 
G01 X1.3282 Y0.1444 
G01 X1.3257 Y0.1368 
G01 X1.3245 Y0.1290 
G01 X1.3245 Y0.1210 
G01 X1.3257 Y0.1132 
G01 X1.3282 Y0.1056 
G01 X1.3318 Y0.0985 
G01 X1.3365 Y0.0921 
G01 X1.3421 Y0.0865 
G01 X1.3485 Y0.0818 
G01 X1.3556 Y0.0782 
G01 X1.3632 Y0.0757 
G01 X1.3710 Y0.0745 
G01 X1.4310 Y0.0745 
G01 X1.4388 Y0.0757 
G01 X1.4464 Y0.0782 
G01 X1.4535 Y0.0818 
G01 X1.4572 Y0.0845 
G01 X1.5223 Y0.0845 
G01 X1.5258 Y0.0810 
G01 X1.5334 Y0.0755 
G01 X1.5418 Y0.0712 
G01 X1.5508 Y0.0683 
G01 X1.5600 Y0.0668 
G01 X1.6400 Y0.0668 
G01 X1.6492 Y0.0683 
G01 X1.6582 Y0.0712 
G01 X1.6666 Y0.0755 
G01 X1.6742 Y0.0810 
G01 X1.6808 Y0.0877 
G01 X1.6864 Y0.0953 
G01 X1.6906 Y0.1036 
G01 X1.6935 Y0.1126 
G01 X1.6950 Y0.1219 
G01 X1.6950 Y0.1313 
G01 X1.6935 Y0.1406 
G01 X1.6906 Y0.1495 
G01 X1.6864 Y0.1579 
G01 X1.6808 Y0.1655 
G01 X1.6742 Y0.1721 
G01 X1.6666 Y0.1777 
G01 X1.6582 Y0.1819 
G01 X1.6492 Y0.1849 
G01 X1.6400 Y0.1863 
G00 Z0.1000 
G00 X0.6484 Y0.3924 
G01 Z0.0000 F10.00 
G01 X0.6440 Y0.3942 F20.00 
G01 X0.6392 Y0.3952 
G01 X0.6108 Y0.3952 
G01 X0.6060 Y0.3942 
G01 X0.6016 Y0.3924 
G01 X0.6000 Y0.3913 
G01 X0.5984 Y0.3924 
G01 X0.5940 Y0.3942 
G01 X0.5892 Y0.3952 
G01 X0.5608 Y0.3952 
G01 X0.5560 Y0.3942 
G01 X0.5516 Y0.3924 
G01 X0.5476 Y0.3897 
G01 X0.5442 Y0.3863 
G01 X0.5416 Y0.3825 
G01 X0.1968 Y0.3825 
G01 X0.1905 Y0.3813 
G01 X0.1846 Y0.3788 
G01 X0.1793 Y0.3752 
G01 X0.1748 Y0.3707 
G01 X0.1498 Y0.3457 
G01 X0.1495 Y0.3454 
G01 X0.1477 Y0.3445 
G01 X0.1411 Y0.3397 
G01 X0.1353 Y0.3339 
G01 X0.1305 Y0.3273 
G01 X0.1268 Y0.3200 
G01 X0.1243 Y0.3122 
G01 X0.1230 Y0.3041 
G01 X0.1230 Y0.2959 
G01 X0.1243 Y0.2878 
G01 X0.1268 Y0.2800 
G01 X0.1305 Y0.2727 
G01 X0.1353 Y0.2661 
G01 X0.1411 Y0.2603 
G01 X0.1477 Y0.2555 
G01 X0.1550 Y0.2518 
G01 X0.1606 Y0.2500 
G01 X0.1550 Y0.2482 
G01 X0.1477 Y0.2445 
G01 X0.1411 Y0.2397 
G01 X0.1353 Y0.2339 
G01 X0.1305 Y0.2273 
G01 X0.1268 Y0.2200 
G01 X0.1243 Y0.2122 
G01 X0.1230 Y0.2041 
G01 X0.1230 Y0.1959 
G01 X0.1243 Y0.1878 
G01 X0.1268 Y0.1800 
G01 X0.1305 Y0.1727 
G01 X0.1353 Y0.1661 
G01 X0.1411 Y0.1603 
G01 X0.1425 Y0.1593 
G01 X0.1425 Y0.1218 
G01 X0.1437 Y0.1155 
G01 X0.1462 Y0.1096 
G01 X0.1498 Y0.1043 
G01 X0.1543 Y0.0998 
G01 X0.1793 Y0.0748 
G01 X0.1846 Y0.0712 
G01 X0.1905 Y0.0687 
G01 X0.1968 Y0.0675 
G01 X0.4532 Y0.0675 
G01 X0.4595 Y0.0687 
G01 X0.4654 Y0.0712 
G01 X0.4707 Y0.0748 
G01 X0.4752 Y0.0793 
G01 X0.4957 Y0.0998 
G01 X0.5002 Y0.1043 
G01 X0.5038 Y0.1096 
G01 X0.5052 Y0.1130 
G01 X0.5129 Y0.1130 
G01 X0.5176 Y0.1140 
G01 X0.5221 Y0.1158 
G01 X0.5261 Y0.1185 
G01 X0.5295 Y0.1219 
G01 X0.5322 Y0.1259 
G01 X0.5341 Y0.1304 
G01 X0.5350 Y0.1351 
G01 X0.5350 Y0.1690 
G01 X0.5387 Y0.1653 
G01 X0.5387 Y0.0769 
G01 X0.5396 Y0.0722 
G01 X0.5415 Y0.0677 
G01 X0.5442 Y0.0637 
G01 X0.5476 Y0.0603 
G01 X0.5516 Y0.0576 
G01 X0.5560 Y0.0558 
G01 X0.5608 Y0.0548 
G01 X0.5892 Y0.0548 
G01 X0.5940 Y0.0558 
G01 X0.5984 Y0.0576 
G01 X0.6000 Y0.0587 
G01 X0.6016 Y0.0576 
G01 X0.6060 Y0.0558 
G01 X0.6108 Y0.0548 
G01 X0.6392 Y0.0548 
G01 X0.6440 Y0.0558 
G01 X0.6484 Y0.0576 
G01 X0.6500 Y0.0587 
G01 X0.6516 Y0.0576 
G01 X0.6560 Y0.0558 
G01 X0.6608 Y0.0548 
G01 X0.6892 Y0.0548 
G01 X0.6940 Y0.0558 
G01 X0.6984 Y0.0576 
G01 X0.7000 Y0.0587 
G01 X0.7016 Y0.0576 
G01 X0.7060 Y0.0558 
G01 X0.7108 Y0.0548 
G01 X0.7392 Y0.0548 
G01 X0.7440 Y0.0558 
G01 X0.7484 Y0.0576 
G01 X0.7524 Y0.0603 
G01 X0.7558 Y0.0637 
G01 X0.7585 Y0.0677 
G01 X0.7604 Y0.0722 
G01 X0.7613 Y0.0769 
G01 X0.7613 Y0.1675 
G01 X0.7630 Y0.1675 
G01 X0.7630 Y0.1621 
G01 X0.7640 Y0.1574 
G01 X0.7658 Y0.1529 
G01 X0.7677 Y0.1500 
G01 X0.7658 Y0.1471 
G01 X0.7640 Y0.1426 
G01 X0.7630 Y0.1379 
G01 X0.7630 Y0.0621 
G01 X0.7640 Y0.0574 
G01 X0.7651 Y0.0545 
G01 X0.1500 Y0.0545 
G01 X0.1466 Y0.0621 
G01 X0.1409 Y0.0715 
G01 X0.1340 Y0.0801 
G01 X0.1259 Y0.0876 
G01 X0.1169 Y0.0939 
G01 X0.1071 Y0.0990 
G01 X0.0968 Y0.1027 
G01 X0.0860 Y0.1049 
G01 X0.0750 Y0.1057 
G01 X0.0640 Y0.1049 
G01 X0.0532 Y0.1027 
G01 X0.0429 Y0.0990 
G01 X0.0331 Y0.0939 
G01 X0.0295 Y0.0914 
G01 X0.0295 Y0.3586 
G01 X0.0331 Y0.3561 
G01 X0.0429 Y0.3510 
G01 X0.0532 Y0.3473 
G01 X0.0640 Y0.3451 
G01 X0.0750 Y0.3443 
G01 X0.0860 Y0.3451 
G01 X0.0968 Y0.3473 
G01 X0.1071 Y0.3510 
G01 X0.1169 Y0.3561 
G01 X0.1259 Y0.3624 
G01 X0.1340 Y0.3699 
G01 X0.1409 Y0.3785 
G01 X0.1466 Y0.3879 
G01 X0.1500 Y0.3955 
G01 X0.8686 Y0.3955 
G01 X0.8330 Y0.3600 
G01 X0.7851 Y0.3600 
G01 X0.7804 Y0.3591 
G01 X0.7759 Y0.3572 
G01 X0.7719 Y0.3545 
G01 X0.7685 Y0.3511 
G01 X0.7658 Y0.3471 
G01 X0.7640 Y0.3426 
G01 X0.7630 Y0.3379 
G01 X0.7630 Y0.3090 
G01 X0.7613 Y0.3073 
G01 X0.7613 Y0.3731 
G01 X0.7604 Y0.3778 
G01 X0.7585 Y0.3823 
G01 X0.7558 Y0.3863 
G01 X0.7524 Y0.3897 
G01 X0.7484 Y0.3924 
G01 X0.7440 Y0.3942 
G01 X0.7392 Y0.3952 
G01 X0.7108 Y0.3952 
G01 X0.7060 Y0.3942 
G01 X0.7016 Y0.3924 
G01 X0.7000 Y0.3913 
G01 X0.6984 Y0.3924 
G01 X0.6940 Y0.3942 
G01 X0.6892 Y0.3952 
G01 X0.6608 Y0.3952 
G01 X0.6560 Y0.3942 
G01 X0.6516 Y0.3924 
G01 X0.6500 Y0.3913 
G01 X0.6484 Y0.3924 
G00 Z0.1000 
G00 X0.5957 Y0.2002 
G01 Z0.0000 F10.00 
G01 X0.5957 Y0.2002 F20.00 
G01 X0.5785 Y0.2175 
G01 X0.6215 Y0.2175 
G01 X0.6043 Y0.2002 
G01 X0.6000 Y0.1960 
G01 X0.5957 Y0.2002 
G00 Z0.1000 
G00 X0.2089 Y0.1603 
G01 Z0.0000 F10.00 
G01 X0.2147 Y0.1661 F20.00 
G01 X0.2195 Y0.1727 
G01 X0.2232 Y0.1800 
G01 X0.2257 Y0.1878 
G01 X0.2270 Y0.1959 
G01 X0.2270 Y0.2041 
G01 X0.2257 Y0.2122 
G01 X0.2232 Y0.2200 
G01 X0.2195 Y0.2273 
G01 X0.2147 Y0.2339 
G01 X0.2089 Y0.2397 
G01 X0.2023 Y0.2445 
G01 X0.1950 Y0.2482 
G01 X0.1894 Y0.2500 
G01 X0.1950 Y0.2518 
G01 X0.2023 Y0.2555 
G01 X0.2089 Y0.2603 
G01 X0.2147 Y0.2661 
G01 X0.2195 Y0.2727 
G01 X0.2232 Y0.2800 
G01 X0.2257 Y0.2878 
G01 X0.2270 Y0.2959 
G01 X0.2270 Y0.3041 
G01 X0.2257 Y0.3122 
G01 X0.2240 Y0.3175 
G01 X0.3158 Y0.3175 
G01 X0.3151 Y0.3140 
G01 X0.3151 Y0.2833 
G01 X0.3147 Y0.2839 
G01 X0.3089 Y0.2897 
G01 X0.3023 Y0.2945 
G01 X0.2950 Y0.2982 
G01 X0.2872 Y0.3007 
G01 X0.2791 Y0.3020 
G01 X0.2709 Y0.3020 
G01 X0.2628 Y0.3007 
G01 X0.2550 Y0.2982 
G01 X0.2477 Y0.2945 
G01 X0.2411 Y0.2897 
G01 X0.2353 Y0.2839 
G01 X0.2305 Y0.2773 
G01 X0.2268 Y0.2700 
G01 X0.2243 Y0.2622 
G01 X0.2230 Y0.2541 
G01 X0.2230 Y0.2459 
G01 X0.2243 Y0.2378 
G01 X0.2268 Y0.2300 
G01 X0.2305 Y0.2227 
G01 X0.2353 Y0.2161 
G01 X0.2411 Y0.2103 
G01 X0.2477 Y0.2055 
G01 X0.2550 Y0.2018 
G01 X0.2606 Y0.2000 
G01 X0.2550 Y0.1982 
G01 X0.2477 Y0.1945 
G01 X0.2411 Y0.1897 
G01 X0.2353 Y0.1839 
G01 X0.2305 Y0.1773 
G01 X0.2268 Y0.1700 
G01 X0.2243 Y0.1622 
G01 X0.2230 Y0.1541 
G01 X0.2230 Y0.1459 
G01 X0.2243 Y0.1378 
G01 X0.2260 Y0.1325 
G01 X0.2135 Y0.1325 
G01 X0.2075 Y0.1385 
G01 X0.2075 Y0.1593 
G01 X0.2089 Y0.1603 
G00 Z0.1000 
G00 X0.3151 Y0.1833 
G01 Z0.0000 F10.00 
G01 X0.3147 Y0.1839 F20.00 
G01 X0.3089 Y0.1897 
G01 X0.3050 Y0.1925 
G01 X0.3151 Y0.1925 
G01 X0.3151 Y0.1833 
G00 Z0.1000 
G00 X0.9901 Y0.2865 
G01 Z0.0000 F10.00 
G01 X0.9965 Y0.2818 F20.00 
G01 X1.0036 Y0.2782 
G01 X1.0112 Y0.2757 
G01 X1.0159 Y0.2750 
G01 X1.0112 Y0.2743 
G01 X1.0036 Y0.2718 
G01 X0.9965 Y0.2682 
G01 X0.9901 Y0.2635 
G01 X0.9866 Y0.2600 
G01 X0.9870 Y0.2621 
G01 X0.9870 Y0.2896 
G01 X0.9901 Y0.2865 
G00 Z0.1000 
G00 X1.0036 Y0.1782 
G01 Z0.0000 F10.00 
G01 X1.0112 Y0.1757 F20.00 
G01 X1.0159 Y0.1750 
G01 X1.0112 Y0.1743 
G01 X1.0036 Y0.1718 
G01 X0.9965 Y0.1682 
G01 X0.9901 Y0.1635 
G01 X0.9866 Y0.1600 
G01 X0.9870 Y0.1621 
G01 X0.9870 Y0.1698 
G01 X0.9904 Y0.1712 
G01 X0.9957 Y0.1748 
G01 X1.0007 Y0.1797 
G01 X1.0036 Y0.1782 
G00 Z0.1000 
G00 X0.8741 Y0.0574 
G01 Z0.0000 F10.00 
G01 X0.8750 Y0.0620 F20.00 
G01 X0.8759 Y0.0574 
G01 X0.8771 Y0.0545 
G01 X0.8729 Y0.0545 
G01 X0.8741 Y0.0574 
G00 Z0.1000 
G00 X0.2049 Y0.2512 
G01 Z0.0000 F10.00 
G01 X0.2121 Y0.2565 F20.00 
G01 X0.2185 Y0.2629 
G01 X0.2199 Y0.2648 
G01 X0.2194 Y0.2633 
G01 X0.2180 Y0.2545 
G01 X0.2180 Y0.2455 
G01 X0.2194 Y0.2367 
G01 X0.2199 Y0.2352 
G01 X0.2185 Y0.2371 
G01 X0.2121 Y0.2435 
G01 X0.2049 Y0.2488 
G01 X0.2024 Y0.2500 
G01 X0.2049 Y0.2512 
G00 Z0.1000 
G00 X0.5989 Y0.2041 
G01 Z0.0000 F10.00 
G01 X0.5989 Y0.2041 F20.00 
G01 X0.5905 Y0.2125 
G01 X0.6095 Y0.2125 
G01 X0.6011 Y0.2041 
G01 X0.6000 Y0.2030 
G01 X0.5989 Y0.2041 
G00 Z0.1000 
G00 X0.2185 Y0.1629 
G01 Z0.0000 F10.00 
G01 X0.2199 Y0.1648 F20.00 
G01 X0.2194 Y0.1633 
G01 X0.2180 Y0.1545 
G01 X0.2180 Y0.1455 
G01 X0.2193 Y0.1375 
G01 X0.2155 Y0.1375 
G01 X0.2125 Y0.1405 
G01 X0.2125 Y0.1569 
G01 X0.2185 Y0.1629 
G00 Z0.1000 
G00 X0.1463 Y0.3494 
G01 Z0.0000 F10.00 
G01 X0.1451 Y0.3488 F20.00 
G01 X0.1379 Y0.3435 
G01 X0.1315 Y0.3371 
G01 X0.1262 Y0.3299 
G01 X0.1222 Y0.3219 
G01 X0.1194 Y0.3133 
G01 X0.1180 Y0.3045 
G01 X0.1180 Y0.2955 
G01 X0.1194 Y0.2867 
G01 X0.1222 Y0.2781 
G01 X0.1262 Y0.2701 
G01 X0.1315 Y0.2629 
G01 X0.1379 Y0.2565 
G01 X0.1451 Y0.2512 
G01 X0.1476 Y0.2500 
G01 X0.1451 Y0.2488 
G01 X0.1379 Y0.2435 
G01 X0.1315 Y0.2371 
G01 X0.1262 Y0.2299 
G01 X0.1222 Y0.2219 
G01 X0.1194 Y0.2133 
G01 X0.1180 Y0.2045 
G01 X0.1180 Y0.1955 
G01 X0.1194 Y0.1867 
G01 X0.1222 Y0.1781 
G01 X0.1262 Y0.1701 
G01 X0.1315 Y0.1629 
G01 X0.1375 Y0.1569 
G01 X0.1375 Y0.1213 
G01 X0.1389 Y0.1141 
G01 X0.1418 Y0.1072 
G01 X0.1459 Y0.1011 
G01 X0.1511 Y0.0959 
G01 X0.1761 Y0.0709 
G01 X0.1822 Y0.0668 
G01 X0.1891 Y0.0639 
G01 X0.1963 Y0.0625 
G01 X0.4537 Y0.0625 
G01 X0.4609 Y0.0639 
G01 X0.4678 Y0.0668 
G01 X0.4739 Y0.0709 
G01 X0.4791 Y0.0761 
G01 X0.4989 Y0.0959 
G01 X0.5041 Y0.1011 
G01 X0.5082 Y0.1072 
G01 X0.5086 Y0.1080 
G01 X0.5134 Y0.1080 
G01 X0.5191 Y0.1092 
G01 X0.5245 Y0.1114 
G01 X0.5293 Y0.1146 
G01 X0.5334 Y0.1187 
G01 X0.5337 Y0.1191 
G01 X0.5337 Y0.0764 
G01 X0.5348 Y0.0707 
G01 X0.5370 Y0.0654 
G01 X0.5403 Y0.0605 
G01 X0.5413 Y0.0595 
G01 X0.1533 Y0.0595 
G01 X0.1518 Y0.0629 
G01 X0.1462 Y0.0726 
G01 X0.1394 Y0.0815 
G01 X0.1315 Y0.0894 
G01 X0.1226 Y0.0962 
G01 X0.1129 Y0.1018 
G01 X0.1025 Y0.1061 
G01 X0.0917 Y0.1090 
G01 X0.0806 Y0.1105 
G01 X0.0694 Y0.1105 
G01 X0.0583 Y0.1090 
G01 X0.0475 Y0.1061 
G01 X0.0371 Y0.1018 
G01 X0.0345 Y0.1003 
G01 X0.0345 Y0.3497 
G01 X0.0371 Y0.3482 
G01 X0.0475 Y0.3439 
G01 X0.0583 Y0.3410 
G01 X0.0694 Y0.3395 
G01 X0.0806 Y0.3395 
G01 X0.0917 Y0.3410 
G01 X0.1025 Y0.3439 
G01 X0.1129 Y0.3482 
G01 X0.1226 Y0.3538 
G01 X0.1315 Y0.3606 
G01 X0.1394 Y0.3685 
G01 X0.1462 Y0.3774 
G01 X0.1518 Y0.3871 
G01 X0.1533 Y0.3905 
G01 X0.5413 Y0.3905 
G01 X0.5403 Y0.3895 
G01 X0.5390 Y0.3875 
G01 X0.1963 Y0.3875 
G01 X0.1891 Y0.3861 
G01 X0.1822 Y0.3832 
G01 X0.1761 Y0.3791 
G01 X0.1709 Y0.3739 
G01 X0.1463 Y0.3494 
G00 Z0.1000 
G00 X0.9920 Y0.0616 
G01 Z0.0000 F10.00 
G01 X0.9920 Y0.0789 F20.00 
G01 X0.9939 Y0.0775 
G01 X1.0017 Y0.0736 
G01 X1.0100 Y0.0709 
G01 X1.0186 Y0.0695 
G01 X1.0794 Y0.0695 
G01 X1.0880 Y0.0709 
G01 X1.0963 Y0.0736 
G01 X1.1041 Y0.0775 
G01 X1.1112 Y0.0827 
G01 X1.1173 Y0.0888 
G01 X1.1225 Y0.0959 
G01 X1.1264 Y0.1037 
G01 X1.1291 Y0.1120 
G01 X1.1305 Y0.1206 
G01 X1.1305 Y0.1294 
G01 X1.1291 Y0.1380 
G01 X1.1264 Y0.1463 
G01 X1.1225 Y0.1541 
G01 X1.1173 Y0.1612 
G01 X1.1112 Y0.1673 
G01 X1.1041 Y0.1725 
G01 X1.0991 Y0.1750 
G01 X1.1041 Y0.1775 
G01 X1.1112 Y0.1827 
G01 X1.1173 Y0.1888 
G01 X1.1225 Y0.1959 
G01 X1.1264 Y0.2037 
G01 X1.1291 Y0.2120 
G01 X1.1305 Y0.2206 
G01 X1.1305 Y0.2294 
G01 X1.1291 Y0.2380 
G01 X1.1264 Y0.2463 
G01 X1.1225 Y0.2541 
G01 X1.1173 Y0.2612 
G01 X1.1112 Y0.2673 
G01 X1.1041 Y0.2725 
G01 X1.0991 Y0.2750 
G01 X1.1041 Y0.2775 
G01 X1.1112 Y0.2827 
G01 X1.1173 Y0.2888 
G01 X1.1225 Y0.2959 
G01 X1.1264 Y0.3037 
G01 X1.1291 Y0.3120 
G01 X1.1305 Y0.3206 
G01 X1.1305 Y0.3294 
G01 X1.1291 Y0.3380 
G01 X1.1264 Y0.3463 
G01 X1.1225 Y0.3541 
G01 X1.1173 Y0.3612 
G01 X1.1112 Y0.3673 
G01 X1.1041 Y0.3725 
G01 X1.0963 Y0.3764 
G01 X1.0880 Y0.3791 
G01 X1.0794 Y0.3805 
G01 X1.0225 Y0.3805 
G01 X1.0125 Y0.3905 
G01 X1.7655 Y0.3905 
G01 X1.7655 Y0.0595 
G01 X0.9916 Y0.0595 
G01 X0.9920 Y0.0616 
G00 Z0.1000 
G00 X1.3459 Y0.2725 
G01 Z0.0000 F10.00 
G01 X1.3388 Y0.2673 F20.00 
G01 X1.3327 Y0.2612 
G01 X1.3275 Y0.2541 
G01 X1.3236 Y0.2463 
G01 X1.3209 Y0.2380 
G01 X1.3195 Y0.2294 
G01 X1.3195 Y0.2206 
G01 X1.3209 Y0.2120 
G01 X1.3236 Y0.2037 
G01 X1.3275 Y0.1959 
G01 X1.3327 Y0.1888 
G01 X1.3388 Y0.1827 
G01 X1.3459 Y0.1775 
G01 X1.3509 Y0.1750 
G01 X1.3459 Y0.1725 
G01 X1.3388 Y0.1673 
G01 X1.3327 Y0.1612 
G01 X1.3275 Y0.1541 
G01 X1.3236 Y0.1463 
G01 X1.3209 Y0.1380 
G01 X1.3195 Y0.1294 
G01 X1.3195 Y0.1206 
G01 X1.3209 Y0.1120 
G01 X1.3236 Y0.1037 
G01 X1.3275 Y0.0959 
G01 X1.3327 Y0.0888 
G01 X1.3388 Y0.0827 
G01 X1.3459 Y0.0775 
G01 X1.3537 Y0.0736 
G01 X1.3620 Y0.0709 
G01 X1.3706 Y0.0695 
G01 X1.4314 Y0.0695 
G01 X1.4400 Y0.0709 
G01 X1.4483 Y0.0736 
G01 X1.4561 Y0.0775 
G01 X1.4588 Y0.0795 
G01 X1.5203 Y0.0795 
G01 X1.5220 Y0.0778 
G01 X1.5287 Y0.0726 
G01 X1.5361 Y0.0684 
G01 X1.5439 Y0.0651 
G01 X1.5521 Y0.0629 
G01 X1.5605 Y0.0618 
G01 X1.6395 Y0.0618 
G01 X1.6479 Y0.0629 
G01 X1.6561 Y0.0651 
G01 X1.6639 Y0.0684 
G01 X1.6713 Y0.0726 
G01 X1.6780 Y0.0778 
G01 X1.6840 Y0.0838 
G01 X1.6892 Y0.0905 
G01 X1.6934 Y0.0979 
G01 X1.6967 Y0.1057 
G01 X1.6989 Y0.1139 
G01 X1.7000 Y0.1223 
G01 X1.7000 Y0.1308 
G01 X1.6989 Y0.1392 
G01 X1.6967 Y0.1474 
G01 X1.6934 Y0.1553 
G01 X1.6892 Y0.1626 
G01 X1.6840 Y0.1694 
G01 X1.6780 Y0.1754 
G01 X1.6713 Y0.1805 
G01 X1.6639 Y0.1848 
G01 X1.6561 Y0.1880 
G01 X1.6479 Y0.1902 
G01 X1.6395 Y0.1913 
G01 X1.5605 Y0.1913 
G01 X1.5521 Y0.1902 
G01 X1.5439 Y0.1880 
G01 X1.5361 Y0.1848 
G01 X1.5287 Y0.1805 
G01 X1.5220 Y0.1754 
G01 X1.5171 Y0.1705 
G01 X1.4588 Y0.1705 
G01 X1.4561 Y0.1725 
G01 X1.4511 Y0.1750 
G01 X1.4561 Y0.1775 
G01 X1.4632 Y0.1827 
G01 X1.4693 Y0.1888 
G01 X1.4745 Y0.1959 
G01 X1.4784 Y0.2037 
G01 X1.4811 Y0.2120 
G01 X1.4825 Y0.2206 
G01 X1.4825 Y0.2294 
G01 X1.4811 Y0.2380 
G01 X1.4784 Y0.2463 
G01 X1.4745 Y0.2541 
G01 X1.4693 Y0.2612 
G01 X1.4632 Y0.2673 
G01 X1.4561 Y0.2725 
G01 X1.4511 Y0.2750 
G01 X1.4561 Y0.2775 
G01 X1.4588 Y0.2795 
G01 X1.5171 Y0.2795 
G01 X1.5220 Y0.2746 
G01 X1.5287 Y0.2695 
G01 X1.5361 Y0.2652 
G01 X1.5439 Y0.2620 
G01 X1.5521 Y0.2598 
G01 X1.5605 Y0.2587 
G01 X1.6395 Y0.2587 
G01 X1.6479 Y0.2598 
G01 X1.6561 Y0.2620 
G01 X1.6639 Y0.2652 
G01 X1.6713 Y0.2695 
G01 X1.6780 Y0.2746 
G01 X1.6840 Y0.2806 
G01 X1.6892 Y0.2874 
G01 X1.6934 Y0.2947 
G01 X1.6967 Y0.3026 
G01 X1.6989 Y0.3108 
G01 X1.7000 Y0.3192 
G01 X1.7000 Y0.3277 
G01 X1.6989 Y0.3361 
G01 X1.6967 Y0.3443 
G01 X1.6934 Y0.3521 
G01 X1.6892 Y0.3595 
G01 X1.6840 Y0.3662 
G01 X1.6780 Y0.3722 
G01 X1.6713 Y0.3774 
G01 X1.6639 Y0.3816 
G01 X1.6561 Y0.3849 
G01 X1.6479 Y0.3871 
G01 X1.6395 Y0.3882 
G01 X1.5605 Y0.3882 
G01 X1.5521 Y0.3871 
G01 X1.5439 Y0.3849 
G01 X1.5361 Y0.3816 
G01 X1.5287 Y0.3774 
G01 X1.5220 Y0.3722 
G01 X1.5203 Y0.3705 
G01 X1.4588 Y0.3705 
G01 X1.4561 Y0.3725 
G01 X1.4483 Y0.3764 
G01 X1.4400 Y0.3791 
G01 X1.4314 Y0.3805 
G01 X1.3706 Y0.3805 
G01 X1.3620 Y0.3791 
G01 X1.3537 Y0.3764 
G01 X1.3459 Y0.3725 
G01 X1.3388 Y0.3673 
G01 X1.3327 Y0.3612 
G01 X1.3275 Y0.3541 
G01 X1.3236 Y0.3463 
G01 X1.3209 Y0.3380 
G01 X1.3195 Y0.3294 
G01 X1.3195 Y0.3206 
G01 X1.3209 Y0.3120 
G01 X1.3236 Y0.3037 
G01 X1.3275 Y0.2959 
G01 X1.3327 Y0.2888 
G01 X1.3388 Y0.2827 
G01 X1.3459 Y0.2775 
G01 X1.3509 Y0.2750 
G01 X1.3459 Y0.2725 
G00 Z0.1000 
G00 X0.7846 Y0.3650 
G01 Z0.0000 F10.00 
G01 X0.7789 Y0.3639 F20.00 
G01 X0.7735 Y0.3616 
G01 X0.7687 Y0.3584 
G01 X0.7663 Y0.3560 
G01 X0.7663 Y0.3736 
G01 X0.7652 Y0.3793 
G01 X0.7630 Y0.3846 
G01 X0.7597 Y0.3895 
G01 X0.7587 Y0.3905 
G01 X0.8565 Y0.3905 
G01 X0.8310 Y0.3650 
G01 X0.7846 Y0.3650 
G00 Z0.1000 
G00 X0.2320 Y0.2955 
G01 Z0.0000 F10.00 
G01 X0.2320 Y0.3045 F20.00 
G01 X0.2307 Y0.3125 
G01 X0.3101 Y0.3125 
G01 X0.3101 Y0.2950 
G01 X0.3049 Y0.2988 
G01 X0.2969 Y0.3028 
G01 X0.2883 Y0.3056 
G01 X0.2795 Y0.3070 
G01 X0.2705 Y0.3070 
G01 X0.2617 Y0.3056 
G01 X0.2531 Y0.3028 
G01 X0.2451 Y0.2988 
G01 X0.2379 Y0.2935 
G01 X0.2315 Y0.2871 
G01 X0.2301 Y0.2852 
G01 X0.2306 Y0.2867 
G01 X0.2320 Y0.2955 
G00 Z0.1000 
G00 X0.9939 Y0.2775 
G01 Z0.0000 F10.00 
G01 X0.9989 Y0.2750 F20.00 
G01 X0.9939 Y0.2725 
G01 X0.9920 Y0.2711 
G01 X0.9920 Y0.2789 
G01 X0.9939 Y0.2775 
G00 Z0.1000 
G00 X0.2306 Y0.1867 
G01 Z0.0000 F10.00 
G01 X0.2320 Y0.1955 F20.00 
G01 X0.2320 Y0.2045 
G01 X0.2306 Y0.2133 
G01 X0.2301 Y0.2148 
G01 X0.2315 Y0.2129 
G01 X0.2379 Y0.2065 
G01 X0.2451 Y0.2012 
G01 X0.2476 Y0.2000 
G01 X0.2451 Y0.1988 
G01 X0.2379 Y0.1935 
G01 X0.2315 Y0.1871 
G01 X0.2301 Y0.1852 
G01 X0.2306 Y0.1867 
G00 Z0.1000 
G00 X1.6398 Y0.1963 
G01 Z0.0000 F10.00 
G01 X1.5602 Y0.1963 F20.00 
G01 X1.5511 Y0.1951 
G01 X1.5423 Y0.1928 
G01 X1.5338 Y0.1893 
G01 X1.5259 Y0.1847 
G01 X1.5187 Y0.1791 
G01 X1.5150 Y0.1755 
G01 X1.4618 Y0.1755 
G01 X1.4664 Y0.1789 
G01 X1.4731 Y0.1856 
G01 X1.4787 Y0.1933 
G01 X1.4831 Y0.2018 
G01 X1.4860 Y0.2108 
G01 X1.4875 Y0.2202 
G01 X1.4875 Y0.2298 
G01 X1.4860 Y0.2392 
G01 X1.4831 Y0.2482 
G01 X1.4787 Y0.2567 
G01 X1.4731 Y0.2644 
G01 X1.4664 Y0.2711 
G01 X1.4618 Y0.2745 
G01 X1.5150 Y0.2745 
G01 X1.5187 Y0.2709 
G01 X1.5259 Y0.2653 
G01 X1.5338 Y0.2607 
G01 X1.5423 Y0.2572 
G01 X1.5511 Y0.2549 
G01 X1.5602 Y0.2537 
G01 X1.6398 Y0.2537 
G01 X1.6489 Y0.2549 
G01 X1.6577 Y0.2572 
G01 X1.6662 Y0.2607 
G01 X1.6741 Y0.2653 
G01 X1.6813 Y0.2709 
G01 X1.6878 Y0.2773 
G01 X1.6934 Y0.2846 
G01 X1.6979 Y0.2925 
G01 X1.7014 Y0.3010 
G01 X1.7038 Y0.3098 
G01 X1.7050 Y0.3189 
G01 X1.7050 Y0.3280 
G01 X1.7038 Y0.3371 
G01 X1.7014 Y0.3459 
G01 X1.6979 Y0.3543 
G01 X1.6934 Y0.3623 
G01 X1.6878 Y0.3695 
G01 X1.6813 Y0.3760 
G01 X1.6741 Y0.3815 
G01 X1.6672 Y0.3855 
G01 X1.7605 Y0.3855 
G01 X1.7605 Y0.0645 
G01 X1.6672 Y0.0645 
G01 X1.6741 Y0.0685 
G01 X1.6813 Y0.0740 
G01 X1.6878 Y0.0805 
G01 X1.6934 Y0.0877 
G01 X1.6979 Y0.0957 
G01 X1.7014 Y0.1041 
G01 X1.7038 Y0.1129 
G01 X1.7050 Y0.1220 
G01 X1.7050 Y0.1311 
G01 X1.7038 Y0.1402 
G01 X1.7014 Y0.1490 
G01 X1.6979 Y0.1575 
G01 X1.6934 Y0.1654 
G01 X1.6878 Y0.1727 
G01 X1.6813 Y0.1791 
G01 X1.6741 Y0.1847 
G01 X1.6662 Y0.1893 
G01 X1.6577 Y0.1928 
G01 X1.6489 Y0.1951 
G01 X1.6398 Y0.1963 
G00 Z0.1000 
G00 X1.5187 Y0.0740 
G01 Z0.0000 F10.00 
G01 X1.5259 Y0.0685 F20.00 
G01 X1.5328 Y0.0645 
G01 X0.9970 Y0.0645 
G01 X0.9970 Y0.0704 
G01 X0.9998 Y0.0689 
G01 X1.0088 Y0.0660 
G01 X1.0182 Y0.0645 
G01 X1.0798 Y0.0645 
G01 X1.0892 Y0.0660 
G01 X1.0982 Y0.0689 
G01 X1.1067 Y0.0733 
G01 X1.1144 Y0.0789 
G01 X1.1211 Y0.0856 
G01 X1.1267 Y0.0933 
G01 X1.1311 Y0.1018 
G01 X1.1340 Y0.1108 
G01 X1.1355 Y0.1202 
G01 X1.1355 Y0.1298 
G01 X1.1340 Y0.1392 
G01 X1.1311 Y0.1482 
G01 X1.1267 Y0.1567 
G01 X1.1211 Y0.1644 
G01 X1.1144 Y0.1711 
G01 X1.1091 Y0.1750 
G01 X1.1144 Y0.1789 
G01 X1.1211 Y0.1856 
G01 X1.1267 Y0.1933 
G01 X1.1311 Y0.2018 
G01 X1.1340 Y0.2108 
G01 X1.1355 Y0.2202 
G01 X1.1355 Y0.2298 
G01 X1.1340 Y0.2392 
G01 X1.1311 Y0.2482 
G01 X1.1267 Y0.2567 
G01 X1.1211 Y0.2644 
G01 X1.1144 Y0.2711 
G01 X1.1091 Y0.2750 
G01 X1.1144 Y0.2789 
G01 X1.1211 Y0.2856 
G01 X1.1267 Y0.2933 
G01 X1.1311 Y0.3018 
G01 X1.1340 Y0.3108 
G01 X1.1355 Y0.3202 
G01 X1.1355 Y0.3298 
G01 X1.1340 Y0.3392 
G01 X1.1311 Y0.3482 
G01 X1.1267 Y0.3567 
G01 X1.1211 Y0.3644 
G01 X1.1144 Y0.3711 
G01 X1.1067 Y0.3767 
G01 X1.0982 Y0.3811 
G01 X1.0892 Y0.3840 
G01 X1.0798 Y0.3855 
G01 X1.0246 Y0.3855 
G01 X1.5328 Y0.3855 
G01 X1.5259 Y0.3815 
G01 X1.5187 Y0.3760 
G01 X1.5182 Y0.3755 
G01 X1.4604 Y0.3755 
G01 X1.4587 Y0.3767 
G01 X1.4502 Y0.3811 
G01 X1.4412 Y0.3840 
G01 X1.4318 Y0.3855 
G01 X1.3702 Y0.3855 
G01 X1.3608 Y0.3840 
G01 X1.3518 Y0.3811 
G01 X1.3433 Y0.3767 
G01 X1.3356 Y0.3711 
G01 X1.3289 Y0.3644 
G01 X1.3233 Y0.3567 
G01 X1.3189 Y0.3482 
G01 X1.3160 Y0.3392 
G01 X1.3145 Y0.3298 
G01 X1.3145 Y0.3202 
G01 X1.3160 Y0.3108 
G01 X1.3189 Y0.3018 
G01 X1.3233 Y0.2933 
G01 X1.3289 Y0.2856 
G01 X1.3356 Y0.2789 
G01 X1.3409 Y0.2750 
G01 X1.3356 Y0.2711 
G01 X1.3289 Y0.2644 
G01 X1.3233 Y0.2567 
G01 X1.3189 Y0.2482 
G01 X1.3160 Y0.2392 
G01 X1.3145 Y0.2298 
G01 X1.3145 Y0.2202 
G01 X1.3160 Y0.2108 
G01 X1.3189 Y0.2018 
G01 X1.3233 Y0.1933 
G01 X1.3289 Y0.1856 
G01 X1.3356 Y0.1789 
G01 X1.3409 Y0.1750 
G01 X1.3356 Y0.1711 
G01 X1.3289 Y0.1644 
G01 X1.3233 Y0.1567 
G01 X1.3189 Y0.1482 
G01 X1.3160 Y0.1392 
G01 X1.3145 Y0.1298 
G01 X1.3145 Y0.1202 
G01 X1.3160 Y0.1108 
G01 X1.3189 Y0.1018 
G01 X1.3233 Y0.0933 
G01 X1.3289 Y0.0856 
G01 X1.3356 Y0.0789 
G01 X1.3433 Y0.0733 
G01 X1.3518 Y0.0689 
G01 X1.3608 Y0.0660 
G01 X1.3702 Y0.0645 
G01 X1.4318 Y0.0645 
G01 X1.4412 Y0.0660 
G01 X1.4502 Y0.0689 
G01 X1.4587 Y0.0733 
G01 X1.4604 Y0.0745 
G01 X1.5182 Y0.0745 
G01 X1.5187 Y0.0740 
G00 Z0.1000 
G00 X0.7841 Y0.3700 
G01 Z0.0000 F10.00 
G01 X0.7775 Y0.3687 F20.00 
G01 X0.7713 Y0.3661 
G01 X0.7713 Y0.3741 
G01 X0.7700 Y0.3807 
G01 X0.7680 Y0.3855 
G01 X0.8444 Y0.3855 
G01 X0.8289 Y0.3700 
G01 X0.7841 Y0.3700 
G00 Z0.1000 
G00 X0.1766 Y0.3855 
G01 Z0.0000 F10.00 
G01 X0.1723 Y0.3824 F20.00 
G01 X0.1676 Y0.3777 
G01 X0.1434 Y0.3535 
G01 X0.1425 Y0.3530 
G01 X0.1346 Y0.3473 
G01 X0.1277 Y0.3404 
G01 X0.1220 Y0.3325 
G01 X0.1175 Y0.3238 
G01 X0.1145 Y0.3145 
G01 X0.1130 Y0.3049 
G01 X0.1130 Y0.2951 
G01 X0.1145 Y0.2855 
G01 X0.1175 Y0.2762 
G01 X0.1220 Y0.2675 
G01 X0.1277 Y0.2596 
G01 X0.1346 Y0.2527 
G01 X0.1383 Y0.2500 
G01 X0.1346 Y0.2473 
G01 X0.1277 Y0.2404 
G01 X0.1220 Y0.2325 
G01 X0.1175 Y0.2238 
G01 X0.1145 Y0.2145 
G01 X0.1130 Y0.2049 
G01 X0.1130 Y0.1951 
G01 X0.1145 Y0.1855 
G01 X0.1175 Y0.1762 
G01 X0.1220 Y0.1675 
G01 X0.1277 Y0.1596 
G01 X0.1325 Y0.1548 
G01 X0.1325 Y0.1217 
G01 X0.1335 Y0.1150 
G01 X0.1356 Y0.1087 
G01 X0.1387 Y0.1027 
G01 X0.1426 Y0.0973 
G01 X0.1473 Y0.0926 
G01 X0.1723 Y0.0676 
G01 X0.1766 Y0.0645 
G01 X0.1566 Y0.0645 
G01 X0.1516 Y0.0736 
G01 X0.1449 Y0.0828 
G01 X0.1371 Y0.0911 
G01 X0.1283 Y0.0984 
G01 X0.1187 Y0.1045 
G01 X0.1084 Y0.1093 
G01 X0.0976 Y0.1128 
G01 X0.0864 Y0.1150 
G01 X0.0750 Y0.1157 
G01 X0.0636 Y0.1150 
G01 X0.0524 Y0.1128 
G01 X0.0416 Y0.1093 
G01 X0.0395 Y0.1083 
G01 X0.0395 Y0.3417 
G01 X0.0416 Y0.3407 
G01 X0.0524 Y0.3372 
G01 X0.0636 Y0.3350 
G01 X0.0750 Y0.3343 
G01 X0.0864 Y0.3350 
G01 X0.0976 Y0.3372 
G01 X0.1084 Y0.3407 
G01 X0.1187 Y0.3455 
G01 X0.1283 Y0.3516 
G01 X0.1371 Y0.3589 
G01 X0.1449 Y0.3672 
G01 X0.1516 Y0.3764 
G01 X0.1566 Y0.3855 
G01 X0.1766 Y0.3855 
G00 Z0.1000 
G00 X0.4777 Y0.0676 
G01 Z0.0000 F10.00 
G01 X0.4824 Y0.0723 F20.00 
G01 X0.5027 Y0.0926 
G01 X0.5074 Y0.0973 
G01 X0.5113 Y0.1027 
G01 X0.5115 Y0.1030 
G01 X0.5139 Y0.1030 
G01 X0.5206 Y0.1043 
G01 X0.5268 Y0.1069 
G01 X0.5287 Y0.1082 
G01 X0.5287 Y0.0759 
G01 X0.5300 Y0.0693 
G01 X0.5320 Y0.0645 
G01 X0.4734 Y0.0645 
G01 X0.4777 Y0.0676 
G00 Z0.1000 
G00 X0.2370 Y0.2010 
G01 Z0.0000 F10.00 
G01 X0.2383 Y0.2000 F20.00 
G01 X0.2370 Y0.1990 
G01 X0.2370 Y0.2010 
G00 Z0.1000 
G00 X0.2370 Y0.3049 
G01 Z0.0000 F10.00 
G01 X0.2366 Y0.3075 F20.00 
G01 X0.2513 Y0.3075 
G01 X0.2512 Y0.3075 
G01 X0.2425 Y0.3030 
G01 X0.2370 Y0.2990 
G01 X0.2370 Y0.3049 
G00 Z0.1000 
G00 X0.3051 Y0.3043 
G01 Z0.0000 F10.00 
G01 X0.2988 Y0.3075 F20.00 
G01 X0.2987 Y0.3075 
G01 X0.3051 Y0.3075 
G01 X0.3051 Y0.3043 
G00 Z0.1000 
